; HEADER_BLOCK_START
; generated by OrcaSlicer 2.2.0 on 2025-02-08 at 13:36:33
; total layer number: 79
; filament_density: 1.04
; filament_diameter: 1.75
; max_z_height: 12.00
; HEADER_BLOCK_END

; THUMBNAIL_BLOCK_START

;
; THUMBNAIL_BLOCK_END

; external perimeters extrusion width = 0.40mm
; perimeters extrusion width = 0.40mm
; infill extrusion width = 0.40mm
; solid infill extrusion width = 0.40mm
; top infill extrusion width = 0.40mm
; first layer extrusion width = 0.40mm

; EXECUTABLE_BLOCK_START
M73 P0 R56
;TYPE:Custom
G90 ; use absolute coordinates
M83 ; extruder relative mode
M140 S100 ; set final bed temp
M104 S150 ; set temporary nozzle temp to prevent oozing during homing
G4 S10 ; allow partial nozzle warmup
M104 S250 ; set final nozzle temp
M190 S100 ; wait for bed temp to stabilize
M109 S250 ; wait for nozzle temp to stabilize
G28 ; home all axis
G1 Z15 F240
G1 X-2 Y10 F3000
G1 Z0.28 F240
G92 E0
G1 Y140 E10 F1500 ; prime the nozzle
G1 X-1.7 F5000
G92 E0
G1 Y10 E10 F1200 ; prime the nozzle
G92 E0
M106 P3 S178
G90
G21
M83 ; use relative distances for extrusion
; Filament gcode
M106 S0
;LAYER_CHANGE
;Z:0.3
;HEIGHT:0.3
;BEFORE_LAYER_CHANGE
;0.3
G92 E0

G1 E-4 F1500
;_SET_FAN_SPEED_CHANGING_LAYER
M204 S1500
G1 Z.8 F9000
G1 X63.516 Y94.997
G1 Z.8
G1 Z.3
G1 E4 F1500
;TYPE:Skirt
;WIDTH:0.4
G1 F3000
G1 X171.5 Y94.997 E4.52025
G1 X172.845 Y95.389 E.05865
G1 X173.769 Y96.442 E.05865
G1 X174.003 Y97.5 E.04537
G1 X174.003 Y122.5 E1.04651
G1 X173.611 Y123.845 E.05865
G1 X172.558 Y124.769 E.05865
G1 X171.5 Y125.003 E.04537
G1 X48.5 Y125.003 E5.14882
G1 X47.155 Y124.611 E.05865
G1 X46.231 Y123.558 E.05865
G1 X45.997 Y122.5 E.04537
G1 X45.997 Y97.5 E1.04651
G1 X46.389 Y96.155 E.05865
G1 X47.442 Y95.231 E.05865
G1 X48.5 Y94.997 E.04537
G1 X63.476 Y94.997 E.6269
G1 X63.476 Y95.332 F9000
G1 F3000
G1 X171.5 Y95.332 E4.52192
G1 X172.742 Y95.723 E.05449
G1 X173.536 Y96.754 E.05449
G1 X173.668 Y97.5 E.0317
G1 X173.668 Y122.5 E1.04651
G1 X173.277 Y123.742 E.05449
G1 X172.246 Y124.536 E.05449
G1 X171.5 Y124.668 E.0317
G1 X48.5 Y124.668 E5.14882
G1 X47.258 Y124.277 E.05449
G1 X46.464 Y123.246 E.05449
G1 X46.332 Y122.5 E.0317
G1 X46.332 Y97.5 E1.04651
G1 X46.723 Y96.258 E.05449
G1 X47.754 Y95.464 E.05449
G1 X48.5 Y95.332 E.0317
G1 X63.436 Y95.332 E.62522
; printing object 100 amp shunt holder.stl id:7811887588677804288 copy 0
G1 E-3.5 F1500
;WIPE_START
G1 F3000
G1 X64.436 Y95.332 E-.5
;WIPE_END
G1 Z.8 F9000
G1 X147.882 Y102.337 Z.8
G1 Z.3
M73 P1 R56
M73 P1 R56
G1 E4 F1500
;TYPE:Inner wall
G1 F2100
G1 X147.979 Y102.17 E.00811
G1 X157.021 Y102.17 E.37849
G1 X157.322 Y102.691 E.0252
G1 X161.542 Y110 E.35328
G1 X157.021 Y117.83 E.37849
G1 X147.979 Y117.83 E.37849
G1 X147.539 Y117.067 E.03688
G1 X143.458 Y110 E.3416
G1 X147.862 Y102.372 E.3687
G1 X148.173 Y102.505 F9000
;TYPE:Outer wall
G1 F2100
G1 X156.827 Y102.505 E.36227
G1 X157.031 Y102.859 E.01709
G1 X161.154 Y110 E.34517
G1 X156.827 Y117.495 E.36227
G1 X148.173 Y117.495 E.36227
G1 X147.829 Y116.899 E.02877
G1 X143.846 Y110 E.33349
G1 X148.153 Y102.54 E.36059
G1 E-3.28571 F1500
;WIPE_START
G1 F2100
G1 X149.153 Y102.536 E-.71429
;WIPE_END
G1 Z.8 F9000
G1 X165.029 Y107.521 Z.8
G1 Z.3
G1 E4 F1500
;TYPE:Inner wall
G1 F2100
G1 X165.278 Y107.384 E.01192
G1 X165.782 Y107.203 E.02241
G1 X166.319 Y107.118 E.02276
G1 X166.853 Y107.134 E.0224
G1 X167.218 Y107.204 E.01553
G1 X167.571 Y107.319 E.01552
G1 X168.047 Y107.562 E.02241
G1 X168.477 Y107.895 E.02276
G1 X168.837 Y108.302 E.02275
G1 X169.113 Y108.77 E.02275
G1 X169.297 Y109.282 E.02275
G1 X169.382 Y109.819 E.02275
G1 X169.365 Y110.362 E.02275
G1 X169.247 Y110.892 E.02275
G1 X169.031 Y111.392 E.02277
G1 X168.721 Y111.845 E.02299
G1 X168.341 Y112.225 E.02251
G1 X167.891 Y112.531 E.02275
G1 X167.4 Y112.743 E.0224
G1 X167.041 Y112.836 E.01552
G1 X166.679 Y112.882 E.01529
G1 X166.147 Y112.866 E.02227
G1 X165.782 Y112.796 E.01555
G1 X165.429 Y112.681 E.01552
G1 X164.953 Y112.439 E.02241
G1 X164.523 Y112.105 E.02275
G1 X164.163 Y111.698 E.02276
G1 X163.887 Y111.23 E.02275
G1 X163.703 Y110.718 E.02275
G1 X163.618 Y110.181 E.02275
G1 X163.635 Y109.638 E.02275
G1 X163.753 Y109.108 E.02275
G1 X163.969 Y108.609 E.02276
G1 X164.275 Y108.159 E.02275
G1 X164.653 Y107.781 E.0224
G1 X164.953 Y107.563 E.01553
G1 X164.993 Y107.54 E.00192
G1 X165.19 Y107.815 F9000
;TYPE:Outer wall
G1 F2100
G1 X165.417 Y107.691 E.01082
G1 X165.866 Y107.529 E.01997
G1 X166.34 Y107.454 E.0201
G1 X166.817 Y107.469 E.01997
G1 X167.134 Y107.53 E.01354
G1 X167.442 Y107.63 E.01353
G1 X167.867 Y107.846 E.01997
G1 X168.246 Y108.14 E.0201
G1 X168.564 Y108.501 E.0201
G1 X168.808 Y108.914 E.0201
G1 X168.971 Y109.366 E.0201
G1 X169.046 Y109.84 E.0201
G1 X169.031 Y110.32 E.0201
G1 X168.926 Y110.788 E.0201
G1 X168.735 Y111.229 E.02011
G1 X168.462 Y111.63 E.02032
G1 X168.126 Y111.966 E.01987
G1 X167.729 Y112.235 E.02009
G1 X167.291 Y112.425 E.01997
G1 X166.978 Y112.505 E.01354
G1 X166.663 Y112.545 E.01331
G1 X166.184 Y112.531 E.02006
G1 X165.866 Y112.47 E.01355
G1 X165.558 Y112.37 E.01353
G1 X165.133 Y112.154 E.01997
G1 X164.754 Y111.86 E.02009
G1 X164.436 Y111.499 E.02011
G1 X164.192 Y111.086 E.0201
G1 X164.029 Y110.634 E.0201
G1 X163.954 Y110.16 E.0201
G1 X163.969 Y109.68 E.0201
G1 X164.074 Y109.212 E.0201
G1 X164.265 Y108.771 E.0201
G1 X164.534 Y108.374 E.0201
G1 X164.872 Y108.037 E.01997
G1 X165.133 Y107.847 E.01354
G1 X165.155 Y107.835 E.00104
G1 E-3.28571 F1500
;WIPE_START
G1 F2100
G1 X165.417 Y107.691 E-.21314
G1 X165.866 Y107.529 E-.34081
G1 X166.087 Y107.494 E-.16034
;WIPE_END
G1 Z.8 F9000
G1 X76.445 Y110.168 Z.8
G1 Z.3
G1 E4 F1500
;TYPE:Inner wall
G1 F2100
G1 X72.021 Y117.83 E.37038
G1 X62.979 Y117.83 E.37849
G1 X58.458 Y110 E.37849
G1 X62.979 Y102.17 E.37849
G1 X72.021 Y102.17 E.37849
G1 X76.107 Y109.247 E.34211
G1 X76.542 Y110 E.03638
G1 X76.465 Y110.133 E.00644
G1 X76.154 Y110 F9000
;TYPE:Outer wall
G1 F2100
G1 X71.827 Y117.495 E.36227
G1 X63.173 Y117.495 E.36227
G1 X58.846 Y110 E.36227
G1 X63.173 Y102.505 E.36227
G1 X71.827 Y102.505 E.36227
G1 X75.817 Y109.415 E.334
G1 X76.134 Y109.965 E.02659
G1 E-3.28571 F1500
;WIPE_START
G1 F2100
G1 X75.638 Y110.833 E-.71429
;WIPE_END
G1 Z.8 F9000
G1 X52.143 Y107.458 Z.8
G1 Z.3
G1 E4 F1500
;TYPE:Inner wall
G1 F2100
G1 X52.278 Y107.384 E.00647
G1 X52.782 Y107.203 E.02241
G1 X53.319 Y107.118 E.02276
G1 X53.862 Y107.135 E.02275
G1 X54.384 Y107.251 E.0224
G1 X54.729 Y107.388 E.01553
G1 X55.054 Y107.567 E.01553
G1 X55.477 Y107.895 E.0224
G1 X55.837 Y108.302 E.02275
G1 X56.113 Y108.77 E.02276
G1 X56.297 Y109.282 E.02275
G1 X56.382 Y109.819 E.02275
G1 X56.365 Y110.362 E.02276
G1 X56.247 Y110.893 E.02277
G1 X56.028 Y111.397 E.023
G1 X55.726 Y111.839 E.02239
G1 X55.476 Y112.104 E.01528
G1 X55.19 Y112.341 E.01552
G1 X54.73 Y112.613 E.0224
G1 X54.218 Y112.797 E.02275
G1 X53.687 Y112.882 E.02251
G1 X53.139 Y112.865 E.02298
G1 X52.613 Y112.748 E.02253
G1 X52.109 Y112.531 E.02299
G1 X51.666 Y112.23 E.02242
G1 X51.396 Y111.976 E.01552
G1 X51.159 Y111.69 E.01553
G1 X50.887 Y111.23 E.0224
G1 X50.703 Y110.718 E.02275
G1 X50.618 Y110.181 E.02275
G1 X50.635 Y109.638 E.02276
G1 X50.753 Y109.108 E.02275
G1 X50.969 Y108.609 E.02276
G1 X51.275 Y108.159 E.02275
G1 X51.653 Y107.781 E.0224
G1 X51.953 Y107.563 E.01553
G1 X52.108 Y107.478 E.00737
G1 X52.304 Y107.753 F9000
;TYPE:Outer wall
G1 F2100
G1 X52.417 Y107.691 E.00537
G1 X52.866 Y107.529 E.01997
G1 X53.34 Y107.454 E.0201
G1 X53.82 Y107.469 E.0201
G1 X54.285 Y107.573 E.01997
G1 X54.586 Y107.692 E.01354
G1 X54.869 Y107.848 E.01354
G1 X55.246 Y108.14 E.01997
G1 X55.564 Y108.501 E.0201
G1 X55.808 Y108.914 E.02011
G1 X55.971 Y109.366 E.02009
G1 X56.046 Y109.84 E.0201
G1 X56.031 Y110.32 E.0201
G1 X55.926 Y110.788 E.0201
G1 X55.733 Y111.234 E.02033
G1 X55.464 Y111.628 E.01996
G1 X55.246 Y111.859 E.01331
G1 X54.997 Y112.065 E.01354
G1 X54.586 Y112.308 E.01997
G1 X54.134 Y112.471 E.0201
G1 X53.666 Y112.545 E.01987
G1 X53.181 Y112.531 E.02032
G1 X52.717 Y112.428 E.01988
G1 X52.271 Y112.236 E.02032
G1 X51.876 Y111.967 E.01998
G1 X51.641 Y111.746 E.01353
G1 X51.435 Y111.497 E.01354
G1 X51.192 Y111.086 E.01997
G1 X51.029 Y110.634 E.0201
G1 X50.954 Y110.16 E.0201
G1 X50.969 Y109.68 E.0201
G1 X51.074 Y109.212 E.0201
G1 X51.265 Y108.771 E.0201
G1 X51.534 Y108.374 E.0201
G1 X51.872 Y108.037 E.01997
G1 X52.133 Y107.847 E.01354
G1 X52.269 Y107.772 E.00649
G1 E-3.28571 F1500
;WIPE_START
G1 F2100
G1 X52.417 Y107.691 E-.12016
G1 X52.866 Y107.529 E-.34081
G1 X53.216 Y107.474 E-.25332
;WIPE_END
G1 Z.8 F9000
G1 X170.814 Y121.814 Z.8
G1 Z.3
G1 E4 F1500
;TYPE:Inner wall
G1 F2100
G1 X49.186 Y121.814 E5.09142
G1 X49.186 Y98.186 E.98911
G1 X170.814 Y98.186 E5.09142
G1 X170.814 Y121.774 E.98743
M73 P1 R55
M73 P1 R55
G1 X171.15 Y122.15 F9000
;TYPE:Outer wall
G1 F2100
G1 X48.85 Y122.15 E5.11952
G1 X48.85 Y97.85 E1.01721
G1 X171.15 Y97.85 E5.11952
G1 X171.15 Y122.11 E1.01553
G1 E-3.28571 F1500
;WIPE_START
G1 F2100
G1 X170.15 Y122.11 E-.71429
;WIPE_END
G1 Z.8 F9000
G1 X170.714 Y98.966
G1 Z.8
G1 Z.3
G1 E4 F1500
;TYPE:Bottom surface
;WIDTH:0.400365
G1 F2400
G1 X170.185 Y98.437 E.0313
G1 X169.71 Y98.437 E.01991
G1 X170.563 Y99.29 E.05051
G1 X170.563 Y99.765 E.01991
G1 X169.235 Y98.437 E.07867
G1 X168.76 Y98.437 E.01991
G1 X170.563 Y100.24 E.10683
G1 X170.563 Y100.715 E.01991
G1 X168.285 Y98.437 E.13499
G1 X167.81 Y98.437 E.01991
G1 X170.563 Y101.19 E.16315
G1 X170.563 Y101.665 E.01991
G1 X167.335 Y98.437 E.19131
G1 X166.859 Y98.437 E.01991
G1 X170.563 Y102.141 E.21947
G1 X170.563 Y102.616 E.01991
G1 X166.384 Y98.437 E.24763
G1 X165.909 Y98.437 E.01991
G1 X170.563 Y103.091 E.27579
G1 X170.563 Y103.566 E.01991
G1 X165.434 Y98.437 E.30395
G1 X164.959 Y98.437 E.01991
G1 X170.563 Y104.041 E.33211
G1 X170.563 Y104.516 E.01991
G1 X164.484 Y98.437 E.36027
G1 X164.008 Y98.437 E.01991
G1 X170.563 Y104.992 E.38842
G1 X170.563 Y105.467 E.01991
G1 X163.533 Y98.437 E.41658
G1 X163.058 Y98.437 E.01991
G1 X170.563 Y105.942 E.44474
G1 X170.563 Y106.417 E.01991
G1 X162.583 Y98.437 E.4729
G1 X162.108 Y98.437 E.01991
G1 X170.563 Y106.892 E.50106
G1 X170.563 Y107.367 E.01991
G1 X161.633 Y98.437 E.52922
G1 X161.158 Y98.437 E.01991
M73 P2 R55
M73 P2 R55
G1 X170.563 Y107.842 E.55738
G1 X170.563 Y108.318 E.01991
G1 X160.682 Y98.437 E.58554
G1 X160.207 Y98.437 E.01991
G1 X170.563 Y108.793 E.6137
G1 X170.563 Y109.268 E.01991
G1 X159.732 Y98.437 E.64186
G1 X159.257 Y98.437 E.01991
G1 X170.563 Y109.743 E.67002
G1 X170.563 Y110.218 E.01991
G1 X169.53 Y109.186 E.06118
G1 X169.628 Y109.758 E.02433
G1 X170.563 Y110.693 E.05541
G1 X170.563 Y111.168 E.01991
G1 X169.621 Y110.227 E.05578
G1 X169.616 Y110.394 E.00698
G1 X169.561 Y110.642 E.01065
G1 X170.563 Y111.644 E.05938
G1 X170.563 Y112.119 E.01991
G1 X169.465 Y111.021 E.06504
G1 X169.322 Y111.353 E.01514
G1 X170.563 Y112.594 E.07354
G1 X170.563 Y113.069 E.01991
G1 X169.153 Y111.659 E.08355
G1 X168.96 Y111.942 E.01433
G1 X170.563 Y113.544 E.09496
G1 X170.563 Y114.019 E.01991
G1 X168.733 Y112.19 E.10844
G1 X168.494 Y112.426 E.01408
G1 X170.563 Y114.495 E.12261
G1 X170.563 Y114.97 E.01991
G1 X168.211 Y112.618 E.13937
G1 X168.013 Y112.752 E.01002
G1 X167.913 Y112.796 E.00456
G1 X170.563 Y115.445 E.15701
G1 X170.563 Y115.92 E.01991
G1 X167.582 Y112.939 E.17666
G1 X167.482 Y112.982 E.00455
G1 X167.218 Y113.05 E.01144
G1 X170.563 Y116.395 E.19824
G1 X170.563 Y116.87 E.01991
G1 X166.811 Y113.119 E.22235
G1 X166.691 Y113.134 E.00507
G1 X166.34 Y113.123 E.01469
G1 X170.563 Y117.345 E.25022
G1 X170.563 Y117.821 E.01991
G1 X165.577 Y112.835 E.29544
G1 E-3.375 F1500
;WIPE_START
G1 F2400
G1 X166.285 Y113.543 E-.625
;WIPE_END
G1 Z.8 F9000
G1 X167.551 Y107.206 Z.8
G1 Z.3
G1 E4 F1500
G1 F2400
G1 X158.782 Y98.437 E.51967
G1 X158.307 Y98.437 E.01991
G1 X166.749 Y106.879 E.5003
G1 X166.265 Y106.871 E.02025
G1 X157.832 Y98.437 E.49982
G1 X157.356 Y98.437 E.01991
G1 X165.855 Y106.936 E.50367
G1 X165.719 Y106.958 E.00578
G1 X165.486 Y107.042 E.01039
G1 X156.881 Y98.437 E.50993
G1 X156.406 Y98.437 E.01991
G1 X165.141 Y107.172 E.51766
G1 X164.834 Y107.341 E.01466
G1 X155.931 Y98.437 E.52765
G1 X155.456 Y98.437 E.01991
G1 X164.557 Y107.539 E.5394
G1 X164.311 Y107.767 E.01409
G1 X154.981 Y98.437 E.55293
G1 X154.505 Y98.437 E.01991
G1 X164.074 Y108.006 E.56708
G1 X163.882 Y108.289 E.01433
G1 X154.03 Y98.437 E.58385
G1 X153.555 Y98.437 E.01991
G1 X163.704 Y108.587 E.60148
G1 X163.561 Y108.918 E.01514
G1 X157.993 Y103.351 E.32995
G1 X158.642 Y104.475 E.0544
G1 X163.455 Y109.288 E.28521
G1 X163.384 Y109.606 E.01369
G1 X163.381 Y109.689 E.00346
G1 X159.292 Y105.599 E.24237
G1 X159.941 Y106.723 E.0544
G1 X163.367 Y110.15 E.20305
G1 X163.445 Y110.703 E.02344
G1 X160.59 Y107.848 E.16924
G1 X161.239 Y108.972 E.0544
G1 X170.563 Y118.296 E.55257
G1 X170.563 Y118.771 E.01991
G1 X161.817 Y110.026 E.51827
G1 X161.644 Y110.327 E.01458
G1 X170.563 Y119.246 E.52858
G1 X170.563 Y119.721 E.01991
G1 X161.47 Y110.628 E.53889
G1 X161.296 Y110.929 E.01458
G1 X170.563 Y120.196 E.54919
G1 X170.563 Y120.672 E.01991
G1 X161.122 Y111.231 E.5595
G1 X160.948 Y111.532 E.01458
G1 X170.563 Y121.147 E.56981
G1 X170.563 Y121.563 E.01743
G1 X170.503 Y121.563 E.00248
G1 X160.774 Y111.833 E.57661
G1 X160.6 Y112.134 E.01458
G1 X170.028 Y121.563 E.55875
G1 X169.553 Y121.563 E.01991
G1 X160.426 Y112.436 E.5409
G1 X160.252 Y112.737 E.01458
G1 X169.078 Y121.563 E.52305
G1 X168.603 Y121.563 E.01991
G1 X160.078 Y113.038 E.5052
G1 X159.904 Y113.339 E.01458
G1 X168.128 Y121.563 E.48735
G1 X167.653 Y121.563 E.01991
G1 X159.73 Y113.641 E.46949
G1 X159.557 Y113.942 E.01458
G1 X167.177 Y121.563 E.45164
G1 X166.702 Y121.563 E.01991
G1 X159.383 Y114.243 E.43379
G1 X159.209 Y114.544 E.01458
G1 X166.227 Y121.563 E.41594
G1 X165.752 Y121.563 E.01991
G1 X159.035 Y114.846 E.39808
G1 X158.861 Y115.147 E.01458
G1 X165.277 Y121.563 E.38023
G1 X164.802 Y121.563 E.01991
G1 X158.687 Y115.448 E.36238
G1 X158.513 Y115.749 E.01458
G1 X164.326 Y121.563 E.34453
G1 X163.851 Y121.563 E.01991
G1 X158.339 Y116.05 E.32667
G1 X158.165 Y116.352 E.01458
G1 X163.376 Y121.563 E.30882
G1 X162.901 Y121.563 E.01991
G1 X157.991 Y116.653 E.29097
G1 X157.817 Y116.954 E.01458
G1 X162.426 Y121.563 E.27312
G1 X161.951 Y121.563 E.01991
G1 X157.643 Y117.255 E.25527
G1 X157.47 Y117.557 E.01458
G1 X161.476 Y121.563 E.23741
G1 X161 Y121.563 E.01991
G1 X157.296 Y117.858 E.21956
G1 X157.166 Y118.082 E.01085
G1 X157.045 Y118.082 E.00509
G1 X160.525 Y121.563 E.20627
G1 X160.05 Y121.563 E.01991
G1 X156.569 Y118.082 E.20627
G1 X156.094 Y118.082 E.01991
G1 X159.575 Y121.563 E.20627
G1 X159.1 Y121.563 E.01991
G1 X155.619 Y118.082 E.20627
G1 X155.144 Y118.082 E.01991
G1 X158.625 Y121.563 E.20627
G1 X158.149 Y121.563 E.01991
G1 X154.669 Y118.082 E.20627
G1 X154.194 Y118.082 E.01991
G1 X157.674 Y121.563 E.20627
G1 X157.199 Y121.563 E.01991
G1 X153.719 Y118.082 E.20627
G1 X153.243 Y118.082 E.01991
G1 X156.724 Y121.563 E.20627
G1 X156.249 Y121.563 E.01991
G1 X152.768 Y118.082 E.20627
G1 X152.293 Y118.082 E.01991
G1 X155.774 Y121.563 E.20627
G1 X155.299 Y121.563 E.01991
G1 X151.818 Y118.082 E.20627
G1 X151.343 Y118.082 E.01991
G1 X154.823 Y121.563 E.20627
G1 X154.348 Y121.563 E.01991
G1 X150.868 Y118.082 E.20627
G1 X150.392 Y118.082 E.01991
G1 X153.873 Y121.563 E.20627
G1 X153.398 Y121.563 E.01991
G1 X149.917 Y118.082 E.20627
G1 X149.442 Y118.082 E.01991
G1 X152.923 Y121.563 E.20627
G1 X152.448 Y121.563 E.01991
G1 X148.967 Y118.082 E.20627
G1 X148.492 Y118.082 E.01991
G1 X152.124 Y121.714 E.21523
G1 E-3.375 F1500
;WIPE_START
G1 F2400
G1 X151.416 Y121.007 E-.625
;WIPE_END
G1 Z.8 F9000
G1 X152.929 Y98.286 Z.8
G1 Z.3
G1 E4 F1500
G1 F2400
G1 X156.561 Y101.918 E.21523
G1 X156.085 Y101.918 E.01991
G1 X152.605 Y98.437 E.20627
G1 X152.13 Y98.437 E.01991
G1 X155.61 Y101.918 E.20627
G1 X155.135 Y101.918 E.01991
G1 X151.655 Y98.437 E.20627
G1 X151.179 Y98.437 E.01991
G1 X154.66 Y101.918 E.20627
G1 X154.185 Y101.918 E.01991
G1 X150.704 Y98.437 E.20627
G1 X150.229 Y98.437 E.01991
G1 X153.71 Y101.918 E.20627
G1 X153.235 Y101.918 E.01991
G1 X149.754 Y98.437 E.20627
G1 X149.279 Y98.437 E.01991
G1 X152.759 Y101.918 E.20627
G1 X152.284 Y101.918 E.01991
