;FLAVOR:Marlin
;TIME:4425
;Filament used: 3.29478m
;Layer height: 0.2
;MINX:91.45
;MINY:83.949
;MINZ:0.3
;MAXX:128.551
;MAXY:121.051
;MAXZ:29.9
;TARGET_MACHINE.NAME:Anet ET4 Pro
;POSTPROCESSED
;  [CreateThumbnail]
;Generated with Cura_SteamEngine 5.7.0
;
;

M82 ;absolute extrusion mode
M104 S235  ; Start heating up the nozzle most of the way
M190 S80 ; Start heating the bed, wait until target temperature reached
M109 S235 ; Finish heating the nozzle
G92 E0 ; Reset Extruder
G28 ; Home all axes
G1 Z2.0 F3000 ; Move Z Axis up little to prevent scratching of Heat Bed
G1 X1 Y20 Z0.3 F5000.0 ; Move to start position
G1 X1 Y200.0 Z0.3 F1500.0 E15 ; Draw the first line
G1 X1.5 Y200.0 Z0.3 F5000.0 ; Move to side a little
G1 X1.5 Y20 Z0.3 F1500.0 E30 ; Draw the second line
G92 E0
G1 Z2.0 F3000
G1 X5 Y20 Z0.3 F5000.0
M141 S36
G92 E0
G92 E0
G1 F2400 E-4
;LAYER_COUNT:149
;LAYER:0
M107
M204 S2500
G1 F300 Z1.1
G0 F7800 X92.852 Y90.43 Z1.1
;TYPE:SKIRT
G1 F300 Z0.3
G1 F2400 E0
G1 X97.781 Y85.499 E0.32697
G1 X98.318 Y84.977 E0.36209
G1 X98.782 Y84.598 E0.39019
G1 X99.274 Y84.312 E0.41687
G1 X99.805 Y84.108 E0.44355
G1 X100.354 Y83.991 E0.46987
G1 X100.761 Y83.96 E0.48902
G1 X101.37 Y83.949 E0.51758
G1 X118.529 Y83.95 E1.32228
G1 X119.23 Y83.961 E1.35516
G1 X119.829 Y84.022 E1.3834
G1 X120.377 Y84.169 E1.41001
G1 X120.84 Y84.371 E1.4337
G1 X121.366 Y84.706 E1.46294
G1 X121.672 Y84.968 E1.48183
G1 X122.101 Y85.382 E1.50979
G1 X127.057 Y90.339 E1.83852
G1 X127.528 Y90.826 E1.87029
G1 X127.907 Y91.291 E1.89842
G1 X128.191 Y91.784 E1.92511
G1 X128.393 Y92.316 E1.95179
G1 X128.509 Y92.864 E1.97806
G1 X128.539 Y93.265 E1.99692
G1 X128.55 Y93.888 E2.02614
G1 X128.551 Y111.02 E2.82958
G1 X128.541 Y111.724 E2.8626
G1 X128.481 Y112.322 E2.89078
G1 X128.335 Y112.871 E2.91742
G1 X128.103 Y113.39 E2.94408
G1 X127.802 Y113.858 E2.97018
G1 X127.597 Y114.103 E2.98516
G1 X127.352 Y114.365 E3.00198
G1 X122.171 Y119.549 E3.3457
G1 X121.652 Y120.05 E3.37953
G1 X121.262 Y120.371 E3.40321
G1 X120.719 Y120.692 E3.4328
G1 X120.187 Y120.894 E3.45948
G1 X119.639 Y121.01 E3.48575
G1 X119.238 Y121.04 E3.50461
G1 X118.617 Y121.051 E3.53374
G1 X101.471 Y121.05 E4.33783
G1 X100.77 Y121.039 E4.37071
G1 X100.171 Y120.978 E4.39894
G1 X99.623 Y120.831 E4.42555
G1 X99.16 Y120.629 E4.44924
G1 X98.634 Y120.294 E4.47849
G1 X98.327 Y120.031 E4.49745
G1 X97.891 Y119.61 E4.52587
G1 X92.946 Y114.663 E4.8539
G1 X92.454 Y114.154 E4.8871
G1 X92.096 Y113.712 E4.91377
G1 X91.811 Y113.22 E4.94044
G1 X91.607 Y112.688 E4.96716
G1 X91.491 Y112.139 E4.99347
G1 X91.461 Y111.736 E5.01242
G1 X91.45 Y111.122 E5.04122
G1 X91.45 Y93.978 E5.84522
G1 X91.46 Y93.276 E5.87815
G1 X91.52 Y92.679 E5.90629
G1 X91.666 Y92.129 E5.93297
G1 X91.868 Y91.666 E5.95666
G1 X92.168 Y91.185 E5.98325
G1 X92.45 Y90.849 E6.00382
G1 X92.852 Y90.43 E6.03105
G0 F7800 X93.135 Y90.713
G1 F2400 X98.06 Y85.786 E6.35775
G1 X98.597 Y85.264 E6.39287
G1 X98.986 Y84.942 E6.41656
G1 X99.421 Y84.684 E6.44027
G1 X99.891 Y84.499 E6.46396
G1 X100.385 Y84.39 E6.48769
G1 X100.768 Y84.36 E6.5057
G1 X101.37 Y84.349 E6.53394
G1 X118.523 Y84.35 E7.33836
G1 X119.224 Y84.361 E7.37124
G1 X119.728 Y84.409 E7.39498
G1 X120.217 Y84.536 E7.41867
G1 X120.68 Y84.738 E7.44236
G1 X121.106 Y85.01 E7.46607
G1 X121.394 Y85.256 E7.48383
G1 X121.818 Y85.665 E7.51146
G1 X126.769 Y90.617 E7.83985
G1 X127.24 Y91.104 E7.87162
G1 X127.562 Y91.494 E7.89534
G1 X127.818 Y91.93 E7.91905
G1 X128.002 Y92.401 E7.94277
G1 X128.11 Y92.895 E7.96648
G1 X128.139 Y93.272 E7.98421
G1 X128.15 Y93.888 E8.01311
G1 X128.151 Y111.014 E8.81626
G1 X128.141 Y111.718 E8.84928
G1 X128.094 Y112.222 E8.87302
G1 X127.968 Y112.711 E8.8967
G1 X127.766 Y113.175 E8.92043
G1 X127.495 Y113.601 E8.94411
G1 X127.29 Y113.846 E8.95909
G1 X127.069 Y114.082 E8.97425
G1 X121.893 Y119.262 E9.31767
G1 X121.398 Y119.741 E9.34997
G1 X121.008 Y120.062 E9.37366
G1 X120.573 Y120.319 E9.39736
G1 X120.102 Y120.503 E9.42107
G1 X119.608 Y120.611 E9.44478
G1 X119.231 Y120.64 E9.46252
G1 X118.617 Y120.651 E9.49132
G1 X101.477 Y120.65 E10.29513
G1 X100.776 Y120.639 E10.32801
G1 X100.272 Y120.591 E10.35175
G1 X99.783 Y120.464 E10.37544
G1 X99.32 Y120.262 E10.39913
G1 X98.894 Y119.99 E10.42283
G1 X98.605 Y119.743 E10.44066
G1 X98.174 Y119.327 E10.46875
G1 X93.233 Y114.385 E10.79649
G1 X92.762 Y113.899 E10.82822
G1 X92.44 Y113.509 E10.85194
G1 X92.183 Y113.074 E10.87564
G1 X91.998 Y112.603 E10.89937
G1 X91.89 Y112.109 E10.92308
G1 X91.861 Y111.729 E10.94095
G1 X91.85 Y111.115 E10.96975
G1 X91.85 Y93.984 E11.77314
G1 X91.86 Y93.282 E11.80607
G1 X91.907 Y92.779 E11.82976
G1 X92.033 Y92.289 E11.85349
G1 X92.235 Y91.826 E11.87718
G1 X92.506 Y91.399 E11.90089
G1 X92.754 Y91.109 E11.91879
G1 X93.135 Y90.713 E11.94456
G1 F2400 E7.94456
G1 F300 Z1.1
;MESH:Voron_Design_Cube_v7.stl
G0 F7800 X110.11 Y110.796 Z1.1
;TYPE:WALL-INNER
G1 F300 Z0.3
G1 F2400 E11.94456
G1 X109.578 Y110.787 E11.96951
G1 X109.262 Y110.764 E11.98437
G1 X108.85 Y110.717 E12.00382
G1 X108.41 Y110.646 E12.02472
G1 X107.984 Y110.548 E12.04522
G1 X107.612 Y110.448 E12.06328
G1 X107.173 Y110.303 E12.08497
G1 X106.751 Y110.137 E12.10623
G1 X106.277 Y109.916 E12.13076
G1 X105.995 Y109.768 E12.14569
G1 X105.643 Y109.564 E12.16477
G1 X105.251 Y109.308 E12.18673
G1 X104.917 Y109.063 E12.20616
G1 X104.525 Y108.739 E12.23001
G1 X104.184 Y108.418 E12.25197
G1 X103.912 Y108.142 E12.27014
G1 X103.604 Y107.788 E12.29215
G1 X103.337 Y107.448 E12.31242
G1 X103.087 Y107.099 E12.33255
G1 X102.864 Y106.742 E12.35229
G1 X102.66 Y106.378 E12.37186
G1 X102.455 Y105.963 E12.39357
G1 X102.289 Y105.569 E12.41362
G1 X102.148 Y105.187 E12.43272
G1 X102.015 Y104.769 E12.45329
G1 X101.911 Y104.373 E12.47249
G1 X101.817 Y103.912 E12.49455
G1 X101.758 Y103.489 E12.51458
G1 X101.722 Y103.109 E12.53248
G1 X101.7 Y102.67 E12.5531
G1 X101.704 Y102.225 E12.57397
G1 X101.722 Y101.879 E12.59021
G1 X101.775 Y101.366 E12.6144
G1 X101.85 Y100.919 E12.63566
G1 X101.94 Y100.525 E12.65461
G1 X102.048 Y100.121 E12.67422
G1 X102.188 Y99.696 E12.69521
G1 X102.347 Y99.284 E12.71592
G1 X102.516 Y98.905 E12.73538
G1 X102.696 Y98.549 E12.75408
G1 X102.913 Y98.174 E12.7744
G1 X103.19 Y97.752 E12.79808
G1 X103.415 Y97.445 E12.81593
G1 X103.694 Y97.097 E12.83684
G1 X103.975 Y96.787 E12.85647
G1 X104.271 Y96.491 E12.8761
G1 X104.597 Y96.194 E12.89678
G1 X104.92 Y95.93 E12.91634
G1 X105.255 Y95.686 E12.93578
G1 X105.642 Y95.435 E12.95741
G1 X106.026 Y95.209 E12.97831
G1 X106.37 Y95.033 E12.99643
G1 X106.802 Y94.84 E13.01862
G1 X107.188 Y94.691 E13.03802
G1 X107.568 Y94.563 E13.05683
G1 X107.987 Y94.445 E13.07724
G1 X108.429 Y94.348 E13.09846
G1 X108.87 Y94.275 E13.11942
G1 X109.27 Y94.231 E13.1383
G1 X109.714 Y94.204 E13.15916
G1 X110.144 Y94.2 E13.17932
G1 X110.576 Y94.218 E13.1996
G1 X111.184 Y94.274 E13.22823
G1 X111.82 Y94.399 E13.25863
G1 X112.277 Y94.515 E13.28074
G1 X112.645 Y94.631 E13.29884
G1 X113.088 Y94.793 E13.32096
G1 X113.48 Y94.964 E13.34101
G1 X113.832 Y95.136 E13.35939
G1 X114.22 Y95.351 E13.38019
G1 X114.598 Y95.589 E13.40114
G1 X114.96 Y95.845 E13.42193
G1 X115.287 Y96.1 E13.44138
G1 X115.623 Y96.394 E13.46232
G1 X115.909 Y96.667 E13.48086
G1 X116.207 Y96.992 E13.50154
G1 X116.479 Y97.308 E13.52109
G1 X116.764 Y97.687 E13.54333
G1 X116.992 Y98.029 E13.5626
G1 X117.196 Y98.361 E13.58088
G1 X117.41 Y98.761 E13.60215
G1 X117.603 Y99.174 E13.62353
G1 X117.755 Y99.542 E13.6422
G1 X117.895 Y99.936 E13.66181
G1 X118.028 Y100.39 E13.684
G1 X118.12 Y100.77 E13.70234
G1 X118.204 Y101.239 E13.72468
G1 X118.255 Y101.644 E13.74382
G1 X118.287 Y102.044 E13.76264
G1 X118.296 Y102.504 E13.78422
G1 X118.287 Y102.944 E13.80486
G1 X118.255 Y103.348 E13.82386
G1 X118.195 Y103.79 E13.84478
G1 X118.116 Y104.228 E13.86565
G1 X118.016 Y104.641 E13.88558
G1 X117.895 Y105.054 E13.90576
G1 X117.755 Y105.454 E13.92564
G1 X117.592 Y105.846 E13.94555
G1 X117.41 Y106.235 E13.96569
G1 X117.222 Y106.587 E13.9844
G1 X116.982 Y106.98 E14.006
G1 X116.732 Y107.35 E14.02694
G1 X116.5 Y107.658 E14.04502
G1 X116.203 Y108.01 E14.06662
G1 X115.903 Y108.331 E14.08723
G1 X115.619 Y108.607 E14.1058
G1 X115.276 Y108.904 E14.12708
G1 X114.928 Y109.176 E14.14779
G1 X114.571 Y109.425 E14.1682
G1 X114.21 Y109.65 E14.18815
G1 X113.862 Y109.842 E14.20679
G1 X113.445 Y110.048 E14.2286
G1 X113.081 Y110.204 E14.24718
G1 X112.59 Y110.384 E14.2717
G1 X112.229 Y110.491 E14.28936
G1 X111.761 Y110.607 E14.31197
G1 X111.424 Y110.675 E14.32809
G1 X111.156 Y110.702 E14.34072
G1 X111.15 Y110.709 E14.34116
G1 X110.556 Y110.78 E14.36921
G1 X110.11 Y110.796 E14.39014
G0 F7800 X110.106 Y111.097
G0 X118.808 Y116.559
G0 X118.927 Y116.848
G1 F2400 X124.348 Y111.427 E14.74967
G1 X124.348 Y93.573 E15.58697
G1 X118.927 Y88.148 E15.94663
G1 X101.069 Y88.148 E16.78412
G1 X95.649 Y93.573 E17.14375
G1 X95.648 Y111.427 E17.98104
G1 X101.073 Y116.847 E18.34067
G1 X118.927 Y116.848 E19.17797
G0 F7800 X119.093 Y117.248
;TYPE:WALL-OUTER
G1 F2400 X124.748 Y111.593 E19.55302
G1 X124.748 Y93.407 E20.40589
G1 X119.093 Y87.748 E20.78107
G1 X100.903 Y87.748 E21.63412
G1 X95.249 Y93.407 E22.00927
G1 X95.248 Y111.593 E22.86214
G1 X100.907 Y117.247 E23.23729
G1 X119.093 Y117.248 E24.09015
G0 F7800 X119.234 Y117.107
G1 F2400 E20.09015
G0 F7800 X118.808 Y116.559
G0 X110.106 Y111.097
G0 X110.116 Y110.396
G1 F2400 E24.09015
G1 X109.606 Y110.388 E24.11407
G1 X109.308 Y110.367 E24.12808
G1 X108.888 Y110.318 E24.14792
G1 X108.499 Y110.256 E24.16639
G1 X108.088 Y110.162 E24.18616
G1 X107.705 Y110.058 E24.20477
G1 X107.319 Y109.931 E24.22383
G1 X106.919 Y109.774 E24.24398
G1 X106.463 Y109.562 E24.26756
G1 X106.195 Y109.422 E24.28174
G1 X105.834 Y109.212 E24.30133
G1 X105.487 Y108.984 E24.3208
G1 X105.172 Y108.755 E24.33907
G1 X104.77 Y108.422 E24.36355
G1 X104.469 Y108.137 E24.38299
G1 X104.189 Y107.852 E24.40172
G1 X103.918 Y107.54 E24.4211
G1 X103.661 Y107.214 E24.44057
G1 X103.426 Y106.887 E24.45946
G1 X103.213 Y106.546 E24.47831
G1 X103.004 Y106.173 E24.49836
G1 X102.823 Y105.807 E24.51751
G1 X102.664 Y105.43 E24.5367
G1 X102.529 Y105.065 E24.55495
G1 X102.402 Y104.667 E24.57454
G1 X102.296 Y104.26 E24.59426
G1 X102.213 Y103.856 E24.61361
G1 X102.156 Y103.451 E24.63279
G1 X102.12 Y103.071 E24.65069
G1 X102.1 Y102.637 E24.67106
G1 X102.104 Y102.245 E24.68945
G1 X102.12 Y101.919 E24.70475
G1 X102.17 Y101.431 E24.72776
G1 X102.24 Y101.007 E24.74791
G1 X102.326 Y100.628 E24.76614
G1 X102.438 Y100.213 E24.7863
G1 X102.561 Y99.84 E24.80472
G1 X102.713 Y99.446 E24.82452
G1 X102.873 Y99.085 E24.84304
G1 X103.059 Y98.719 E24.86229
G1 X103.264 Y98.366 E24.88144
G1 X103.498 Y98.01 E24.90141
G1 X103.727 Y97.695 E24.91968
G1 X103.991 Y97.365 E24.9395
G1 X104.258 Y97.07 E24.95816
G1 X104.561 Y96.768 E24.97822
G1 X104.849 Y96.504 E24.99654
G1 X105.173 Y96.24 E25.01614
G1 X105.499 Y96.004 E25.03502
G1 X105.846 Y95.779 E25.05441
G1 X106.208 Y95.565 E25.07413
G1 X106.562 Y95.385 E25.09276
G1 X106.947 Y95.213 E25.11253
G1 X107.316 Y95.07 E25.13109
G1 X107.706 Y94.939 E25.15038
G1 X108.104 Y94.828 E25.16976
G1 X108.495 Y94.742 E25.18854
G1 X108.914 Y94.673 E25.20845
G1 X109.323 Y94.628 E25.22775
G1 X109.718 Y94.604 E25.24631
G1 X110.128 Y94.6 E25.26553
G1 X110.539 Y94.616 E25.28482
G1 X111.147 Y94.672 E25.31346
G1 X111.74 Y94.791 E25.34182
G1 X112.157 Y94.897 E25.362
G1 X112.533 Y95.016 E25.38049
G1 X112.928 Y95.16 E25.40021
G1 X113.304 Y95.324 E25.41945
G1 X113.666 Y95.501 E25.43835
G1 X114.035 Y95.706 E25.45814
G1 X114.368 Y95.916 E25.4766
G1 X114.715 Y96.161 E25.49653
G1 X115.024 Y96.401 E25.51487
G1 X115.347 Y96.683 E25.53498
G1 X115.632 Y96.956 E25.55349
G1 X115.904 Y97.253 E25.57238
G1 X116.176 Y97.569 E25.59193
G1 X116.431 Y97.909 E25.61186
G1 X116.651 Y98.239 E25.63046
G1 X116.861 Y98.581 E25.64928
G1 X117.062 Y98.959 E25.66936
G1 X117.233 Y99.327 E25.68839
G1 X117.389 Y99.705 E25.70757
G1 X117.52 Y100.079 E25.72615
G1 X117.639 Y100.484 E25.74595
G1 X117.733 Y100.876 E25.76485
G1 X117.807 Y101.29 E25.78458
G1 X117.856 Y101.676 E25.80282
G1 X117.888 Y102.087 E25.82216
G1 X117.896 Y102.496 E25.84134
G1 X117.888 Y102.912 E25.86085
G1 X117.855 Y103.327 E25.88038
G1 X117.801 Y103.72 E25.89898
G1 X117.727 Y104.135 E25.91875
G1 X117.632 Y104.529 E25.93776
G1 X117.517 Y104.922 E25.95696
G1 X117.385 Y105.301 E25.97578
G1 X117.23 Y105.677 E25.99485
G1 X117.057 Y106.047 E26.01401
G1 X116.863 Y106.409 E26.03327
G1 X116.65 Y106.756 E26.05236
G1 X116.412 Y107.109 E26.07233
G1 X116.173 Y107.425 E26.09091
G1 X115.911 Y107.737 E26.11002
G1 X115.624 Y108.044 E26.12972
G1 X115.331 Y108.328 E26.14886
G1 X115.028 Y108.59 E26.16765
G1 X114.699 Y108.848 E26.18725
G1 X114.359 Y109.086 E26.20672
G1 X114.017 Y109.3 E26.22564
G1 X113.661 Y109.496 E26.2447
G1 X113.287 Y109.68 E26.26424
G1 X112.913 Y109.84 E26.28332
G1 X112.441 Y110.012 E26.30688
G1 X112.133 Y110.103 E26.32194
G1 X111.665 Y110.219 E26.34455
G1 X111.339 Y110.284 E26.36014
G1 X110.557 Y110.379 E26.39708
G1 X110.116 Y110.396 E26.41778
G0 F7800 X109.916 Y110.393
G0 X109.906 Y111.094
G0 X118.777 Y116.487
;TYPE:SKIN
G1 F2400 X101.223 Y116.484 E27.21473
G1 X96.009 Y111.277 E27.54928
G1 X96.008 Y93.723 E28.34623
G1 X101.219 Y88.508 E28.68093
G1 X118.777 Y88.508 E29.47807
G1 X123.988 Y93.723 E29.81277
G1 X123.988 Y111.277 E30.60972
G1 X118.777 Y116.487 E30.94427
G0 F7800 X110.139 Y111.156
G1 F2400 X110.564 Y111.14 E30.96357
G1 X111.158 Y111.055 E30.99082
G1 X111.18 Y111.068 E30.99198
G1 X111.482 Y111.031 E31.00579
G1 X111.841 Y110.956 E31.02244
G1 X112.336 Y110.835 E31.04557
G1 X112.629 Y110.748 E31.05945
G1 X113.216 Y110.537 E31.08777
G1 X113.58 Y110.38 E31.10577
G1 X114.001 Y110.172 E31.12709
G1 X114.379 Y109.969 E31.14657
G1 X114.8 Y109.701 E31.16922
G1 X115.126 Y109.477 E31.18718
G1 X115.508 Y109.178 E31.2092
G1 X115.832 Y108.895 E31.22874
G1 X116.147 Y108.593 E31.24855
G1 X116.482 Y108.238 E31.27071
G1 X116.786 Y107.872 E31.29231
G1 X117.041 Y107.532 E31.3116
G1 X117.274 Y107.189 E31.33043
G1 X117.515 Y106.797 E31.35132
G1 X117.729 Y106.394 E31.37204
G1 X117.916 Y106.008 E31.39151
G1 X118.09 Y105.579 E31.41253
G1 X118.241 Y105.151 E31.43313
G1 X118.373 Y104.696 E31.45464
G1 X118.475 Y104.271 E31.47448
G1 X118.549 Y103.86 E31.49344
G1 X118.611 Y103.386 E31.51515
G1 X118.644 Y102.972 E31.534
G1 X118.656 Y102.506 E31.55516
G1 X118.644 Y102.022 E31.57714
G1 X118.612 Y101.608 E31.596
G1 X118.555 Y101.166 E31.61623
G1 X118.486 Y100.754 E31.63519
G1 X118.379 Y100.312 E31.65584
G1 X118.241 Y99.832 E31.67852
G1 X118.084 Y99.403 E31.69926
G1 X117.926 Y99.009 E31.71853
G1 X117.745 Y98.626 E31.73776
G1 X117.533 Y98.229 E31.75819
G1 X117.296 Y97.836 E31.77903
G1 X117.059 Y97.481 E31.79841
G1 X116.756 Y97.079 E31.82126
G1 X116.477 Y96.75 E31.84085
G1 X116.156 Y96.4 E31.86241
G1 X115.874 Y96.134 E31.88001
G1 X115.561 Y95.858 E31.89895
G1 X115.184 Y95.562 E31.92071
G1 X114.773 Y95.269 E31.94363
G1 X114.431 Y95.054 E31.96197
G1 X114.037 Y94.836 E31.98241
G1 X113.609 Y94.624 E32.0041
G1 X113.192 Y94.444 E32.02472
G1 X112.736 Y94.279 E32.04673
G1 X112.384 Y94.169 E32.06348
G1 X111.897 Y94.046 E32.08628
G1 X111.239 Y93.915 E32.11674
G1 X110.562 Y93.856 E32.14759
G1 X110.153 Y93.84 E32.16617
G1 X109.662 Y93.844 E32.18847
G1 X109.242 Y93.872 E32.20758
G1 X108.815 Y93.917 E32.22707
G1 X108.363 Y93.99 E32.24786
G1 X107.944 Y94.084 E32.26735
G1 X107.463 Y94.214 E32.28997
G1 X107.078 Y94.346 E32.30845
G1 X106.627 Y94.521 E32.33041
G1 X106.222 Y94.701 E32.35054
G1 X105.832 Y94.902 E32.37045
G1 X105.538 Y95.075 E32.38594
G1 X105.089 Y95.358 E32.41004
G1 X104.69 Y95.645 E32.43235
G1 X104.373 Y95.905 E32.45097
G1 X104.02 Y96.228 E32.47269
G1 X103.73 Y96.518 E32.49131
G1 X103.419 Y96.861 E32.51233
G1 X103.115 Y97.243 E32.53449
G1 X102.875 Y97.564 E32.55269
G1 X102.632 Y97.939 E32.57298
G1 X102.395 Y98.342 E32.5942
G1 X102.173 Y98.786 E32.61674
G1 X102.017 Y99.129 E32.63385
G1 X101.849 Y99.563 E32.65497
G1 X101.713 Y99.982 E32.67497
G1 X101.582 Y100.463 E32.69761
G1 X101.496 Y100.848 E32.71552
G1 X101.418 Y101.297 E32.73621
G1 X101.361 Y101.83 E32.76054
G1 X101.344 Y102.211 E32.77786
G1 X101.34 Y102.666 E32.79851
G1 X101.356 Y103.088 E32.81769
