;FLAVOR:Marlin
;TIME:1626
;Filament used: 1.38083m
;Layer height: 0.2
;MINX:86.4
;MINY:86.594
;MINZ:0.3
;MAXX:133.406
;MAXY:133.406
;MAXZ:5.5
;TARGET_MACHINE.NAME:Anet ET4 Pro
;POSTPROCESSED
;  [CreateThumbnail]
;Generated with Cura_SteamEngine 5.7.0
;
;

M82 ;absolute extrusion mode
M104 S250.0  ; Start heating up the nozzle most of the way
M190 S100.0 ; Start heating the bed, wait until target temperature reached
M109 S250.0 ; Finish heating the nozzle
G92 E0 ; Reset Extruder
G28 ; Home all axes
G1 Z2.0 F3000 ; Move Z Axis up little to prevent scratching of Heat Bed
G1 X1 Y20 Z0.3 F5000.0 ; Move to start position
G1 X1 Y200.0 Z0.3 F1500.0 E15 ; Draw the first line
G1 X1.5 Y200.0 Z0.3 F5000.0 ; Move to side a little
G1 X1.5 Y20 Z0.3 F1500.0 E30 ; Draw the second line
G92 E0
G1 Z2.0 F3000
G1 X5 Y20 Z0.3 F5000.0
G92 E0
G92 E0
G1 F1500 E-4.5
;LAYER_COUNT:27
;LAYER:0
M107
M204 S2500
G1 F300 Z0.8
G0 F9000 X87.516 Y87.609 Z0.8
;TYPE:SKIRT
G1 F300 Z0.3
G1 F1500 E0
G1 F3600 X87.956 Y87.248 E0.02562
G1 X88.446 Y86.962 E0.05117
G1 X88.976 Y86.757 E0.07675
G1 X89.523 Y86.637 E0.10196
G1 X89.908 Y86.605 E0.11935
G1 X90.24 Y86.596 E0.13431
G1 X129.15 Y86.594 E1.88607
G1 X129.848 Y86.604 E1.9175
G1 X130.445 Y86.664 E1.94451
G1 X130.995 Y86.81 E1.97013
G1 X131.459 Y87.012 E1.99291
G1 X131.94 Y87.314 E2.01848
G1 X132.413 Y87.733 E2.04693
G1 X132.768 Y88.175 E2.07246
G1 X133.051 Y88.669 E2.09809
G1 X133.252 Y89.2 E2.12365
G1 X133.367 Y89.746 E2.14877
G1 X133.395 Y90.098 E2.16467
G1 X133.405 Y90.45 E2.18052
G1 X133.406 Y129.115 E3.92125
G1 X133.397 Y129.842 E3.95399
G1 X133.339 Y130.439 E3.98099
G1 X133.193 Y130.989 E4.00661
G1 X132.963 Y131.508 E4.03217
G1 X132.654 Y131.986 E4.05779
G1 X132.273 Y132.409 E4.08342
G1 X131.832 Y132.766 E4.10897
G1 X131.338 Y133.05 E4.13462
G1 X130.807 Y133.251 E4.16018
G1 X130.261 Y133.367 E4.18531
G1 X129.898 Y133.396 E4.20171
G1 X129.566 Y133.405 E4.21666
G1 X90.661 Y133.406 E5.9682
G1 X89.963 Y133.397 E5.99962
G1 X89.365 Y133.338 E6.02668
G1 X88.815 Y133.192 E6.0523
G1 X88.295 Y132.961 E6.07791
G1 X87.819 Y132.653 E6.10344
G1 X87.396 Y132.272 E6.12907
G1 X87.039 Y131.829 E6.15468
G1 X86.756 Y131.337 E6.18024
G1 X86.554 Y130.805 E6.20586
G1 X86.439 Y130.255 E6.23115
G1 X86.409 Y129.83 E6.25033
G1 X86.4 Y128.768 E6.29815
G1 X86.412 Y128.059 E6.33007
G1 X86.44 Y127.681 E6.34714
G1 X86.65 Y126.04 E6.42162
G1 X86.958 Y123.257 E6.54768
G1 X87.179 Y120.565 E6.66928
G1 X87.324 Y117.865 E6.79101
G1 X87.4 Y114.034 E6.96352
G1 X87.4 Y106.169 E7.31761
G1 X87.36 Y103.378 E7.44328
G1 X87.245 Y100.672 E7.56521
G1 X87.051 Y97.936 E7.6887
G1 X86.785 Y95.249 E7.81026
G1 X86.436 Y92.514 E7.93439
G1 X86.41 Y92.176 E7.94966
G1 X86.4 Y91.737 E7.96943
G1 X86.41 Y90.151 E8.04083
G1 X86.453 Y89.648 E8.06356
G1 X86.606 Y89.035 E8.092
G1 X86.832 Y88.514 E8.11757
G1 X87.138 Y88.034 E8.1432
G1 X87.516 Y87.609 E8.16881
G0 F9000 X87.772 Y87.916
G1 F3600 X88.16 Y87.592 E8.19156
G1 X88.594 Y87.334 E8.21429
G1 X89.064 Y87.147 E8.23707
G1 X89.557 Y87.036 E8.25982
G1 X89.919 Y87.005 E8.27618
G1 X90.24 Y86.996 E8.29063
G1 X129.144 Y86.994 E10.04213
G1 X129.842 Y87.004 E10.07355
G1 X130.345 Y87.051 E10.0963
G1 X130.835 Y87.177 E10.11908
G1 X131.299 Y87.379 E10.14186
G1 X131.725 Y87.651 E10.16461
G1 X132.103 Y87.986 E10.18735
G1 X132.423 Y88.377 E10.2101
G1 X132.678 Y88.814 E10.23288
G1 X132.861 Y89.285 E10.25563
G1 X132.968 Y89.779 E10.27838
G1 X132.995 Y90.11 E10.29334
G1 X133.005 Y90.45 E10.30865
G1 X133.006 Y129.11 E12.04916
G1 X132.997 Y129.837 E12.08189
G1 X132.951 Y130.34 E12.10463
G1 X132.826 Y130.83 E12.1274
G1 X132.625 Y131.294 E12.15016
G1 X132.354 Y131.721 E12.17293
G1 X132.019 Y132.1 E12.19571
G1 X131.629 Y132.421 E12.21845
G1 X131.193 Y132.677 E12.24121
G1 X130.722 Y132.86 E12.26396
G1 X130.228 Y132.968 E12.28672
G1 X129.887 Y132.996 E12.30213
G1 X129.566 Y133.005 E12.31658
G1 X90.666 Y133.006 E14.0679
G1 X89.968 Y132.997 E14.09933
G1 X89.464 Y132.95 E14.12211
G1 X88.974 Y132.825 E14.14488
G1 X88.51 Y132.624 E14.16765
G1 X88.084 Y132.353 E14.19038
G1 X87.705 Y132.018 E14.21315
G1 X87.384 Y131.627 E14.23593
G1 X87.129 Y131.191 E14.25867
G1 X86.945 Y130.72 E14.28143
G1 X86.838 Y130.226 E14.30419
G1 X86.809 Y129.827 E14.3222
G1 X86.8 Y128.774 E14.36961
G1 X86.811 Y128.088 E14.4005
G1 X86.837 Y127.732 E14.41657
G1 X87.047 Y126.091 E14.49105
G1 X87.356 Y123.301 E14.61742
G1 X87.577 Y120.598 E14.73952
G1 X87.724 Y117.873 E14.86238
G1 X87.8 Y114.042 E15.03489
G1 X87.8 Y106.169 E15.38934
G1 X87.76 Y103.372 E15.51528
G1 X87.645 Y100.655 E15.63771
G1 X87.45 Y97.908 E15.76169
G1 X87.182 Y95.198 E15.88429
G1 X86.835 Y92.482 E16.00756
G1 X86.81 Y92.167 E16.02179
G1 X86.8 Y91.739 E16.04106
G1 X86.809 Y90.185 E16.11103
G1 X86.852 Y89.682 E16.13376
G1 X86.974 Y89.191 E16.15653
G1 X87.171 Y88.726 E16.17927
G1 X87.439 Y88.297 E16.20204
G1 X87.772 Y87.916 E16.22482
G1 F1500 E11.72482
G1 F300 Z0.8
G0 F9000 X90.2 Y90.395 Z0.8
G1 F300 Z0.3
G1 F1500 E16.22482
G1 F3600 X129.606 Y90.394 E17.99892
G1 X129.606 Y129.606 E19.76428
G1 X90.2 Y129.606 E21.53837
G1 X90.2 Y128.35 E21.59492
G1 X90.83 Y128.35 E21.62328
G1 X90.839 Y128.378 E21.62461
G1 X90.947 Y128.452 E21.6305
G1 X91.276 Y128.542 E21.64586
G1 X91.287 Y128.544 E21.64636
G1 X91.565 Y128.604 E21.65916
G1 X91.58 Y128.607 E21.65985
G1 X91.878 Y128.648 E21.6734
G1 X91.893 Y128.65 E21.67408
G1 X92.423 Y128.681 E21.69798
G1 X92.435 Y128.681 E21.69852
G1 X125.784 Y128.685 E23.19992
G1 X125.792 Y128.685 E23.20028
G1 X126.152 Y128.671 E23.2165
G1 X126.164 Y128.67 E23.21704
G1 X126.448 Y128.642 E23.22989
G1 X126.465 Y128.64 E23.23066
G1 X126.729 Y128.59 E23.24276
G1 X126.752 Y128.584 E23.24383
G1 X127.134 Y128.464 E23.26186
G1 X127.166 Y128.451 E23.26341
G1 X127.439 Y128.31 E23.27724
G1 X127.462 Y128.296 E23.27846
G1 X127.742 Y128.099 E23.29387
G1 X127.767 Y128.078 E23.29534
G1 X128.057 Y127.795 E23.31358
G1 X128.081 Y127.766 E23.31528
G1 X128.29 Y127.466 E23.33174
G1 X128.305 Y127.441 E23.33305
G1 X128.451 Y127.146 E23.34787
G1 X128.462 Y127.119 E23.34918
G1 X128.573 Y126.776 E23.36541
G1 X128.579 Y126.753 E23.36648
G1 X128.628 Y126.509 E23.37769
G1 X128.631 Y126.492 E23.37846
G1 X128.663 Y126.209 E23.39129
G1 X128.664 Y126.197 E23.39183
G1 X128.686 Y125.751 E23.41193
G1 X128.686 Y125.741 E23.41238
G1 X128.683 Y94.658 E24.81177
G1 X128.683 Y94.647 E24.81226
G1 X128.656 Y94.153 E24.83454
G1 X128.654 Y94.134 E24.8354
G1 X128.6 Y93.781 E24.85147
G1 X128.595 Y93.757 E24.85258
G1 X128.476 Y93.332 E24.87245
G1 X128.464 Y93.3 E24.87399
G1 X128.302 Y92.959 E24.89098
G1 X128.286 Y92.932 E24.89239
G1 X128.055 Y92.593 E24.91086
G1 X128.031 Y92.564 E24.91256
G1 X127.9 Y92.434 E24.92087
G1 X127.9 Y92.3 E24.9269
G1 X127.861 Y92.181 E24.93254
G1 X127.7 Y92.1 E24.94065
G1 X127.535 Y92.1 E24.94808
G1 X127.231 Y91.903 E24.96439
G1 X127.2 Y91.887 E24.96596
G1 X126.831 Y91.731 E24.984
G1 X126.8 Y91.721 E24.98546
G1 X126.414 Y91.627 E25.00335
G1 X126.391 Y91.622 E25.00441
G1 X126.113 Y91.589 E25.01701
G1 X126.098 Y91.588 E25.01769
G1 X125.7 Y91.571 E25.03562
G1 X125.691 Y91.571 E25.03603
G1 X92.313 Y91.583 E26.53874
G1 X92.302 Y91.583 E26.53923
G1 X91.855 Y91.607 E26.55939
G1 X91.84 Y91.609 E26.56007
G1 X91.459 Y91.659 E26.57737
G1 X91.444 Y91.661 E26.57805
G1 X90.959 Y91.763 E26.60036
G1 X90.851 Y91.826 E26.60599
G1 X90.827 Y91.888 E26.60898
G1 X90.2 Y91.888 E26.63721
G1 X90.2 Y90.395 E26.70443
G0 F9000 X90.6 Y90.795
G1 F3600 X129.206 Y90.794 E28.4425
G1 X129.206 Y129.206 E30.17185
G1 X90.6 Y129.206 E31.90993
G1 X90.6 Y128.75 E31.93046
G1 X90.67 Y128.75 E31.93361
G1 X90.726 Y128.793 E31.93679
G1 X90.842 Y128.838 E31.94239
G1 X91.171 Y128.928 E31.95774
G1 X91.202 Y128.935 E31.95917
G1 X91.48 Y128.995 E31.97198
G1 X91.525 Y129.003 E31.97404
G1 X91.823 Y129.044 E31.98758
G1 X91.87 Y129.049 E31.98971
G1 X92.4 Y129.08 E32.01361
G1 X92.435 Y129.081 E32.01518
G1 X125.784 Y129.085 E33.51659
G1 X125.807 Y129.085 E33.51762
G1 X126.167 Y129.071 E33.53384
G1 X126.203 Y129.068 E33.53547
G1 X126.487 Y129.04 E33.54832
G1 X126.54 Y129.033 E33.55072
G1 X126.804 Y128.983 E33.56282
G1 X126.872 Y128.965 E33.56599
G1 X127.254 Y128.845 E33.58401
G1 X127.349 Y128.806 E33.58864
G1 X127.622 Y128.665 E33.60247
G1 X127.692 Y128.623 E33.60615
G1 X127.972 Y128.426 E33.62156
G1 X128.046 Y128.364 E33.62591
G1 X128.336 Y128.081 E33.64415
G1 X128.409 Y127.995 E33.64923
G1 X128.618 Y127.695 E33.66569
G1 X128.664 Y127.618 E33.66973
G1 X128.81 Y127.323 E33.68454
G1 X128.843 Y127.242 E33.68848
G1 X128.954 Y126.899 E33.70471
G1 X128.971 Y126.832 E33.70782
G1 X129.02 Y126.588 E33.71903
G1 X129.028 Y126.537 E33.72135
G1 X129.06 Y126.254 E33.73418
G1 X129.063 Y126.217 E33.73585
G1 X129.085 Y125.771 E33.75595
G1 X129.086 Y125.741 E33.7573
G1 X129.083 Y94.658 E35.15669
G1 X129.082 Y94.625 E35.15817
G1 X129.055 Y94.131 E35.18045
G1 X129.049 Y94.073 E35.18307
G1 X128.995 Y93.72 E35.19915
G1 X128.98 Y93.649 E35.20242
G1 X128.861 Y93.224 E35.22229
G1 X128.825 Y93.129 E35.22686
G1 X128.663 Y92.788 E35.24386
G1 X128.617 Y92.707 E35.24805
G1 X128.386 Y92.368 E35.26652
G1 X128.312 Y92.279 E35.27173
G1 X128.293 Y92.26 E35.27294
G1 X128.26 Y92.085 E35.28096
G1 X128.147 Y91.899 E35.29075
G1 X127.974 Y91.766 E35.30058
G1 X127.7 Y91.7 E35.31327
G1 X127.652 Y91.7 E35.31543
G1 X127.449 Y91.568 E35.32633
G1 X127.356 Y91.518 E35.33108
G1 X126.987 Y91.362 E35.34912
G1 X126.895 Y91.332 E35.35348
G1 X126.509 Y91.238 E35.37136
G1 X126.438 Y91.225 E35.37461
G1 X126.16 Y91.192 E35.38722
G1 X126.115 Y91.189 E35.38925
G1 X125.717 Y91.172 E35.40718
G1 X125.691 Y91.171 E35.40835
G1 X92.313 Y91.183 E36.91106
G1 X92.281 Y91.184 E36.9125
G1 X91.834 Y91.208 E36.93266
G1 X91.788 Y91.212 E36.93473
G1 X91.407 Y91.262 E36.95203
G1 X91.362 Y91.27 E36.95409
G1 X90.877 Y91.372 E36.9764
G1 X90.675 Y91.455 E36.98624
G1 X90.64 Y91.488 E36.9884
G1 X90.6 Y91.488 E36.9902
G1 X90.6 Y90.795 E37.0214
G1 F1500 E32.5214
G1 F300 Z0.8
G0 F9000 X127.594 Y91.194 Z0.8
G1 F300 Z0.3
G1 F1500 E37.0214
G1 F3600 X128.806 Y91.194 E37.07597
G1 X128.806 Y92.275 E37.12464
G1 X128.716 Y92.143 E37.13183
G1 X128.669 Y92.087 E37.13512
G1 X128.66 Y92.021 E37.13812
G1 X128.544 Y91.764 E37.15081
G1 X128.361 Y91.549 E37.16352
G1 X128.125 Y91.395 E37.17621
G1 X127.855 Y91.312 E37.18893
G1 X127.78 Y91.306 E37.19232
G1 X127.666 Y91.232 E37.19843
G1 X127.594 Y91.194 E37.2021
G1 F1500 E32.7021
G1 F300 Z0.8
G0 F9000 X128.806 Y128.126 Z0.8
G1 F300 Z0.3
G1 F1500 E37.2021
G1 F3600 X128.806 Y128.806 E37.23271
G1 X128.127 Y128.806 E37.26328
G1 X128.202 Y128.753 E37.26742
G1 X128.325 Y128.651 E37.27461
G1 X128.615 Y128.368 E37.29285
G1 X128.738 Y128.224 E37.30138
G1 X128.806 Y128.126 E37.30675
G1 F1500 E32.80675
G1 F300 Z0.8
;MESH:fan rt.STL
G0 F9000 X126.4 Y126.4 Z0.8
;TYPE:WALL-INNER
G1 F300 Z0.3
G1 F1500 E37.30675
G1 F3600 X126.4 Y93.6 E38.78344
G1 X91.601 Y93.601 E40.35012
G1 X91.6 Y126.4 E41.82676
G1 X126.4 Y126.4 E43.39349
G0 F9000 X126.13 Y126.13
G0 X121.769 Y124.361
G0 X121.836 Y124.068
G1 F3600 X121.35 Y123.956 E43.41594
G1 X121.009 Y123.808 E43.43268
G1 X120.563 Y123.509 E43.45685
G1 X120.247 Y123.081 E43.4808
G1 X120.067 Y122.715 E43.49917
G1 X119.952 Y122.287 E43.51912
G1 X119.952 Y121.744 E43.54357
G1 X120.028 Y121.392 E43.55978
G1 F3609 X120.189 Y121.005 E43.5786
G1 F3750 X120.507 Y120.583 E43.60144
G1 F3809.5 X120.886 Y120.275 E43.62222
G1 F3664.1 X121.274 Y120.065 E43.64173
G1 F3600 X121.719 Y119.952 E43.6624
G1 X122.253 Y119.952 E43.68644
G1 X122.655 Y120.04 E43.70497
G1 X122.976 Y120.187 E43.72086
G1 X123.346 Y120.426 E43.7407
G1 X123.501 Y120.573 E43.75031
G1 X123.776 Y120.948 E43.77125
G1 X123.955 Y121.335 E43.79045
G1 X124.089 Y121.913 E43.81716
G1 X123.964 Y122.628 E43.84984
G1 X123.809 Y122.986 E43.8674
G1 X123.521 Y123.42 E43.89085
G1 X123.06 Y123.771 E43.91693
G1 X122.545 Y124.011 E43.94251
G1 X121.836 Y124.068 E43.97454
G0 F9000 X121.769 Y124.361
G0 X111.874 Y124.788
G0 X111.815 Y124.423
G1 F3600 X111.589 Y124.289 E43.98637
G1 X111.457 Y124.108 E43.99645
G1 X111.402 Y123.905 E44.00592
G1 X111.4 Y117.228 E44.30653
G1 X111.443 Y117.004 E44.31679
G1 X111.532 Y116.852 E44.32472
G1 X111.754 Y116.676 E44.33748
G1 X112.18 Y116.544 E44.35756
G1 X112.738 Y116.332 E44.38443
G1 X113.222 Y116.099 E44.40861
G1 X113.531 Y115.924 E44.4246
G1 X114.043 Y115.59 E44.45212
G1 X114.409 Y115.305 E44.47301
G1 X114.686 Y115.06 E44.48966
G1 X114.931 Y114.82 E44.5051
G1 X115.307 Y114.406 E44.53028
G1 X115.492 Y114.175 E44.5436
G1 X115.768 Y113.784 E44.56515
G1 X116.034 Y113.337 E44.58856
G1 X116.264 Y112.889 E44.61124
G1 X116.476 Y112.392 E44.63556
G1 X116.674 Y111.768 E44.66504
G1 X116.853 Y111.53 E44.67844
G1 X117.176 Y111.402 E44.69409
G1 X123.95 Y111.4 E44.99906
G1 X124.11 Y111.456 E45.00669
G1 X124.294 Y111.589 E45.01691
G1 X124.428 Y111.817 E45.02882
G1 X124.46 Y112.029 E45.03847
G1 X124.345 Y112.704 E45.0693
G1 X124.243 Y113.202 E45.09218
G1 X124.054 Y113.954 E45.12709
G1 X123.832 Y114.667 E45.16071
G1 X123.566 Y115.392 E45.19548
G1 X123.342 Y115.928 E45.22163
G1 X122.944 Y116.744 E45.26251
G1 X122.633 Y117.316 E45.29182
G1 X122.289 Y117.881 E45.3216
G1 X121.944 Y118.397 E45.34954
G1 X121.571 Y118.902 E45.37781
G1 X121.279 Y119.27 E45.39896
G1 F3645.6 X120.738 Y119.881 E45.43524
G1 F3871 X120.205 Y120.403 E45.46648
G1 F3829.8 X119.916 Y120.709 E45.48429
G1 F3609 X119.488 Y121.098 E45.51026
G1 F3600 X119.084 Y121.426 E45.53369
G1 X118.494 Y121.873 E45.56701
G1 X118.176 Y122.094 E45.58445
G1 X117.533 Y122.506 E45.61883
G1 X117.105 Y122.757 E45.64117
G1 X116.766 Y122.939 E45.65849
G1 X116.202 Y123.216 E45.68678
G1 X115.373 Y123.577 E45.72749
G1 X114.662 Y123.834 E45.76152
G1 X113.942 Y124.056 E45.79545
G1 X113.571 Y124.154 E45.81272
G1 X112.709 Y124.345 E45.85247
G1 X112.028 Y124.456 E45.88353
G1 X111.815 Y124.423 E45.89324
G0 F9000 X111.874 Y124.788
G0 X111.175 Y124.828
G0 X109.842 Y124.829
G0 X108.123 Y124.788
G0 X108.183 Y124.428
G1 F3600 X107.971 Y124.46 E45.90289
G1 X107.297 Y124.345 E45.93367
G1 X106.821 Y124.249 E45.95553
G1 X106.074 Y124.063 E45.99019
G1 X105.324 Y123.832 E46.02552
G1 X104.628 Y123.576 E46.05891
G1 X104.068 Y123.342 E46.08623
G1 X103.227 Y122.931 E46.12838
G1 X102.674 Y122.627 E46.15679
G1 X102.139 Y122.304 E46.18492
G1 X101.599 Y121.943 E46.21417
G1 X101.136 Y121.603 E46.24003
G1 X100.702 Y121.258 E46.26499
G1 F3636.4 X100.161 Y120.783 E46.29708
G1 F3871 X99.733 Y120.344 E46.32275
G1 F3829.8 X99.287 Y119.916 E46.34891
G1 F3600 X98.896 Y119.481 E46.37524
G1 X98.569 Y119.083 E46.39843
G1 X98.115 Y118.483 E46.4323
G1 X97.885 Y118.15 E46.45052
G1 X97.489 Y117.53 E46.48364
G1 X97.237 Y117.096 E46.50624
G1 X97.057 Y116.764 E46.52324
G1 X96.776 Y116.191 E46.55197
G1 X96.576 Y115.747 E46.5739
G1 X96.419 Y115.368 E46.59237
G1 X96.164 Y114.658 E46.62633
G1 X95.935 Y113.936 E46.66043
G1 X95.837 Y113.561 E46.67788
G1 X95.651 Y112.709 E46.71714
G1 X95.541 Y112.035 E46.74789
G1 X95.605 Y111.735 E46.7617
G1 X95.701 Y111.595 E46.76934
G1 X95.855 Y111.473 E46.77818
G1 X96.091 Y111.402 E46.78928
G1 X102.768 Y111.4 E47.08988
G1 X102.988 Y111.441 E47.09996
G1 X103.226 Y111.612 E47.11315
G1 X103.321 Y111.765 E47.12126
G1 X103.452 Y112.179 E47.14081
G1 X103.664 Y112.73 E47.16739
G1 X103.897 Y113.218 E47.19174
G1 X104.073 Y113.529 E47.20782
G1 X104.23 Y113.782 E47.22123
G1 X104.41 Y114.042 E47.23547
G1 X104.691 Y114.408 E47.25624
G1 X105.175 Y114.933 E47.28839
G1 X105.58 Y115.297 E47.3129
G1 X105.81 Y115.481 E47.32616
G1 X106.213 Y115.769 E47.34846
G1 X106.658 Y116.034 E47.37178
G1 X107.103 Y116.26 E47.39425
G1 X107.605 Y116.476 E47.41886
G1 X108.202 Y116.662 E47.44701
G1 X108.384 Y116.766 E47.45645
G1 X108.557 Y117.004 E47.46969
G1 X108.6 Y117.228 E47.47996
G1 X108.598 Y123.908 E47.7807
G1 X108.544 Y124.11 E47.79011
G1 X108.411 Y124.294 E47.80034
G1 X108.183 Y124.428 E47.81224
G0 F9000 X108.123 Y124.788
G0 X98.112 Y124.359
G0 X98.123 Y124.059
G1 F3600 X97.728 Y124.042 E47.83004
G1 X97.354 Y123.958 E47.8473
G1 X97.01 Y123.809 E47.86418
G1 X96.557 Y123.509 E47.88864
G1 X96.226 Y123.053 E47.91401
G1 X96.058 Y122.7 E47.93161
G1 X95.952 Y122.272 E47.95146
G1 X95.952 Y121.744 E47.97523
G1 X96.038 Y121.348 E47.99347
