;FLAVOR:Marlin
;TIME:7647
;Filament used: 10.0196m
;Layer height: 0.2
;MINX:53.8
;MINY:46.3
;MINZ:0.3
;MAXX:166.2
;MAXY:158.7
;MAXZ:17.7
;TARGET_MACHINE.NAME:Anet ET4 Pro
;POSTPROCESSED
;  [CreateThumbnail]
;Generated with Cura_SteamEngine 5.7.0
;
;

M82 ;absolute extrusion mode
M104 S250.0  ; Start heating up the nozzle most of the way
M190 S100.0 ; Start heating the bed, wait until target temperature reached
M109 S250.0 ; Finish heating the nozzle
G92 E0 ; Reset Extruder
G28 ; Home all axes
G1 Z2.0 F3000 ; Move Z Axis up little to prevent scratching of Heat Bed
G1 X1 Y20 Z0.3 F5000.0 ; Move to start position
G1 X1 Y200.0 Z0.3 F1500.0 E15 ; Draw the first line
G1 X1.5 Y200.0 Z0.3 F5000.0 ; Move to side a little
G1 X1.5 Y20 Z0.3 F1500.0 E30 ; Draw the second line
G92 E0
G1 Z2.0 F3000
G1 X5 Y20 Z0.3 F5000.0
M141 S36
G92 E0
G92 E0
G1 F2400 E-4
;LAYER_COUNT:84
;LAYER:0
M107
M204 S2500
G1 F300 Z1.1
G0 F6000 X55.059 Y48.102 Z1.1
;TYPE:SKIRT
G1 F300 Z0.3
G1 F2400 E0
G1 X55.387 Y47.773 E0.02026
G1 X55.716 Y47.487 E0.03927
G1 X56.147 Y47.16 E0.06287
G1 X56.623 Y46.891 E0.08672
G1 X56.905 Y46.756 E0.10035
G1 X57.427 Y46.56 E0.12467
G1 X57.9 Y46.428 E0.14609
G1 X58.396 Y46.331 E0.16813
G1 X58.692 Y46.311 E0.18107
G1 X59.23 Y46.3 E0.20454
G1 X160.499 Y46.306 E4.62129
G1 X161.201 Y46.316 E4.65191
G1 X161.698 Y46.362 E4.67368
G1 X162.058 Y46.424 E4.68961
G1 X162.561 Y46.554 E4.71227
G1 X162.879 Y46.664 E4.72694
G1 X163.528 Y46.974 E4.75831
G1 X163.925 Y47.222 E4.77873
G1 X164.453 Y47.634 E4.80794
G1 X164.746 Y47.917 E4.8257
G1 X165.144 Y48.383 E4.85243
G1 X165.329 Y48.647 E4.86649
G1 X165.63 Y49.178 E4.89311
G1 X165.827 Y49.619 E4.91418
G1 X166.033 Y50.248 E4.94304
G1 X166.108 Y50.595 E4.95853
G1 X166.179 Y51.21 E4.98553
G1 X166.199 Y52.261 E5.03137
G1 X166.2 Y152.878 E9.41969
G1 X166.19 Y153.584 E9.45048
G1 X166.164 Y153.946 E9.46631
G1 X166.11 Y154.367 E9.48482
G1 X165.994 Y154.902 E9.5087
G1 X165.885 Y155.256 E9.52485
G1 X165.699 Y155.726 E9.5469
G1 X165.557 Y155.983 E9.5597
G1 X165.332 Y156.351 E9.57851
G1 X165.002 Y156.799 E9.60278
G1 X164.703 Y157.138 E9.6225
G1 X164.34 Y157.489 E9.64452
G1 X164.04 Y157.708 E9.66072
G1 X163.61 Y157.986 E9.68305
G1 X163.165 Y158.226 E9.7051
G1 X162.889 Y158.333 E9.71801
G1 X162.489 Y158.467 E9.73641
G1 X162.026 Y158.585 E9.75725
G1 X161.718 Y158.639 E9.77089
G1 X161.231 Y158.686 E9.79223
G1 X160.583 Y158.699 E9.82049
G1 X59.684 Y158.7 E14.2211
G1 X58.76 Y158.679 E14.26141
G1 X58.254 Y158.636 E14.28356
G1 X57.755 Y158.553 E14.30563
G1 X57.364 Y158.429 E14.32352
G1 X56.925 Y158.258 E14.34406
G1 X56.327 Y157.949 E14.37342
G1 X56.049 Y157.766 E14.38794
G1 X55.618 Y157.427 E14.41185
G1 X55.294 Y157.123 E14.43123
G1 X54.836 Y156.586 E14.46201
G1 X54.595 Y156.231 E14.48072
G1 X54.269 Y155.645 E14.50997
G1 X54.07 Y155.094 E14.53552
G1 X53.973 Y154.751 E14.55107
G1 X53.877 Y154.282 E14.57195
G1 X53.835 Y153.95 E14.58654
G1 X53.81 Y153.598 E14.60193
G1 X53.801 Y152.97 E14.62933
G1 X53.8 Y51.982 E19.03382
G1 X53.809 Y51.329 E19.0623
G1 X53.866 Y50.769 E19.08685
G1 X53.939 Y50.389 E19.10373
G1 X54.101 Y49.829 E19.12915
G1 X54.26 Y49.422 E19.14821
G1 X54.516 Y48.909 E19.17321
G1 X54.761 Y48.511 E19.1936
G1 X55.059 Y48.102 E19.21567
G1 F2400 E15.21567
G1 F300 Z1.1
;MESH:cover.STL
G0 F6000 X97.371 Y128.857 Z1.1
;TYPE:WALL-OUTER
G1 F300 Z0.3
G1 F2400 E19.21567
G1 F2358.7 X96.87 Y128.857 E19.2379
G1 X97.221 Y128.367 E19.26465
G1 X97.72 Y128.366 E19.28679
G1 X97.371 Y128.857 E19.31353
G0 F6000 X97.486 Y128.694
G1 F2400 E15.31353
G1 F300 Z1.1
G0 F6000 X95.537 Y130.772 Z1.1
G1 F300 Z0.3
G1 F2400 E19.31353
G1 F2313.3 X96.049 Y130.035 E19.35413
G1 F2318.8 X96.548 Y130.035 E19.37666
G1 F2313.3 X96.046 Y130.772 E19.41701
G1 F2307.7 X95.537 Y130.772 E19.4401
G0 F6000 X95.737 Y130.772
G1 F2400 E15.4401
G1 F300 Z1.1
G0 F6000 X95.736 Y132.963 Z1.1
G0 X93.702 Y129.256
;TYPE:WALL-INNER
G1 F300 Z0.3
G1 F2400 E19.4401
G1 F2296.7 X94.294 Y128.424 E19.48664
G0 F6000 X92.958 Y130.315
G1 F2157.3 X92.878 Y130.446 E19.49408
G1 X92.276 Y131.319 E19.54554
G0 F6000 X91.915 Y132.087
G0 X92.958 Y130.315
G1 F2206.9 X93.095 Y130.149 E19.55575
G1 F2388.1 X93.364 Y129.784 E19.57562
G1 F2347.2 X93.702 Y129.256 E19.60358
G1 X93.205 Y129.481 E19.62791
G1 F2480.6 X92.926 Y129.481 E19.63968
G1 X93.027 Y129.758 E19.65212
G1 F2388.1 X93.016 Y130.109 E19.66751
G1 F2206.9 X92.958 Y130.315 E19.67766
G0 F6000 X95.105 Y127.554
G0 X94.901 Y126.978
G0 X90.013 Y126.977
G0 X89.51 Y127.096
G0 X89.103 Y127.288
G0 X88.322 Y127.912
G1 F2630.1 X87.834 Y128.624 E19.71202
G0 F6000 X86.376 Y130.964
G0 X86.261 Y131.449
G0 X86.412 Y131.866
G0 X86.828 Y132.137
G0 X97.243 Y132.63
G1 F2400 X96.739 Y132.731 E19.73444
G1 X96.415 Y132.763 E19.74863
G1 X92.882 Y132.759 E19.90272
G1 X92.614 Y132.707 E19.91463
G1 X92.427 Y132.622 E19.92359
G1 X92.21 Y132.448 E19.93572
G1 X92.015 Y132.174 E19.95039
G1 X91.697 Y132.386 E19.96706
G1 X91.258 Y132.601 E19.98838
G1 X90.592 Y132.748 E20.01812
G1 X87.093 Y132.758 E20.17073
G1 X86.746 Y132.69 E20.18615
G1 X86.486 Y132.583 E20.19841
G1 X86.096 Y132.324 E20.21883
G1 X85.885 Y132.026 E20.23476
G1 X85.497 Y132.32 E20.25599
G1 X84.914 Y132.629 E20.28477
G1 X84.359 Y132.747 E20.30951
G1 X80.472 Y132.756 E20.47904
G1 X80.113 Y132.628 E20.49566
G1 X79.818 Y132.413 E20.51158
G1 X79.599 Y132.184 E20.5254
G1 X79.39 Y131.695 E20.5486
G1 X79.375 Y131.174 E20.57133
G1 X79.579 Y130.589 E20.59835
G1 X81.791 Y127.343 E20.76967
G1 X81.963 Y127.166 E20.78043
G1 X82.546 Y126.75 E20.81167
G1 X83.194 Y126.52 E20.84166
G1 X83.757 Y126.434 E20.8665
G1 X84.124 Y126.412 E20.88253
G1 X84.715 Y126.416 E20.90831
G1 X85.066 Y126.498 E20.92403
G1 X85.35 Y126.762 E20.94094
G1 X85.577 Y126.548 E20.95455
G1 X85.739 Y126.47 E20.96239
G1 X86.026 Y126.409 E20.97519
G1 X87.918 Y126.409 E21.0577
G1 X88.266 Y126.551 E21.0741
G1 X88.469 Y126.714 E21.08545
G1 X88.623 Y126.926 E21.09688
G1 X88.737 Y126.841 E21.10308
G1 X89.303 Y126.569 E21.13047
G1 X89.928 Y126.42 E21.15849
G1 X94.325 Y126.408 E21.35026
G1 X94.695 Y126.493 E21.36682
G1 X94.984 Y126.763 E21.38407
G1 X95.216 Y126.546 E21.39792
G1 X95.377 Y126.469 E21.40571
G1 X95.664 Y126.409 E21.4185
G1 X99.748 Y126.411 E21.59662
G1 X100.344 Y126.557 E21.62338
G1 X100.523 Y126.639 E21.63197
G1 X100.905 Y126.92 E21.65265
G1 X101.081 Y127.21 E21.66744
G1 X101.207 Y127.563 E21.68379
G1 X101.207 Y127.909 E21.69888
G1 X101.108 Y128.252 E21.71445
G1 X100.964 Y128.54 E21.72849
G1 X100.037 Y129.832 E21.79785
G1 X99.756 Y130.104 E21.8149
G1 X99.597 Y130.477 E21.83259
G1 X98.623 Y131.918 E21.90845
G1 X98.036 Y132.31 E21.93923
G1 X97.632 Y132.497 E21.95865
G1 X97.243 Y132.63 E21.97658
G0 F6000 X106.237 Y133.99
G1 F2400 X105.59 Y133.804 E22.00594
G1 X105.363 Y133.659 E22.01769
G1 X104.935 Y133.259 E22.04324
G1 X104.641 Y132.759 E22.06853
G1 X104.5 Y132.191 E22.09406
G1 X104.504 Y124.779 E22.41733
G1 X104.674 Y124.143 E22.44604
G1 X104.977 Y123.688 E22.46988
G1 X105.207 Y123.45 E22.48431
G1 X105.695 Y123.158 E22.50912
G1 X106.246 Y123.006 E22.53405
G1 X120.685 Y123.002 E23.16379
G1 X121.184 Y123.105 E23.18601
G1 X121.734 Y123.413 E23.2135
G1 X121.959 Y123.614 E23.22666
G1 X122.332 Y124.174 E23.25601
G1 X122.49 Y124.748 E23.28197
G1 X122.496 Y132.158 E23.60515
G1 X122.391 Y132.678 E23.62829
G1 X122.073 Y133.229 E23.65604
G1 X121.894 Y133.424 E23.66758
G1 X121.525 Y133.723 E23.6883
G1 X121.1 Y133.915 E23.70864
G1 X120.639 Y133.993 E23.72903
G1 X106.237 Y133.99 E24.35716
G0 F6000 X106.303 Y133.591
G1 F2400 X105.793 Y133.447 E24.38027
G1 X105.636 Y133.364 E24.38802
G1 X105.259 Y133.015 E24.41042
G1 X105.017 Y132.615 E24.43081
G1 X104.9 Y132.143 E24.45202
G1 X104.904 Y124.806 E24.77202
G1 X105.045 Y124.302 E24.79484
G1 X105.367 Y123.827 E24.81987
G1 X105.85 Y123.529 E24.84462
G1 X106.312 Y123.405 E24.86548
G1 X120.607 Y123.401 E25.48895
G1 X121.041 Y123.482 E25.5082
G1 X121.516 Y123.748 E25.53195
G1 X121.651 Y123.869 E25.53985
G1 X121.958 Y124.333 E25.56412
G1 X122.087 Y124.808 E25.58559
G1 X122.093 Y132.122 E25.90458
G1 X122.019 Y132.52 E25.92223
G1 X121.718 Y133.048 E25.94874
G1 X121.34 Y133.366 E25.97029
G1 X120.983 Y133.53 E25.98742
G1 X120.604 Y133.594 E26.00418
G1 X106.303 Y133.591 E26.62791
G0 F6000 X106.22 Y133.881
G0 X86.828 Y132.137
G0 X86.412 Y131.866
G0 X86.261 Y131.449
G0 X86.376 Y130.964
G0 X87.52 Y129.487
G0 X86.948 Y129.929
G1 F2719.5 X86.261 Y130.913 E26.6741
G0 F6000 X87.52 Y129.487
G0 X86.948 Y129.929
G1 F2449 X87.416 Y129.667 E26.69702
G1 F2296.7 X87.941 Y129.667 E26.72095
G1 X87.75 Y129.384 E26.73651
G1 X87.707 Y129.032 E26.75267
G1 F2455.2 X87.834 Y128.624 E26.77089
G1 X87.611 Y129.004 E26.78968
G1 F2296.7 X87.304 Y129.455 E26.81454
G1 F2449 X86.948 Y129.929 E26.83988
G0 F6000 X87.52 Y129.487
G0 X86.376 Y130.964
G0 X86.261 Y131.449
G0 X86.412 Y131.866
G0 X86.828 Y132.137
G0 X97.266 Y132.521
G0 X97.167 Y132.236
G1 F2400 X96.76 Y132.324 E26.85804
G1 X96.395 Y132.364 E26.87405
G1 X92.903 Y132.36 E27.02635
G1 X92.7 Y132.312 E27.03545
G1 X92.5 Y132.173 E27.04607
G1 X92.31 Y131.859 E27.06208
G1 F2370.4 X92.239 Y131.606 E27.07369
G1 F2222.2 X92.276 Y131.319 E27.08732
G1 X92.085 Y131.56 E27.1018
G1 F2370.4 X91.817 Y131.834 E27.11873
G1 F2400 X91.407 Y132.09 E27.13981
G1 X91.09 Y132.23 E27.15492
G1 X90.552 Y132.35 E27.17896
G1 X87.166 Y132.359 E27.32664
G1 X86.769 Y132.291 E27.34421
G1 X86.369 Y132.03 E27.36504
G1 X86.227 Y131.829 E27.37577
G1 X86.153 Y131.632 E27.38495
G1 F2467.9 X86.118 Y131.331 E27.3978
G1 F2608.7 X86.233 Y130.963 E27.41327
G1 F2533 X86.066 Y131.259 E27.42732
G1 F2400 X85.701 Y131.66 E27.45097
G1 X85.282 Y131.983 E27.47404
G1 X84.806 Y132.241 E27.49765
G1 X84.329 Y132.344 E27.51894
G1 X80.529 Y132.356 E27.68467
G1 X80.343 Y132.291 E27.69326
G1 X80.07 Y132.103 E27.70772
G1 X79.941 Y131.958 E27.71618
G1 X79.788 Y131.635 E27.73177
G1 X79.771 Y131.267 E27.74784
G1 X79.948 Y130.751 E27.77163
G1 X82.146 Y127.53 E27.9417
G1 X82.728 Y127.11 E27.97301
G1 X83.283 Y126.91 E27.99874
G1 X83.784 Y126.833 E28.02084
G1 X84.084 Y126.813 E28.03396
G1 X84.65 Y126.812 E28.05864
G1 X84.919 Y126.894 E28.07091
G1 X85.111 Y127.072 E28.08233
G1 X85.236 Y127.291 E28.09332
G1 X85.249 Y127.577 E28.10581
G1 X85.591 Y127.071 E28.13245
G1 X85.781 Y126.892 E28.14383
G1 X85.998 Y126.814 E28.15389
G1 X87.85 Y126.808 E28.23466
G1 X88.059 Y126.894 E28.24452
G1 X88.228 Y127.046 E28.25443
G1 X88.372 Y127.306 E28.2674
G1 F2418.1 X88.437 Y127.6 E28.28043
G1 F2526.3 X88.322 Y127.912 E28.29421
G1 F2566.8 X88.535 Y127.58 E28.31029
G1 F2480.6 X88.91 Y127.198 E28.33288
G1 F2430.4 X89.471 Y126.939 E28.35949
G1 F2400 X90.01 Y126.818 E28.38359
G1 X94.318 Y126.808 E28.57148
G1 X94.549 Y126.891 E28.58218
G1 X94.738 Y127.067 E28.59344
G1 X94.888 Y127.432 E28.61066
G1 X94.881 Y127.577 E28.61699
G1 X95.23 Y127.067 E28.64394
G1 X95.419 Y126.891 E28.6552
G1 X95.688 Y126.809 E28.66747
G1 X99.703 Y126.814 E28.84258
G1 X100.271 Y126.947 E28.86802
G1 X100.617 Y127.205 E28.88685
G1 X100.812 Y127.573 E28.90501
G1 X100.812 Y127.84 E28.91665
G1 X100.7 Y128.222 E28.93402
G1 X99.656 Y129.673 E29.01198
G1 X99.397 Y129.878 E29.02639
G1 X99.306 Y130.194 E29.04073
G1 X98.33 Y131.638 E29.11674
G1 X97.797 Y131.981 E29.14439
G1 X97.458 Y132.135 E29.16063
G1 X97.167 Y132.236 E29.17406
G1 F2400 E25.17406
G0 F6000 X97.266 Y132.521
G0 X69.191 Y145.634
G1 F2400 E29.17406
G1 X68.568 Y145.953 E29.20459
G1 X67.882 Y146.131 E29.2355
G1 X67.186 Y146.137 E29.26585
G1 X66.728 Y146.044 E29.28624
G1 X66.138 Y145.817 E29.31381
G1 X65.677 Y145.513 E29.33789
G1 X65.216 Y145.076 E29.36559
G1 X64.838 Y144.402 E29.3993
G1 X64.67 Y143.928 E29.42123
G1 X64.593 Y143.328 E29.44761
G1 X64.626 Y142.81 E29.47025
G1 X64.682 Y142.542 E29.48219
G1 X64.922 Y141.871 E29.51327
G1 X65.291 Y141.365 E29.54059
G1 X65.671 Y140.992 E29.56381
G1 X66.089 Y140.711 E29.58578
G1 X66.721 Y140.445 E29.61568
G1 X67.356 Y140.35 E29.64369
G1 X67.957 Y140.378 E29.66993
G1 X68.425 Y140.497 E29.69099
G1 X68.996 Y140.761 E29.71842
G1 X69.52 Y141.143 E29.74671
G1 X69.976 Y141.711 E29.77847
G1 X70.287 Y142.382 E29.81073
G1 X70.393 Y142.999 E29.83803
G1 X70.384 Y143.591 E29.86386
G1 X70.221 Y144.24 E29.89304
G1 X69.986 Y144.743 E29.91726
G1 X69.637 Y145.213 E29.94279
G1 X69.191 Y145.634 E29.96954
G0 F6000 X68.957 Y145.297
G1 F2400 X68.434 Y145.574 E29.99535
G1 X67.835 Y145.732 E30.02237
G1 X67.236 Y145.735 E30.04849
G1 X66.892 Y145.675 E30.06372
G1 X66.353 Y145.472 E30.08884
G1 X65.907 Y145.179 E30.11212
G1 X65.512 Y144.801 E30.13596
G1 X65.179 Y144.185 E30.1665
G1 X65.056 Y143.796 E30.18429
G1 X64.996 Y143.28 E30.20695
G1 X65.03 Y142.754 E30.22994
G1 X65.286 Y142.062 E30.26212
G1 X65.566 Y141.666 E30.28327
G1 X65.92 Y141.307 E30.30526
G1 X66.279 Y141.063 E30.32419
G1 X66.833 Y140.837 E30.35029
G1 X67.386 Y140.749 E30.37471
G1 X67.903 Y140.775 E30.39729
G1 X68.29 Y140.878 E30.41475
G1 X68.767 Y141.095 E30.43761
G1 X69.239 Y141.432 E30.4629
G1 X69.626 Y141.91 E30.48973
G1 X69.9 Y142.49 E30.5177
G1 X69.991 Y143.035 E30.5418
G1 X69.986 Y143.532 E30.56348
G1 X69.845 Y144.114 E30.5896
G1 X69.643 Y144.537 E30.61004
G1 X69.334 Y144.95 E30.63254
G1 X68.957 Y145.297 E30.65489
G0 F6000 X69.165 Y145.521
G0 X62.374 Y154.081
G0 X62.197 Y153.839
G1 F2400 X61.74 Y154.171 E30.67952
G1 X61.369 Y154.347 E30.69743
G1 F2347.2 X60.905 Y154.477 E30.71892
G1 F2352.9 X60.425 Y154.503 E30.7403
G1 X59.815 Y154.439 E30.76759
G1 F2318.8 X59.143 Y154.118 E30.80121
G1 F2376.2 X58.674 Y153.712 E30.82853
G1 F2400 X58.433 Y153.406 E30.84552
G1 F2382.1 X58.158 Y152.926 E30.86983
G1 F2341.5 X58.017 Y152.369 E30.89551
G1 F2307.7 X58.004 Y151.565 E30.93199
G1 F2318.8 X58.239 Y150.883 E30.96455
G1 F2376.2 X58.648 Y150.296 E30.99606
G1 F2400 X59.035 Y149.969 E31.01816
G1 X59.422 Y149.739 E31.0378
G1 X60.04 Y149.514 E31.06648
G1 X60.698 Y149.503 E31.09518
G1 X61.093 Y149.57 E31.11266
G1 X61.791 Y149.829 E31.14513
G1 X62.273 Y150.232 E31.17253
G1 X62.522 Y150.531 E31.1895
G1 X62.747 Y150.903 E31.20846
G1 X62.919 Y151.378 E31.23049
G1 X63.003 Y151.908 E31.2539
G1 X62.967 Y152.471 E31.2785
G1 X62.918 Y152.673 E31.28757
G1 X62.597 Y153.406 E31.32247
G1 X62.197 Y153.839 E31.34818
G0 F6000 X62.374 Y154.081
G0 X62.8 Y153.538
G0 X63.197 Y152.631
G0 X63.241 Y151.902
G0 X63.168 Y151.356
G0 X62.978 Y150.822
G0 X62.722 Y150.393
G0 X62.437 Y150.058
G0 X61.91 Y149.619
G0 X61.157 Y149.336
G0 X60.706 Y149.266
G0 X60.002 Y149.277
G0 X59.32 Y149.523
G0 X58.893 Y149.778
G0 X58.472 Y150.136
G0 X58.02 Y150.78
G0 X57.767 Y151.571
G0 X57.781 Y152.369
G0 X57.903 Y152.887
G0 X58.586 Y154.299
G1 F1584.2 X58.326 Y154.078 E31.37072
G1 F1600 X58.194 Y153.903 E31.38507
G1 F2400 E27.38507
G0 F6000 X57.932 Y153.008
G0 X57.781 Y152.369
G0 X57.767 Y151.571
G0 X64.274 Y119.629
G1 F2400 E31.38507
G1 X63.469 Y119.882 E31.42187
G1 X62.634 Y119.885 E31.45829
G1 X62.001 Y119.729 E31.48672
G1 X61.608 Y119.55 E31.50555
G1 X61.121 Y119.213 E31.53138
G1 X60.765 Y118.857 E31.55334
G1 X60.518 Y118.51 E31.57192
G1 X60.308 Y118.09 E31.5924
G1 X60.168 Y117.658 E31.6122
G1 X60.071 Y116.879 E31.64644
G1 X60.214 Y116.167 E31.67811
G1 X60.443 Y115.614 E31.70422
G1 X60.789 Y115.109 E31.73092
G1 X61.171 Y114.74 E31.75408
G1 X61.627 Y114.438 E31.77794
G1 X61.873 Y114.32 E31.78984
G1 X62.313 Y114.178 E31.81
G1 X62.878 Y114.097 E31.83489
G1 X63.299 Y114.11 E31.85326
G1 X63.881 Y114.214 E31.87905
G1 X64.664 Y114.591 E31.91695
G1 X65.141 Y115.045 E31.94567
G1 X65.478 Y115.466 E31.96919
G1 X65.791 Y116.135 E32.00141
G1 X65.909 Y116.901 E32.03521
G1 X65.864 Y117.443 E32.05893
G1 X65.753 Y117.906 E32.07969
G1 X65.541 Y118.394 E32.1029
G1 X65.204 Y118.888 E32.12898
G1 X64.839 Y119.242 E32.15116
G1 X64.274 Y119.629 E32.18103
G0 F6000 X64.086 Y119.271
G1 F2400 X63.394 Y119.488 E32.21266
G1 X62.678 Y119.485 E32.24388
G1 X62.135 Y119.35 E32.26829
G1 X61.808 Y119.201 E32.28396
G1 X61.379 Y118.905 E32.30669
G1 X61.067 Y118.593 E32.32593
G1 X60.843 Y118.265 E32.34326
G1 X60.665 Y117.893 E32.36124
G1 X60.556 Y117.54 E32.37736
G1 X60.479 Y116.875 E32.40655
G1 X60.598 Y116.287 E32.43272
G1 X60.796 Y115.805 E32.45545
G1 X61.097 Y115.368 E32.47859
G1 X61.422 Y115.054 E32.4983
G1 X61.92 Y114.724 E32.52435
