;FLAVOR:Marlin
;TIME:4830
;Filament used: 4.7414m
;Layer height: 0.2
;MINX:75.164
;MINY:82.408
;MINZ:0.3
;MAXX:148.838
;MAXY:142.588
;MAXZ:11.9
;TARGET_MACHINE.NAME:Anet ET4 Pro
;POSTPROCESSED
;  [CreateThumbnail]
;Generated with Cura_SteamEngine 5.7.0
;
;

M82 ;absolute extrusion mode
M104 S235.0  ; Start heating up the nozzle most of the way
M190 S80.0 ; Start heating the bed, wait until target temperature reached
M109 S235.0 ; Finish heating the nozzle
G92 E0 ; Reset Extruder
G28 ; Home all axes
G1 Z2.0 F3000 ; Move Z Axis up little to prevent scratching of Heat Bed
G1 X1 Y20 Z0.3 F5000.0 ; Move to start position
G1 X1 Y200.0 Z0.3 F1500.0 E15 ; Draw the first line
G1 X1.5 Y200.0 Z0.3 F5000.0 ; Move to side a little
G1 X1.5 Y20 Z0.3 F1500.0 E30 ; Draw the second line
G92 E0
G1 Z2.0 F3000
G1 X5 Y20 Z0.3 F5000.0
G92 E0
G92 E0
G1 F1800 E-5
;LAYER_COUNT:59
;LAYER:0
M107
M204 S2000
G1 F300 Z1.1
;MESH:Voron_2.4_-_Afterburner_-_Hotend_Fan_Mount.stl
G0 F9000 X99.457 Y92.027 Z1.1
;TYPE:WALL-INNER
G1 F300 Z0.3
G1 F1800 E0
G1 F2364.5 X100.121 Y91.974 E0.04566
G1 F2885.8 X101.082 Y91.918 E0.09972
G1 F3529.4 X102.003 Y91.885 E0.14204
G1 F3956 X103.374 Y91.875 E0.19821
G1 F3759.8 X104.6 Y91.903 E0.25108
G1 F3044.4 X105.749 Y91.966 E0.31234
G1 F2380.2 X106.656 Y92.036 E0.37428
G0 F9000 X111.162 Y93.707
G0 X113.01 Y94.624
G0 X114.779 Y95.737
G0 X116.444 Y97.04
G0 X117.972 Y98.515
G0 X119.335 Y100.134
G0 X120.513 Y101.869
G0 X121.388 Y103.468
G0 X122.044 Y104.993
G0 X123.239 Y108.347
G1 F3520.8 X123.248 Y107.414 E0.41724
G1 F3600 X123.248 Y101.336 E0.69087
G1 X123.278 Y100.872 E0.71181
G1 X123.345 Y100.41 E0.73282
G1 X123.527 Y99.701 E0.76578
G1 X123.718 Y99.198 E0.79
G1 X123.944 Y98.725 E0.8136
G1 X124.171 Y98.337 E0.83384
G1 X124.51 Y97.854 E0.86041
G1 X124.836 Y97.48 E0.88274
G1 X125.051 Y97.265 E0.89643
G1 X125.368 Y96.988 E0.91538
G1 X125.758 Y96.685 E0.93762
G1 X126.279 Y96.366 E0.96512
G1 X126.638 Y96.188 E0.98316
G1 X127.071 Y96.005 E1.00433
G1 X130.115 Y95.026 E1.14828
G1 X130.425 Y94.948 E1.16267
G1 X131.02 Y94.863 E1.18973
G1 X132.398 Y94.742 E1.25201
G1 X133.837 Y94.642 E1.31695
G1 X138.521 Y94.349 E1.52824
G1 X140.392 Y94.197 E1.61275
G1 X140.917 Y94.127 E1.6366
G1 X143.369 Y93.343 E1.7525
G1 X143.363 Y93.178 E1.75993
G1 X143.214 Y92.8 E1.77822
G1 X142.888 Y92.083 E1.81368
G1 X142.725 Y91.607 E1.83633
G1 X142.658 Y91.338 E1.84881
G1 X142.548 Y90.697 E1.87809
G1 X142.48 Y90.02 E1.90873
G1 X142.439 Y89.174 E1.94686
G1 X142.4 Y88.861 E1.96106
G1 X142.299 Y88.489 E1.97841
G1 X142.172 Y88.185 E1.99325
G1 X141.982 Y87.834 E2.01122
G1 X141.735 Y87.523 E2.0291
G1 X141.52 Y87.307 E2.04282
G1 X141.214 Y87.063 E2.06044
G1 X140.822 Y86.847 E2.08059
G1 X140.166 Y86.768 E2.11033
G1 X139.085 Y86.689 E2.15913
G1 X138.217 Y86.647 E2.19826
G1 X136.224 Y86.6 E2.28801
G1 X135.07 Y86.589 E2.33996
G1 X134.504 Y86.594 E2.36545
G1 X134.78 Y86.901 E2.38403
G1 X135.037 Y87.261 E2.40395
G1 X135.219 Y87.589 E2.42083
G1 X135.371 Y87.932 E2.43772
G1 X135.505 Y88.327 E2.4565
G1 X135.592 Y88.711 E2.47423
G1 X135.64 Y89.133 E2.49335
G1 X135.638 Y89.635 E2.51595
G1 X135.582 Y90.112 E2.53757
G1 X135.489 Y90.509 E2.55593
G1 X135.369 Y90.858 E2.57255
G1 X135.189 Y91.25 E2.59197
G1 X134.967 Y91.622 E2.61147
G1 X134.614 Y92.093 E2.63797
G1 X134.097 Y92.564 E2.66945
G1 X133.653 Y92.856 E2.69338
G1 X133.232 Y93.061 E2.71446
G1 X132.789 Y93.224 E2.73571
G1 X132.36 Y93.333 E2.75564
G1 X131.952 Y93.376 E2.77411
G1 X131.572 Y93.388 E2.79123
G1 X131.182 Y93.36 E2.80883
G1 X130.711 Y93.28 E2.83034
G1 X130.279 Y93.155 E2.85059
G1 X129.887 Y92.984 E2.86984
G1 X129.324 Y92.667 E2.89893
G1 X128.842 Y92.24 E2.92792
G1 X128.516 Y91.876 E2.94992
G1 X128.325 Y91.617 E2.96441
G1 X128.122 Y91.274 E2.98235
G1 X127.937 Y90.889 E3.00158
G1 X127.789 Y90.445 E3.02265
G1 X127.689 Y90.012 E3.04266
G1 X127.635 Y89.371 E3.07162
G1 X127.692 Y88.793 E3.09777
G1 X127.792 Y88.318 E3.11962
G1 X127.88 Y88.057 E3.13202
G1 X121.562 Y88.059 E3.41646
G1 X121.358 Y88.32 E3.43138
G1 X121.097 Y88.626 E3.44948
G1 X120.777 Y88.966 E3.4705
G1 X120.262 Y89.448 E3.50226
G1 X119.716 Y89.897 E3.53409
G1 X119.225 Y90.247 E3.56123
G1 X118.788 Y90.522 E3.58448
G1 X118.494 Y90.687 E3.59966
G1 X117.974 Y90.955 E3.62599
G1 X117.614 Y91.117 E3.64377
G1 X117.15 Y91.297 E3.66617
G1 X116.693 Y91.456 E3.68796
G1 X116.229 Y91.585 E3.70964
G1 X115.899 Y91.663 E3.72491
G1 X115.287 Y91.779 E3.75295
G1 X114.445 Y91.88 E3.79113
G1 X113.829 Y91.9 E3.81888
G1 X107.403 Y91.899 E4.10818
G1 F3070.4 X106.643 Y92.031 E4.1489
G1 X107.363 Y92.315 E4.18976
G1 F3600 X108.325 Y92.548 E4.23432
G1 X109.295 Y92.832 E4.27982
G1 X110.047 Y93.09 E4.31562
G1 X110.759 Y93.364 E4.34996
G1 X111.239 Y93.563 E4.37336
G1 X111.938 Y93.886 E4.40802
G1 X112.641 Y94.24 E4.44346
G1 X113.097 Y94.488 E4.46683
G1 X113.634 Y94.802 E4.49483
G1 X114.19 Y95.142 E4.52417
G1 X114.888 Y95.616 E4.56216
G1 X115.727 Y96.238 E4.60918
G1 X116.564 Y96.93 E4.65807
G1 X117.344 Y97.644 E4.70568
G1 X117.727 Y98.024 E4.72997
G1 X118.1 Y98.418 E4.7544
G1 X118.63 Y99.009 E4.79014
G1 X119.139 Y99.623 E4.82604
G1 X119.473 Y100.055 E4.85063
G1 X119.928 Y100.68 E4.88543
G1 X120.229 Y101.117 E4.90932
G1 X120.639 Y101.766 E4.94388
G1 X121.177 Y102.707 E4.99268
G1 X121.525 Y103.379 E5.02675
G1 X121.961 Y104.332 E5.07393
G1 X122.166 Y104.815 E5.09756
G1 X122.342 Y105.271 E5.11956
G1 X122.683 Y106.266 E5.16692
G1 X122.895 Y106.976 E5.20028
G1 X123.027 Y107.473 E5.22343
G1 F3520.8 X123.239 Y108.347 E5.26483
G1 F3503.6 X123.246 Y108.463 E5.2702
G0 F9000 X123.396 Y110.573
G0 X123.461 Y111.498
G0 X123.469 Y113.331
G0 X123.447 Y113.723
G0 X121.564 Y136.94
G1 F3600 X127.866 Y136.936 E5.55392
G1 X127.714 Y136.35 E5.58118
G1 X127.635 Y135.663 E5.61231
G1 X127.684 Y135.003 E5.64211
G1 X127.786 Y134.57 E5.66214
G1 X127.93 Y134.138 E5.68264
G1 X128.135 Y133.679 E5.70527
G1 X128.38 Y133.299 E5.72562
G1 X128.647 Y132.966 E5.74484
G1 X129.016 Y132.583 E5.76878
G1 X129.486 Y132.243 E5.7949
G1 X129.966 Y131.959 E5.82001
G1 X130.57 Y131.751 E5.84877
G1 X130.935 Y131.671 E5.86559
G1 X131.38 Y131.61 E5.88581
G1 X131.884 Y131.616 E5.90851
G1 X132.414 Y131.669 E5.93249
G1 X132.98 Y131.836 E5.95905
G1 X133.325 Y131.976 E5.97582
G1 X133.609 Y132.119 E5.99013
G1 X134.13 Y132.45 E6.01792
G1 X134.677 Y132.974 E6.05202
G1 X135.036 Y133.478 E6.07988
G1 X135.214 Y133.794 E6.09621
G1 X135.351 Y134.087 E6.11077
G1 X135.48 Y134.459 E6.1285
G1 X135.582 Y134.873 E6.14769
G1 X135.635 Y135.249 E6.16479
G1 X135.644 Y135.729 E6.1864
G1 X135.595 Y136.25 E6.20996
G1 X135.488 Y136.729 E6.23206
G1 X135.352 Y137.117 E6.25057
G1 X135.165 Y137.528 E6.2709
G1 X134.867 Y137.976 E6.29512
G1 X134.534 Y138.409 E6.31971
G1 X136.798 Y138.388 E6.42165
G1 X138.724 Y138.327 E6.5084
G1 X139.348 Y138.294 E6.53653
G1 X140.343 Y138.213 E6.58148
G1 X140.836 Y138.15 E6.60385
G1 X141.205 Y137.939 E6.62299
G1 X141.446 Y137.751 E6.63675
G1 X141.684 Y137.533 E6.65128
G1 X141.976 Y137.17 E6.67225
G1 X142.153 Y136.855 E6.68852
G1 X142.359 Y136.352 E6.71299
G1 X142.436 Y135.865 E6.73519
G1 X142.496 Y134.796 E6.78339
G1 X142.586 Y134.027 E6.81825
G1 X142.663 Y133.634 E6.83628
G1 X142.773 Y133.224 E6.85539
G1 X142.942 Y132.787 E6.87649
G1 X143.173 Y132.293 E6.90104
G1 X143.345 Y131.865 E6.9218
G1 X143.376 Y131.657 E6.93127
G1 X140.966 Y130.885 E7.0452
G1 X140.707 Y130.839 E7.05705
G1 X139.743 Y130.737 E7.10069
G1 X137.691 Y130.591 E7.1933
G1 X134.718 Y130.412 E7.32739
G1 X132.151 Y130.239 E7.44323
G1 X130.901 Y130.12 E7.49976
G1 X130.512 Y130.065 E7.51744
G1 X130.148 Y129.984 E7.53423
G1 X127.087 Y128.994 E7.67907
G1 X126.652 Y128.822 E7.70013
G1 X126.163 Y128.566 E7.72498
G1 X125.708 Y128.272 E7.74937
G1 X125.459 Y128.087 E7.76333
G1 X125.198 Y127.867 E7.7787
G1 X124.934 Y127.613 E7.79519
G1 X124.667 Y127.323 E7.81294
G1 X124.358 Y126.937 E7.8352
G1 X124.169 Y126.657 E7.85041
G1 X123.952 Y126.294 E7.86945
G1 X123.798 Y125.986 E7.88495
G1 X123.615 Y125.552 E7.90616
G1 X123.434 Y124.991 E7.9327
G1 X123.325 Y124.456 E7.95728
G1 X123.248 Y123.831 E7.98563
G1 X123.248 Y116.526 E8.31451
G1 X123.06 Y117.381 E8.35392
G1 X122.872 Y118.098 E8.38729
G1 X122.737 Y118.562 E8.40905
G1 X122.41 Y119.539 E8.45543
G1 X122.201 Y120.095 E8.48217
G1 X121.903 Y120.808 E8.51696
G1 X121.713 Y121.225 E8.53759
G1 X121.273 Y122.113 E8.58221
G1 X121.011 Y122.596 E8.60695
G1 X120.738 Y123.069 E8.63154
G1 X120.318 Y123.741 E8.66721
G1 X119.754 Y124.566 E8.71221
G1 X119.406 Y125.033 E8.73843
G1 X118.805 Y125.783 E8.78169
G1 X118.175 Y126.503 E8.82477
G1 X117.468 Y127.231 E8.87045
G1 X116.998 Y127.673 E8.8995
G1 X116.488 Y128.133 E8.93042
G1 X115.886 Y128.635 E8.96571
G1 X115.448 Y128.974 E8.99065
G1 X115.04 Y129.27 E9.01334
G1 X114.185 Y129.855 E9.05998
G1 X113.694 Y130.164 E9.0861
G1 X113.243 Y130.426 E9.10958
G1 X112.546 Y130.806 E9.14532
G1 X111.894 Y131.134 E9.17818
G1 X111.141 Y131.472 E9.21534
G1 X110.193 Y131.853 E9.26134
G1 X109.708 Y132.028 E9.28455
G1 X108.992 Y132.259 E9.31842
G1 X108.275 Y132.461 E9.35196
G1 X107.786 Y132.586 E9.37468
G1 F3012.6 X106.832 Y132.937 E9.42937
G1 F2352.9 X106.903 Y132.966 E9.43465
G1 F2396 X107.371 Y133.033 E9.46663
G1 F3083.5 X107.84 Y133.1 E9.49153
G1 F3600 X113.984 Y133.101 E9.76814
G1 X114.649 Y133.135 E9.79812
G1 X115.349 Y133.225 E9.8299
G1 X115.903 Y133.333 E9.85531
G1 X116.45 Y133.471 E9.8807
G1 X116.81 Y133.583 E9.89768
G1 X117.245 Y133.734 E9.91841
G1 X117.902 Y134.012 E9.95053
G1 X118.393 Y134.252 E9.97513
G1 X118.804 Y134.486 E9.99642
G1 X119.443 Y134.9 E10.0307
G1 X119.77 Y135.141 E10.04899
G1 X120.284 Y135.565 E10.07899
G1 X120.684 Y135.94 E10.10367
G1 X120.95 Y136.21 E10.12074
G1 X121.278 Y136.582 E10.14306
G1 X121.564 Y136.94 E10.16369
G0 F9000 X119.692 Y135.286
G0 X118.317 Y134.396
G0 X116.723 Y133.723
G0 X115.294 Y133.381
G0 X114.918 Y133.348
G0 X106.849 Y132.944
G1 F2264.2 X105.921 Y133.021 E10.23035
G1 F2868.5 X104.933 Y133.078 E10.28627
G1 F3404.3 X104.449 Y133.1 E10.30933
G1 F3779.5 X103.52 Y133.12 E10.34918
G1 F4044.9 X102.836 Y133.124 E10.37659
G1 F3759.8 X101.392 Y133.094 E10.43885
G1 F3025.2 X100.238 Y133.032 E10.50076
G1 F2356.8 X99.292 Y132.957 E10.56602
G1 F2349.1 X98.959 Y132.82 E10.59087
G1 F3057.3 X98.626 Y132.682 E10.60998
G1 F3600 X97.666 Y132.449 E10.65445
G1 X96.697 Y132.164 E10.69992
G1 X95.939 Y131.905 E10.73599
G1 X95.235 Y131.633 E10.76997
G1 X94.645 Y131.389 E10.79871
G1 X93.384 Y130.779 E10.86177
G1 X92.458 Y130.26 E10.90957
G1 X91.968 Y129.958 E10.93548
G1 X91.32 Y129.531 E10.97042
G1 X90.895 Y129.231 E10.99384
G1 X90.463 Y128.909 E11.0181
G1 X89.709 Y128.305 E11.06159
G1 X88.971 Y127.658 E11.10578
G1 X88.261 Y126.968 E11.15035
G1 X87.888 Y126.577 E11.17468
G1 X87.362 Y125.991 E11.21013
G1 X86.857 Y125.382 E11.24575
G1 X86.512 Y124.941 E11.27095
G1 X86.05 Y124.299 E11.30656
G1 X85.604 Y123.635 E11.34258
G1 X85.066 Y122.745 E11.3894
G1 X84.684 Y122.045 E11.4253
G1 X84.346 Y121.363 E11.45957
G1 X84.016 Y120.637 E11.49547
G1 X83.651 Y119.729 E11.53953
G1 X83.468 Y119.21 E11.5643
G1 X83.238 Y118.501 E11.59786
G1 X83.03 Y117.773 E11.63195
G1 X82.905 Y117.276 E11.65502
G1 X82.706 Y116.337 E11.69823
G1 X82.553 Y115.403 E11.74084
G1 X82.434 Y114.413 E11.78573
G1 X82.37 Y113.537 E11.82528
G1 X82.348 Y112.804 E11.85829
G1 X82.348 Y112.121 E11.88904
G1 X82.361 Y111.643 E11.91057
G1 X82.404 Y110.895 E11.9443
G1 X82.467 Y110.252 E11.97339
G1 X82.528 Y109.749 E11.9962
G1 X82.678 Y108.822 E12.03848
G1 X82.82 Y108.09 E12.07205
G1 X83.044 Y107.174 E12.1145
G1 X83.342 Y106.157 E12.16221
G1 X83.585 Y105.455 E12.19566
G1 X83.861 Y104.733 E12.23046
G1 X84.103 Y104.158 E12.25854
G1 X84.275 Y103.785 E12.27704
G1 X84.736 Y102.851 E12.32393
G1 X84.98 Y102.402 E12.34693
G1 X85.244 Y101.942 E12.37081
G1 X85.523 Y101.491 E12.39469
G1 X85.961 Y100.824 E12.43061
G1 X86.245 Y100.42 E12.45285
G1 X86.586 Y99.963 E12.47852
G1 X87.158 Y99.247 E12.51977
G1 X87.834 Y98.475 E12.56597
G1 X88.52 Y97.769 E12.61029
G1 X88.915 Y97.392 E12.63487
G1 X89.505 Y96.862 E12.67058
G1 X90.119 Y96.353 E12.70649
G1 X90.551 Y96.019 E12.73107
G1 X91.182 Y95.56 E12.7662
G1 X91.634 Y95.254 E12.79077
G1 X92.309 Y94.829 E12.82668
G1 X93.174 Y94.332 E12.8716
G1 X93.906 Y93.955 E12.90867
G1 X94.846 Y93.524 E12.95522
G1 X95.763 Y93.155 E12.99972
G1 X96.284 Y92.968 E13.02465
G1 X96.964 Y92.748 E13.05682
G1 X97.972 Y92.47 E13.1039
G1 F3664.1 X98.846 Y92.272 E13.14354
G1 F3829.8 X99.099 Y92.239 E13.15433
G1 F3636.4 X99.161 Y92.193 E13.15778
G1 F2642.2 X99.457 Y92.027 E13.17859
G1 F2807 X99.058 Y91.879 E13.20316
G1 F3829.8 X98.802 Y91.89 E13.21401
G1 F3664.1 X97.855 Y91.897 E13.2559
G1 F3600 X93.761 Y91.895 E13.44021
G1 X93.263 Y91.862 E13.46268
G1 X92.752 Y91.786 E13.48594
G1 X92.255 Y91.658 E13.50905
G1 X91.936 Y91.553 E13.52417
G1 X91.399 Y91.328 E13.55038
G1 X90.985 Y91.114 E13.57136
G1 X90.608 Y90.877 E13.59141
G1 X90.244 Y90.603 E13.61192
G1 X89.945 Y90.344 E13.62973
G1 X89.746 Y90.152 E13.64218
G1 X88.641 Y90.009 E13.69234
G1 X87.664 Y89.904 E13.73658
G1 X86.522 Y89.806 E13.78818
G1 X84.57 Y89.703 E13.87619
G1 X83.749 Y89.684 E13.91316
G1 X82.585 Y89.681 E13.96556
G1 X82.51 Y89.807 E13.97217
G1 X82.469 Y90.008 E13.9814
G1 X82.468 Y103.638 E14.59504
G1 X82.384 Y104.098 E14.61609
G1 X82.082 Y104.687 E14.64589
G1 X81.872 Y104.912 E14.65974
G1 X81.528 Y105.192 E14.67971
G1 X81.216 Y105.364 E14.69575
G1 X80.668 Y105.494 E14.72111
G1 X77.878 Y105.5 E14.84672
G1 X77.657 Y105.595 E14.85755
G1 X77.653 Y119.411 E15.47956
G1 X77.873 Y119.496 E15.49017
G1 X80.653 Y119.5 E15.61533
G1 X81.061 Y119.592 E15.63416
G1 X81.595 Y119.834 E15.66056
G1 X81.997 Y120.204 E15.68515
G1 X82.217 Y120.465 E15.70052
G1 X82.468 Y121.264 E15.73823
G1 X82.468 Y135.038 E16.35835
G1 X82.567 Y135.285 E16.37033
G1 X82.628 Y135.316 E16.37341
G1 X83.516 Y135.316 E16.41338
G1 X84.505 Y135.296 E16.45792
G1 X85.62 Y135.247 E16.50817
G1 X86.492 Y135.189 E16.54751
G1 X87.584 Y135.1 E16.59684
G1 X88.55 Y134.997 E16.64057
G1 X89.729 Y134.842 E16.69411
G1 X90.336 Y134.314 E16.73033
G1 X90.681 Y134.074 E16.74925
G1 X91.067 Y133.839 E16.7696
G1 X91.399 Y133.668 E16.78641
G1 X91.685 Y133.538 E16.80055
G1 X92.145 Y133.366 E16.82266
G1 X92.815 Y133.202 E16.85372
G1 X93.143 Y133.148 E16.86868
G1 X93.515 Y133.112 E16.88551
G1 X93.884 Y133.1 E16.90213
G1 X98.586 Y133.1 E17.11382
G1 F3057.3 X98.939 Y133.029 E17.13291
G1 F2349.1 X99.292 Y132.957 E17.15776
G0 F9000 X114.586 Y133.294
G0 X115.842 Y133.485
G0 X117.158 Y133.873
G0 X118.681 Y134.6
G0 X119.692 Y135.286
G0 X120.325 Y135.858
G0 X121.509 Y137.05
G0 X121.368 Y137.34
G1 F3600 X128.493 Y137.336 E17.47854
G1 X128.345 Y137.036 E17.4936
G1 X128.219 Y136.704 E17.50959
G1 X128.103 Y136.237 E17.53125
G1 X128.036 Y135.654 E17.55767
G1 X128.091 Y135.018 E17.58641
G1 X128.19 Y134.61 E17.60531
G1 X128.278 Y134.346 E17.61784
G1 X128.469 Y133.903 E17.63956
G1 X128.695 Y133.546 E17.65858
G1 X128.935 Y133.243 E17.67598
G1 X129.277 Y132.887 E17.69821
G1 X129.69 Y132.587 E17.72119
G1 X130.133 Y132.325 E17.74436
G1 X130.676 Y132.137 E17.77023
G1 X131.005 Y132.065 E17.78539
G1 X131.412 Y132.009 E17.80389
G1 X131.844 Y132.014 E17.82334
G1 X132.339 Y132.064 E17.84574
G1 X132.835 Y132.208 E17.86899
G1 X133.144 Y132.332 E17.88398
G1 X133.428 Y132.476 E17.89832
G1 X133.883 Y132.767 E17.92263
G1 X134.375 Y133.241 E17.95339
G1 X134.689 Y133.677 E17.97758
G1 X134.852 Y133.964 E17.99244
G1 X134.984 Y134.246 E18.00646
G1 X135.116 Y134.64 E18.02516
G1 X135.194 Y134.973 E18.04056
G1 X135.237 Y135.293 E18.0551
G1 X135.241 Y135.806 E18.07819
G1 X135.186 Y136.272 E18.09932
G1 X135.109 Y136.601 E18.11453
G1 X134.987 Y136.952 E18.13126
G1 X134.835 Y137.288 E18.14786
G1 X134.551 Y137.732 E18.17159
G1 X134.286 Y138.074 E18.19107
G1 X133.944 Y138.38 E18.21173
G1 X133.577 Y138.651 E18.23227
G1 X133.321 Y138.794 E18.24547
G1 X134.51 Y138.808 E18.29901
G1 X136.81 Y138.788 E18.40256
G1 X138.745 Y138.726 E18.48972
G1 X139.375 Y138.693 E18.51812
G1 X140.385 Y138.611 E18.56374
G1 X140.774 Y138.561 E18.5814
G1 X141.035 Y138.497 E18.5935
G1 X141.428 Y138.272 E18.61388
G1 X141.704 Y138.057 E18.62964
G1 X141.977 Y137.808 E18.64627
G1 X142.309 Y137.394 E18.67016
