;FLAVOR:Marlin
;TIME:7800
;Filament used: 9.98935m
;Layer height: 0.2
;MINX:53.8
;MINY:46.3
;MINZ:0.3
;MAXX:166.2
;MAXY:158.7
;MAXZ:17.7
;TARGET_MACHINE.NAME:Anet ET4 Pro
;POSTPROCESSED
;  [CreateThumbnail]
;Generated with Cura_SteamEngine 5.7.0
;
;

M82 ;absolute extrusion mode
M104 S250.0  ; Start heating up the nozzle most of the way
M190 S100.0 ; Start heating the bed, wait until target temperature reached
M109 S250.0 ; Finish heating the nozzle
G92 E0 ; Reset Extruder
G28 ; Home all axes
G1 Z2.0 F3000 ; Move Z Axis up little to prevent scratching of Heat Bed
G1 X1 Y20 Z0.3 F5000.0 ; Move to start position
G1 X1 Y200.0 Z0.3 F1500.0 E15 ; Draw the first line
G1 X1.5 Y200.0 Z0.3 F5000.0 ; Move to side a little
G1 X1.5 Y20 Z0.3 F1500.0 E30 ; Draw the second line
G92 E0
G1 Z2.0 F3000
G1 X5 Y20 Z0.3 F5000.0
M141 S36
G92 E0
G92 E0
G1 F2400 E-4
;LAYER_COUNT:84
;LAYER:0
M107
M204 S2500
G1 F300 Z1.1
G0 F6000 X55.059 Y48.102 Z1.1
;TYPE:SKIRT
G1 F300 Z0.3
G1 F2400 E0
G1 X55.387 Y47.773 E0.02026
G1 X55.716 Y47.487 E0.03927
G1 X56.147 Y47.16 E0.06287
G1 X56.623 Y46.891 E0.08672
G1 X56.905 Y46.756 E0.10035
G1 X57.427 Y46.56 E0.12467
G1 X57.9 Y46.428 E0.14609
G1 X58.396 Y46.331 E0.16813
G1 X58.692 Y46.311 E0.18107
G1 X59.23 Y46.3 E0.20454
G1 X160.499 Y46.306 E4.62129
G1 X161.201 Y46.316 E4.65191
G1 X161.698 Y46.362 E4.67368
G1 X162.058 Y46.424 E4.68961
G1 X162.561 Y46.554 E4.71227
G1 X162.879 Y46.664 E4.72694
G1 X163.528 Y46.974 E4.75831
G1 X163.925 Y47.222 E4.77873
G1 X164.453 Y47.634 E4.80794
G1 X164.746 Y47.917 E4.8257
G1 X165.144 Y48.383 E4.85243
G1 X165.329 Y48.647 E4.86649
G1 X165.63 Y49.178 E4.89311
G1 X165.827 Y49.619 E4.91418
G1 X166.033 Y50.248 E4.94304
G1 X166.108 Y50.595 E4.95853
G1 X166.179 Y51.21 E4.98553
G1 X166.199 Y52.261 E5.03137
G1 X166.2 Y152.878 E9.41969
G1 X166.19 Y153.584 E9.45048
G1 X166.164 Y153.946 E9.46631
G1 X166.11 Y154.367 E9.48482
G1 X165.994 Y154.902 E9.5087
G1 X165.885 Y155.256 E9.52485
G1 X165.699 Y155.726 E9.5469
G1 X165.557 Y155.983 E9.5597
G1 X165.332 Y156.351 E9.57851
G1 X165.002 Y156.799 E9.60278
G1 X164.703 Y157.138 E9.6225
G1 X164.34 Y157.489 E9.64452
G1 X164.04 Y157.708 E9.66072
G1 X163.61 Y157.986 E9.68305
G1 X163.165 Y158.226 E9.7051
G1 X162.889 Y158.333 E9.71801
G1 X162.489 Y158.467 E9.73641
G1 X162.026 Y158.585 E9.75725
G1 X161.718 Y158.639 E9.77089
G1 X161.231 Y158.686 E9.79223
G1 X160.583 Y158.699 E9.82049
G1 X59.684 Y158.7 E14.2211
G1 X58.76 Y158.679 E14.26141
G1 X58.254 Y158.636 E14.28356
G1 X57.755 Y158.553 E14.30563
G1 X57.364 Y158.429 E14.32352
G1 X56.925 Y158.258 E14.34406
G1 X56.327 Y157.949 E14.37342
G1 X56.049 Y157.766 E14.38794
G1 X55.618 Y157.427 E14.41185
G1 X55.294 Y157.123 E14.43123
G1 X54.836 Y156.586 E14.46201
G1 X54.595 Y156.231 E14.48072
G1 X54.269 Y155.645 E14.50997
G1 X54.07 Y155.094 E14.53552
G1 X53.973 Y154.751 E14.55107
G1 X53.877 Y154.282 E14.57195
G1 X53.835 Y153.95 E14.58654
G1 X53.81 Y153.598 E14.60193
G1 X53.801 Y152.97 E14.62933
G1 X53.8 Y51.982 E19.03382
G1 X53.809 Y51.329 E19.0623
G1 X53.866 Y50.769 E19.08685
G1 X53.939 Y50.389 E19.10373
G1 X54.101 Y49.829 E19.12915
G1 X54.26 Y49.422 E19.14821
G1 X54.516 Y48.909 E19.17321
G1 X54.761 Y48.511 E19.1936
G1 X55.059 Y48.102 E19.21567
G1 F2400 E15.21567
G1 F300 Z1.1
;MESH:cover3.STL
G0 F6000 X96.142 Y126.594 Z1.1
;TYPE:WALL-OUTER
G1 F300 Z0.3
G1 F2400 E19.21567
G1 F1893.5 X96.575 Y125.986 E19.25693
G1 F1889.8 X97.199 Y125.986 E19.2915
G1 F1893.5 X96.765 Y126.594 E19.33279
G1 X96.142 Y126.594 E19.36723
G0 F6000 X96.342 Y126.594
G1 F2400 E15.36723
G1 F300 Z1.1
G0 F6000 X94.473 Y128.988 Z1.1
G1 F300 Z0.3
G1 F2400 E19.36723
G1 F1846.2 X95.112 Y128.067 E19.43079
G1 F1849.7 X95.738 Y128.067 E19.46621
G1 F1846.2 X95.11 Y128.988 E19.52942
G1 F1842.6 X94.473 Y128.988 E19.5656
G0 F6000 X94.673 Y128.988
G1 F2400 E15.5656
G1 F300 Z1.1
G0 F6000 X91.61 Y127.611 Z1.1
;TYPE:WALL-INNER
G1 F300 Z0.3
G1 F2400 E19.5656
G1 F2681.6 X91.588 Y127.649 E19.56732
G1 X91.522 Y127.611 E19.57029
G1 X91.587 Y127.573 E19.57323
G0 F6000 X93.423 Y125.509
G1 F2008.4 X93.597 Y125.273 E19.58851
G1 F2400 E15.58851
G1 F300 Z1.1
G0 F6000 X94.264 Y123.929 Z1.1
G0 X88.852 Y126.313
G1 F300 Z0.3
G1 F2400 E19.58851
G1 F2774.6 X88.83 Y126.35 E19.59013
G1 X88.766 Y126.313 E19.59292
G1 X88.83 Y126.276 E19.59571
G1 F2400 E15.59571
G1 F300 Z1.1
G0 F6000 X87.185 Y128.41 Z1.1
G1 F300 Z0.3
G1 F2400 E19.59571
G1 F2025.3 X87.127 Y128.41 E19.59871
G1 X87.097 Y128.461 E19.60177
G1 X87.127 Y128.512 E19.60482
G1 X87.185 Y128.512 E19.60782
G1 X87.215 Y128.461 E19.61088
G1 F2400 E15.61088
G1 F300 Z1.1
G0 F6000 X84.553 Y127.347 Z1.1
G1 F300 Z0.3
G1 F2400 E19.61088
G1 F2133.3 X84.525 Y127.395 E19.61361
G1 X84.47 Y127.395 E19.61631
G1 X84.441 Y127.347 E19.61906
G1 X84.469 Y127.299 E19.62178
G1 X84.524 Y127.299 E19.62448
G0 F6000 X84.82 Y127.529
G0 X85.437 Y127.771
G1 F2400 X85.156 Y127.564 E19.6397
G1 X84.9 Y127.239 E19.65775
G1 X84.848 Y126.941 E19.67094
G1 F1761.5 X84.782 Y126.431 E19.7015
G1 F1714.3 X84.44 Y126.675 E19.72715
G1 F2313.3 X84.049 Y127.252 E19.75869
G1 F1811.3 X83.74 Y127.934 E19.80196
G1 X84.324 Y127.772 E19.83698
G1 F2400 X85.437 Y127.771 E19.88553
G0 F6000 X84.82 Y127.529
G0 X84.627 Y126.81
G0 X84.782 Y126.431
G1 F1437.1 X84.954 Y126.137 E19.91033
G1 F1467.9 X85.484 Y125.37 E19.97682
G0 F6000 X85.91 Y124.664
G0 X86.594 Y124.224
G0 X87.026 Y124.057
G0 X87.536 Y123.956
G0 X99.771 Y123.948
G0 X100.384 Y124.09
G0 X100.915 Y124.48
G0 X101.219 Y125.169
G0 X101.035 Y125.793
G0 X98.083 Y130.057
G0 X97.627 Y130.413
G0 X96.282 Y131.134
G1 F2400 X95.718 Y131.227 E20.00175
G1 X91.045 Y131.223 E20.20555
G1 X90.802 Y131.155 E20.21656
G1 X90.601 Y131.049 E20.22647
G1 X90.332 Y130.794 E20.24264
G1 X90.136 Y130.383 E20.2625
G1 X89.604 Y130.763 E20.29101
G1 X89.157 Y130.991 E20.31289
G1 X88.721 Y131.133 E20.33289
G1 X88.196 Y131.223 E20.35612
G1 X83.969 Y131.218 E20.54048
G1 X83.518 Y131.138 E20.56046
G1 X83.303 Y131.052 E20.57056
G1 X82.884 Y130.793 E20.59204
G1 X82.68 Y130.54 E20.60622
G1 X82.493 Y130.139 E20.62551
G1 X82.242 Y130.393 E20.64109
G1 X81.741 Y130.741 E20.66769
G1 X81.399 Y130.929 E20.68471
G1 X81.015 Y131.084 E20.70277
G1 X80.463 Y131.208 E20.72745
G1 X75.803 Y131.227 E20.93069
G1 X75.501 Y131.168 E20.94411
G1 X75.102 Y130.955 E20.96384
G1 X74.836 Y130.692 E20.98015
G1 X74.554 Y130.169 E21.00607
G1 X74.52 Y129.823 E21.02123
G1 X74.593 Y129.222 E21.04764
G1 X74.838 Y128.725 E21.0718
G1 X77.56 Y124.749 E21.28196
G1 X78.139 Y124.335 E21.313
G1 X78.48 Y124.15 E21.32992
G1 X78.85 Y124 E21.34733
G1 X79.242 Y123.898 E21.365
G1 X79.699 Y123.823 E21.3852
G1 X80.237 Y123.789 E21.40871
G1 X80.998 Y123.783 E21.4419
G1 X81.372 Y123.895 E21.45893
G1 X81.768 Y124.285 E21.48317
G1 X82.164 Y123.895 E21.50741
G1 X82.535 Y123.784 E21.5243
G1 X84.853 Y123.786 E21.6254
G1 X85.075 Y123.825 E21.63523
G1 X85.32 Y123.936 E21.64696
G1 X85.604 Y124.205 E21.66402
G1 X85.807 Y124.568 E21.68216
G1 X86.033 Y124.359 E21.69558
G1 X86.53 Y124.079 E21.72046
G1 X86.954 Y123.911 E21.74035
G1 X87.557 Y123.793 E21.76715
G1 X93.061 Y123.794 E22.0072
G1 X93.427 Y123.89 E22.02371
G1 X93.766 Y124.216 E22.04422
G1 X93.804 Y124.29 E22.04785
G1 X94.159 Y123.945 E22.06944
G1 X94.317 Y123.861 E22.07724
G1 X94.622 Y123.787 E22.09093
G1 X99.781 Y123.784 E22.31593
G1 X100.356 Y123.917 E22.34167
G1 X100.586 Y124.037 E22.35299
G1 X100.919 Y124.28 E22.37097
G1 X101.065 Y124.457 E22.38097
G1 X101.244 Y124.821 E22.39867
G1 X101.314 Y125.051 E22.40915
G1 X101.314 Y125.396 E22.4242
G1 X101.224 Y125.713 E22.43857
G1 X101.084 Y125.999 E22.45246
G1 X99.872 Y127.708 E22.54384
G1 X99.527 Y128.045 E22.56487
G1 X99.416 Y128.373 E22.57997
G1 X98.186 Y130.177 E22.6752
G1 X97.595 Y130.638 E22.70789
G1 X96.955 Y130.931 E22.73859
G1 X96.649 Y131.038 E22.75273
G1 X96.282 Y131.134 E22.76927
G0 F6000 X104.738 Y132.998
G1 F2400 X104.154 Y132.827 E22.79581
G1 X103.899 Y132.688 E22.80848
G1 X103.443 Y132.276 E22.83528
G1 X103.121 Y131.719 E22.86334
G1 X103.004 Y131.211 E22.88608
G1 X103 Y123.691 E23.21406
G1 X103.18 Y123.156 E23.23867
G1 X103.353 Y122.843 E23.25427
G1 X103.717 Y122.456 E23.27744
G1 X104.163 Y122.168 E23.3006
G1 X104.825 Y122.003 E23.33035
G1 X119.172 Y122.002 E23.95608
G1 X119.714 Y122.123 E23.98031
G1 X120.229 Y122.408 E24.00598
G1 X120.604 Y122.789 E24.02929
G1 X120.844 Y123.217 E24.05069
G1 X120.989 Y123.746 E24.07462
G1 X120.997 Y131.237 E24.40133
G1 X120.952 Y131.457 E24.41112
G1 X120.732 Y132.012 E24.43716
G1 X120.457 Y132.367 E24.45675
G1 X120.08 Y132.69 E24.4784
G1 X119.636 Y132.901 E24.49984
G1 X119.142 Y132.996 E24.52178
G1 X104.738 Y132.998 E25.14999
G0 F6000 X104.792 Y132.599
G1 F2400 X104.195 Y132.424 E25.17713
G1 X103.765 Y132.03 E25.20256
G1 X103.496 Y131.57 E25.2258
G1 X103.407 Y131.169 E25.24372
G1 X103.4 Y123.778 E25.56607
G1 X103.559 Y123.284 E25.5887
G1 X103.663 Y123.096 E25.59808
G1 X104.001 Y122.747 E25.61926
G1 X104.32 Y122.538 E25.6359
G1 X104.866 Y122.401 E25.66045
G1 X119.132 Y122.405 E26.28265
G1 X119.562 Y122.498 E26.30183
G1 X119.979 Y122.733 E26.32271
G1 X120.28 Y123.028 E26.34109
G1 X120.466 Y123.352 E26.35739
G1 X120.592 Y123.81 E26.3781
G1 X120.6 Y131.261 E26.70307
G1 X120.379 Y131.817 E26.72917
G1 X120.192 Y132.064 E26.74268
G1 X119.855 Y132.356 E26.76213
G1 X119.505 Y132.521 E26.779
G1 X119.128 Y132.592 E26.79573
G1 X104.792 Y132.599 E27.42098
G0 F6000 X104.707 Y132.887
G0 X83.622 Y130.591
G0 X83.199 Y130.332
G0 X83.004 Y129.899
G0 X83.034 Y129.524
G0 X84.163 Y127.526
G0 X83.74 Y127.934
G1 F1516.6 X82.954 Y129.045 E27.51491
G1 F1561 X82.873 Y129.18 E27.52547
G0 F6000 X82.624 Y129.739
G0 X85.509 Y124.815
G0 X85.265 Y124.353
G0 X82.43 Y124.352
G0 X79.188 Y128.751
G1 F1897.2 X81.568 Y125.229 E27.75999
G0 F6000 X81.869 Y124.437
G0 X82.218 Y123.952
G0 X99.771 Y123.948
G0 X100.384 Y124.09
G0 X100.915 Y124.48
G0 X101.219 Y125.169
G0 X101.035 Y125.793
G0 X98.083 Y130.057
G0 X97.627 Y130.413
G0 X96.293 Y131.03
G0 X96.216 Y130.739
G1 F2400 X95.695 Y130.828 E27.78304
G1 X91.095 Y130.825 E27.98367
G1 X90.828 Y130.719 E27.9962
G1 X90.691 Y130.589 E28.00444
G1 X90.513 Y130.27 E28.02037
G1 F2412.1 X90.478 Y130.02 E28.03132
G1 F2461.5 X90.539 Y129.796 E28.04119
G1 F2526.3 X91.287 Y128.703 E28.09607
G1 F2455.2 X91.502 Y128.365 E28.11315
G1 F2539.7 X93.06 Y126.154 E28.22463
G1 F2296.7 X93.423 Y125.509 E28.25836
G1 X92.788 Y125.934 E28.29318
G1 F2727.3 X92.465 Y126.392 E28.31469
G1 F2651.9 X92.028 Y126.985 E28.34377
G1 F2493.5 X91.564 Y127.232 E28.36584
G1 F2400 X90.955 Y127.233 E28.3924
G1 X91.105 Y127.429 E28.40316
G1 X91.222 Y127.75 E28.41806
G1 F2382.1 X91.154 Y128.161 E28.43637
G1 F2455.2 X90.965 Y128.515 E28.45348
G1 F2474.2 X89.985 Y129.932 E28.52636
G1 F2400 X89.743 Y130.174 E28.54129
G1 X89.428 Y130.398 E28.55815
G1 X89.044 Y130.6 E28.57707
G1 X88.681 Y130.729 E28.59387
G1 X88.208 Y130.82 E28.61488
G1 X83.999 Y130.819 E28.79845
G1 X83.561 Y130.741 E28.81786
G1 X83.145 Y130.486 E28.83914
G1 X83.024 Y130.335 E28.84758
G1 X82.851 Y129.958 E28.86567
G1 F1875 X82.873 Y129.18 E28.90912
G1 X82.546 Y129.463 E28.93326
G1 F2400 X82.316 Y129.747 E28.9492
G1 X82.005 Y130.064 E28.96857
G1 X81.601 Y130.357 E28.99033
G1 X81.232 Y130.565 E29.00881
G1 X80.861 Y130.714 E29.02624
G1 X80.41 Y130.807 E29.04633
G1 X75.827 Y130.827 E29.24621
G1 X75.673 Y130.797 E29.25305
G1 X75.324 Y130.629 E29.26995
G1 X75.171 Y130.486 E29.27908
G1 X74.98 Y130.124 E29.29693
G1 X74.915 Y129.857 E29.30892
G1 X74.981 Y129.345 E29.33143
G1 X75.188 Y128.924 E29.35189
G1 X77.846 Y125.038 E29.55723
G1 X78.31 Y124.699 E29.58229
G1 X78.632 Y124.52 E29.59836
G1 X78.979 Y124.379 E29.6147
G1 X79.396 Y124.274 E29.63345
G1 X79.819 Y124.212 E29.6521
G1 X80.259 Y124.188 E29.67132
G1 X80.967 Y124.19 E29.7022
G1 X81.206 Y124.282 E29.71337
G1 X81.373 Y124.447 E29.7236
G1 X81.501 Y124.682 E29.73528
G1 F2096.1 X81.568 Y125.229 E29.7628
G1 X81.984 Y124.71 E29.79601
G1 F2400 X82.163 Y124.447 E29.80989
G1 X82.33 Y124.282 E29.82013
G1 X82.612 Y124.185 E29.83313
G1 X84.827 Y124.185 E29.92974
G1 X85.008 Y124.225 E29.93782
G1 X85.238 Y124.363 E29.94952
G1 X85.412 Y124.682 E29.96537
G1 X85.478 Y124.902 E29.97539
G1 F1807.9 X85.484 Y125.37 E30.00248
G1 F1784.4 X85.798 Y125.135 E30.02549
G1 F2358.7 X86.241 Y124.708 E30.0528
G1 F2400 X86.7 Y124.441 E30.07596
G1 X87.076 Y124.292 E30.09359
G1 X87.528 Y124.198 E30.11373
G1 X93.017 Y124.188 E30.35313
G1 X93.269 Y124.283 E30.36487
G1 X93.437 Y124.445 E30.37505
G1 X93.588 Y124.812 E30.39236
G1 F2206.9 X93.597 Y125.273 E30.41423
G1 X93.923 Y124.857 E30.4393
G1 F2400 X94.209 Y124.443 E30.46124
G1 X94.377 Y124.28 E30.47145
G1 X94.655 Y124.185 E30.48427
G1 X99.739 Y124.187 E30.706
G1 X100.297 Y124.321 E30.73103
G1 X100.703 Y124.617 E30.75294
G1 X100.92 Y125.07 E30.77485
G1 X100.92 Y125.328 E30.7861
G1 X100.816 Y125.685 E30.80232
G1 X99.563 Y127.453 E30.89683
G1 X99.306 Y127.698 E30.91232
G1 X99.157 Y127.794 E30.92005
G1 X99.157 Y127.877 E30.92367
G1 X99.062 Y128.183 E30.93764
G1 X97.91 Y129.881 E31.02713
G1 X97.386 Y130.294 E31.05623
G1 X96.846 Y130.545 E31.0822
G1 X96.55 Y130.65 E31.0959
G1 X96.216 Y130.739 E31.11098
G1 F2400 E27.11098
G0 F6000 X96.293 Y131.03
G0 X69.191 Y145.634
G1 F2400 E31.11098
G1 X68.568 Y145.953 E31.1415
G1 X67.882 Y146.131 E31.17241
G1 X67.186 Y146.137 E31.20277
G1 X66.728 Y146.044 E31.22315
G1 X66.138 Y145.817 E31.25072
G1 X65.677 Y145.513 E31.27481
G1 X65.194 Y145.055 E31.30384
G1 X64.808 Y144.335 E31.33947
G1 X64.669 Y143.921 E31.35851
G1 X64.593 Y143.328 E31.38459
G1 X64.635 Y142.671 E31.4133
G1 X64.922 Y141.873 E31.45029
G1 X65.295 Y141.356 E31.47809
G1 X65.674 Y140.99 E31.50107
G1 X66.089 Y140.711 E31.52288
G1 X66.692 Y140.457 E31.55142
G1 X67.393 Y140.342 E31.5824
G1 X67.96 Y140.38 E31.60719
G1 X68.419 Y140.5 E31.62788
G1 X68.988 Y140.754 E31.65505
G1 X69.522 Y141.142 E31.68384
G1 X69.981 Y141.718 E31.71596
G1 X70.284 Y142.376 E31.74756
G1 X70.424 Y143.156 E31.78212
G1 X70.302 Y144.082 E31.82286
G1 X69.984 Y144.746 E31.85497
G1 X69.637 Y145.213 E31.88034
G1 X69.191 Y145.634 E31.90709
G0 F6000 X68.957 Y145.297
G1 F2400 X68.434 Y145.574 E31.9329
G1 X67.835 Y145.732 E31.95992
G1 X67.236 Y145.735 E31.98605
G1 X66.892 Y145.675 E32.00128
G1 X66.353 Y145.472 E32.0264
G1 X65.907 Y145.179 E32.04967
G1 X65.513 Y144.801 E32.07348
G1 X65.186 Y144.202 E32.10325
G1 X65.056 Y143.796 E32.12184
G1 X64.996 Y143.28 E32.1445
G1 X65.037 Y142.751 E32.16764
G1 X65.285 Y142.063 E32.19953
G1 X65.59 Y141.627 E32.22274
G1 X65.922 Y141.305 E32.24291
G1 X66.279 Y141.063 E32.26172
G1 X66.833 Y140.837 E32.28782
G1 X67.407 Y140.744 E32.31318
G1 X67.923 Y140.782 E32.33574
G1 X68.287 Y140.877 E32.35215
G1 X68.785 Y141.101 E32.37597
G1 X69.24 Y141.438 E32.40066
G1 X69.637 Y141.927 E32.42813
G1 X69.9 Y142.497 E32.45551
G1 X70.018 Y143.16 E32.48488
G1 X69.914 Y143.977 E32.5208
G1 X69.642 Y144.539 E32.54803
G1 X69.334 Y144.95 E32.57043
G1 X68.957 Y145.297 E32.59278
G0 F6000 X69.165 Y145.521
G0 X62.374 Y154.081
G0 X62.197 Y153.839
G1 F2400 X61.74 Y154.171 E32.61742
G1 X61.369 Y154.347 E32.63533
G1 F2347.2 X60.905 Y154.477 E32.65682
G1 F2352.9 X60.425 Y154.503 E32.6782
G1 X59.815 Y154.439 E32.70549
G1 F2318.8 X59.143 Y154.118 E32.7391
G1 F2376.2 X58.674 Y153.712 E32.76643
G1 F2400 X58.433 Y153.406 E32.78342
G1 F2382.1 X58.158 Y152.926 E32.80772
G1 F2341.5 X58.017 Y152.369 E32.83341
G1 F2307.7 X58.004 Y151.565 E32.86988
G1 F2318.8 X58.239 Y150.883 E32.90245
G1 F2376.2 X58.648 Y150.296 E32.93396
G1 F2400 X59.035 Y149.969 E32.95606
G1 X59.422 Y149.739 E32.97569
G1 X60.04 Y149.514 E33.00438
G1 X60.698 Y149.503 E33.03308
G1 X61.093 Y149.57 E33.05055
G1 X61.791 Y149.829 E33.08302
G1 X62.273 Y150.232 E33.11042
G1 X62.522 Y150.531 E33.1274
G1 X62.747 Y150.903 E33.14636
G1 X62.919 Y151.378 E33.16839
G1 X63.003 Y151.908 E33.19179
G1 X62.967 Y152.471 E33.2164
G1 X62.918 Y152.673 E33.22546
G1 X62.597 Y153.406 E33.26036
G1 X62.197 Y153.839 E33.28607
G0 F6000 X62.374 Y154.081
G0 X62.8 Y153.538
G0 X63.197 Y152.631
G0 X63.241 Y151.902
G0 X63.168 Y151.356
G0 X62.978 Y150.822
G0 X62.722 Y150.393
G0 X62.437 Y150.058
G0 X61.91 Y149.619
G0 X61.157 Y149.336
G0 X60.706 Y149.266
G0 X60.002 Y149.277
G0 X59.32 Y149.523
