;FLAVOR:Marlin
;TIME:12725
;Filament used: 19.9559m
;Layer height: 0.25
;MINX:19.825
;MINY:11.025
;MINZ:0.3
;MAXX:200.22
;MAXY:193.922
;MAXZ:8.85
;TARGET_MACHINE.NAME:Anet ET4 Pro
;POSTPROCESSED
;  [CreateThumbnail]
;Generated with Cura_SteamEngine 5.7.0
;
;

M82 ;absolute extrusion mode
M104 S250.0  ; Start heating up the nozzle most of the way
M190 S95.0 ; Start heating the bed, wait until target temperature reached
M109 S250.0 ; Finish heating the nozzle
G92 E0 ; Reset Extruder
G28 ; Home all axes
G1 Z2.0 F3000 ; Move Z Axis up little to prevent scratching of Heat Bed
G1 X1 Y20 Z0.3 F5000.0 ; Move to start position
G1 X1 Y200.0 Z0.3 F1500.0 E15 ; Draw the first line
G1 X1.5 Y200.0 Z0.3 F5000.0 ; Move to side a little
G1 X1.5 Y20 Z0.3 F1500.0 E30 ; Draw the second line
G92 E0
G1 Z2.0 F3000
G1 X5 Y20 Z0.3 F5000.0
M141 S36
G92 E0
G92 E0
G1 F2400 E-4
;LAYER_COUNT:32
;LAYER:0
M107
M204 S2500
G1 F300 Z1.1
G0 F7800 X20.888 Y13.768 Z1.1
;TYPE:SKIRT
G1 F300 Z0.3
G1 F2400 E0
G1 X21.198 Y13.354 E0.02426
G1 X21.496 Y13.005 E0.04578
G1 X21.963 Y12.559 E0.07606
G1 X22.425 Y12.199 E0.10353
G1 X22.782 Y11.958 E0.12373
G1 X23.177 Y11.728 E0.14516
G1 X23.739 Y11.47 E0.17416
G1 X24.088 Y11.349 E0.19149
G1 X24.425 Y11.252 E0.20793
G1 X24.899 Y11.144 E0.23073
G1 X25.277 Y11.081 E0.2487
G1 X25.554 Y11.052 E0.26176
G1 X25.824 Y11.036 E0.27445
G1 X26.394 Y11.025 E0.30119
G1 X104.498 Y11.028 E3.96401
G1 X105.802 Y11.047 E4.02517
G1 X107.435 Y11.093 E4.10178
G1 X110.174 Y11.094 E4.23024
G1 X113.064 Y11.025 E4.36581
G1 X191.02 Y11.029 E8.02169
G1 X191.685 Y11.038 E8.05288
G1 X191.985 Y11.056 E8.06698
G1 X192.403 Y11.101 E8.08669
G1 X192.782 Y11.165 E8.10472
G1 X193.24 Y11.282 E8.12689
G1 X193.664 Y11.416 E8.14774
G1 X194.175 Y11.627 E8.17367
G1 X194.408 Y11.748 E8.18598
G1 X194.663 Y11.896 E8.19981
G1 X195.038 Y12.137 E8.22071
G1 X195.365 Y12.378 E8.23976
G1 X195.726 Y12.681 E8.26186
G1 X196.116 Y13.069 E8.28766
G1 X196.304 Y13.292 E8.30134
G1 X196.606 Y13.695 E8.32496
G1 X196.766 Y13.939 E8.33864
G1 X196.924 Y14.205 E8.35315
G1 X197.106 Y14.559 E8.37182
G1 X197.284 Y14.967 E8.39269
G1 X197.418 Y15.335 E8.41106
G1 X197.514 Y15.658 E8.42686
G1 X197.608 Y16.075 E8.44691
G1 X197.67 Y16.471 E8.46571
G1 X197.709 Y16.915 E8.48661
G1 X197.725 Y17.963 E8.53576
G1 X197.72 Y86.15 E11.73351
G1 X197.76 Y88.948 E11.86474
G1 X197.875 Y91.668 E11.99242
G1 X198.068 Y94.405 E12.12109
G1 X198.339 Y97.122 E12.24914
G1 X198.685 Y99.842 E12.37773
G1 X199.108 Y102.534 E12.50553
G1 X199.61 Y105.237 E12.63446
G1 X200.01 Y107.109 E12.72423
G1 X200.145 Y107.827 E12.75849
G1 X200.197 Y108.272 E12.7795
G1 X200.22 Y108.856 E12.80691
G1 X200.214 Y187.33 E16.48709
G1 X200.205 Y188.002 E16.51861
G1 X200.175 Y188.396 E16.53714
G1 X200.114 Y188.838 E16.55806
G1 X199.99 Y189.383 E16.58427
G1 X199.824 Y189.898 E16.60965
G1 X199.565 Y190.489 E16.63991
G1 X199.306 Y190.948 E16.66463
G1 X199.053 Y191.33 E16.68611
G1 X198.793 Y191.667 E16.70608
G1 X198.522 Y191.975 E16.72531
G1 X198.222 Y192.275 E16.74521
G1 X197.839 Y192.601 E16.7688
G1 X197.547 Y192.813 E16.78572
G1 X197.264 Y192.997 E16.80155
G1 X196.868 Y193.225 E16.82298
G1 X196.3 Y193.482 E16.85222
G1 X195.829 Y193.642 E16.87555
G1 X195.39 Y193.757 E16.89683
G1 X194.921 Y193.845 E16.91921
G1 X194.478 Y193.897 E16.94012
G1 X193.873 Y193.921 E16.96852
G1 X110.443 Y193.922 E20.88112
G1 X109.745 Y193.912 E20.91386
G1 X109.29 Y193.872 E20.93528
G1 X108.855 Y193.803 E20.95593
G1 X108.341 Y193.678 E20.98074
G1 X107.749 Y193.48 E21.01001
G1 X107.142 Y193.203 E21.0413
G1 X106.625 Y192.899 E21.06943
G1 X106.097 Y192.511 E21.10016
G1 X105.667 Y192.121 E21.12738
G1 X105.244 Y191.654 E21.15693
G1 X104.92 Y191.216 E21.18248
G1 X104.656 Y190.793 E21.20587
G1 X104.438 Y190.375 E21.22797
G1 X104.251 Y189.942 E21.25009
G1 X104.117 Y189.555 E21.2693
G1 X104.006 Y189.15 E21.28899
G1 X103.934 Y188.789 E21.30626
G1 X103.804 Y188.029 E21.34242
G1 X103.528 Y186.273 E21.42578
G1 X103.023 Y183.566 E21.55492
G1 X102.45 Y180.909 E21.68239
G1 X101.801 Y178.262 E21.8102
G1 X101.074 Y175.622 E21.93862
G1 X100.262 Y172.975 E22.06846
G1 X99.386 Y170.38 E22.19691
G1 X98.443 Y167.826 E22.32458
G1 X97.417 Y165.275 E22.45353
G1 X96.328 Y162.773 E22.5815
G1 X95.163 Y160.29 E22.71012
G1 X93.938 Y157.86 E22.83774
G1 X92.618 Y155.416 E22.96801
G1 X91.27 Y153.083 E23.09437
G1 X89.816 Y150.72 E23.22448
G1 X88.337 Y148.464 E23.35099
G1 X86.763 Y146.204 E23.48015
G1 X85.117 Y143.979 E23.60995
G1 X83.463 Y141.869 E23.73568
G1 X81.68 Y139.724 E23.86648
G1 X79.878 Y137.676 E23.99442
G1 X78.04 Y135.701 E24.12094
G1 X76.079 Y133.712 E24.25193
G1 X74.129 Y131.844 E24.37857
G1 X72.097 Y130.002 E24.50719
G1 X69.994 Y128.203 E24.63697
G1 X67.893 Y126.505 E24.76366
G1 X65.698 Y124.833 E24.89306
G1 X63.467 Y123.23 E25.02189
G1 X61.226 Y121.714 E25.14878
G1 X58.909 Y120.241 E25.27754
G1 X56.549 Y118.833 E25.40642
G1 X54.155 Y117.494 E25.53505
G1 X51.753 Y116.239 E25.66215
G1 X49.275 Y115.031 E25.79143
G1 X46.775 Y113.901 E25.92009
G1 X44.232 Y112.835 E26.04941
G1 X41.692 Y111.855 E26.17708
G1 X39.129 Y110.949 E26.30457
G1 X36.491 Y110.099 E26.43455
G1 X33.885 Y109.339 E26.56185
G1 X31.256 Y108.654 E26.68926
G1 X28.577 Y108.034 E26.81822
G1 X24.703 Y107.278 E27.00332
G1 X24.312 Y107.175 E27.02228
G1 X23.849 Y107.022 E27.04515
G1 X23.353 Y106.811 E27.07043
G1 X22.995 Y106.621 E27.08944
G1 X22.706 Y106.447 E27.10526
G1 X22.39 Y106.234 E27.12313
G1 X21.982 Y105.908 E27.14762
G1 X21.536 Y105.487 E27.17638
G1 X21.121 Y105.009 E27.20607
G1 X20.92 Y104.725 E27.22239
G1 X20.765 Y104.483 E27.23586
G1 X20.528 Y104.075 E27.25799
G1 X20.278 Y103.535 E27.2859
G1 X20.186 Y103.275 E27.29883
G1 X20.101 Y102.996 E27.31251
G1 X19.958 Y102.433 E27.33975
G1 X19.865 Y101.817 E27.36897
G1 X19.831 Y101.147 E27.40043
G1 X19.825 Y100.627 E27.42482
G1 X19.831 Y17.702 E31.31373
G1 X19.839 Y17.109 E31.34154
G1 X19.857 Y16.815 E31.35536
G1 X19.912 Y16.295 E31.37988
G1 X19.989 Y15.858 E31.40069
G1 X20.079 Y15.497 E31.41814
G1 X20.234 Y15.03 E31.44121
G1 X20.348 Y14.759 E31.455
G1 X20.461 Y14.52 E31.4674
G1 X20.655 Y14.148 E31.48707
G1 X20.888 Y13.768 E31.50798
G1 F2400 E27.50798
G1 F300 Z1.1
;MESH:forntbox.STL(1)
G0 F7800 X30.965 Y36.585 Z1.1
;TYPE:WALL-INNER
G1 F300 Z0.3
G1 F2400 E31.50798
G1 X31.036 Y36.492 E31.51347
G1 X31.087 Y36.068 E31.53349
G1 X31.006 Y35.81 E31.54617
G1 X30.867 Y35.725 E31.55382
G1 X30.608 Y35.657 E31.56637
G1 X30.041 Y35.645 E31.59297
G1 X30.041 Y36.736 E31.64413
G1 X30.302 Y36.735 E31.65637
G1 X30.719 Y36.675 E31.67613
G1 X30.965 Y36.585 E31.68842
G0 F7800 X31.172 Y36.935
G1 F2400 X31.401 Y36.663 E31.70509
G1 X31.474 Y36.348 E31.72025
G1 X31.489 Y36.044 E31.73453
G1 X31.44 Y35.75 E31.74851
G1 X31.262 Y35.498 E31.76298
G1 X31.034 Y35.359 E31.7755
G1 X30.657 Y35.258 E31.7938
G1 X30.307 Y35.245 E31.81023
G1 X29.641 Y35.245 E31.84146
G1 X29.641 Y37.138 E31.93024
G1 X30.432 Y37.136 E31.96733
G1 X30.825 Y37.062 E31.98609
G1 X31.172 Y36.935 E32.00341
G0 F7800 X31.38 Y37.285
;TYPE:WALL-OUTER
G1 F2400 X31.609 Y37.084 E32.0177
G1 X31.765 Y36.834 E32.03152
G1 X31.864 Y36.537 E32.04621
G1 X31.891 Y36.02 E32.07048
G1 X31.821 Y35.605 E32.09022
G1 X31.584 Y35.226 E32.11118
G1 X31.2 Y34.992 E32.13227
G1 X30.794 Y34.863 E32.15225
G1 X30.307 Y34.845 E32.1751
G1 X29.241 Y34.845 E32.2251
G1 X29.241 Y37.539 E32.35144
G1 X30.33 Y37.536 E32.40251
G1 X30.608 Y37.509 E32.41561
G1 X30.931 Y37.45 E32.431
G1 X31.38 Y37.285 E32.45344
G0 F7800 X31.53 Y37.154
G0 X31.072 Y36.628
G0 X30.72 Y36.332
;TYPE:SKIN
G1 F2719.5 X30.376 Y36.379 E32.46735
G1 X30.376 Y35.986 E32.48309
G1 X30.558 Y35.991 E32.49039
G1 X30.741 Y36.056 E32.49817
G1 X30.72 Y36.332 E32.50926
G1 F2400 E28.50926
G1 F300 Z1.1
G0 F7800 X30.72 Y36.332 Z1.1
G0 X94.367 Y56.553
;TYPE:WALL-INNER
G1 F300 Z0.3
G1 F2400 E32.50926
G1 F2352.9 X94.362 Y56.721 E32.5173
G0 F7800 X94.367 Y57.128
G1 F2400 X94.579 Y57.087 E32.52743
G1 X94.691 Y56.999 E32.53411
G1 X94.76 Y56.787 E32.54456
G1 X94.776 Y56.535 E32.5564
G1 X94.705 Y56.236 E32.57082
G1 X94.537 Y56.093 E32.58116
G1 X94.167 Y56.099 E32.59852
G1 X94.031 Y56.201 E32.60649
G1 X93.954 Y56.599 E32.6255
G1 X93.991 Y56.907 E32.64005
G1 X94.124 Y57.089 E32.65062
G1 X94.367 Y57.128 E32.66216
G0 F7800 X94.352 Y57.53
;TYPE:WALL-OUTER
G1 F2400 X94.769 Y57.447 E32.6821
G1 X94.998 Y57.266 E32.69579
G1 X95.1 Y57.093 E32.70521
G1 X95.157 Y56.846 E32.71709
G1 X95.178 Y56.517 E32.73256
G1 X95.134 Y56.227 E32.74631
G1 X95.045 Y56.012 E32.75722
G1 X94.835 Y55.796 E32.77135
G1 X94.648 Y55.701 E32.78119
G1 X94.363 Y55.678 E32.7946
G1 X94.016 Y55.713 E32.81095
G1 X93.728 Y55.929 E32.82784
G1 X93.582 Y56.272 E32.84532
G1 X93.553 Y56.592 E32.86039
G1 X93.574 Y56.976 E32.87842
G1 X93.746 Y57.297 E32.8955
G1 X93.999 Y57.475 E32.91001
G1 X94.352 Y57.53 E32.92676
G0 F7800 X94.548 Y57.491
G0 X94.561 Y56.549
G1 F2400 E28.92676
G1 F300 Z1.1
G0 F7800 X94.553 Y56.642 Z1.1
G0 X94.995 Y79.121
;TYPE:WALL-INNER
G1 F300 Z0.3
G1 F2400 E32.92676
G1 X95.355 Y79.093 E32.9437
G1 X95.524 Y78.972 E32.95344
G1 X95.603 Y78.855 E32.96006
G1 X95.736 Y78.434 E32.98077
G1 X95.7 Y77.866 E33.00746
G1 X95.512 Y77.542 E33.02503
G1 X95.304 Y77.426 E33.0362
G1 X95.136 Y77.412 E33.0441
G1 X94.88 Y77.447 E33.05622
G1 X94.772 Y77.515 E33.0622
G1 X94.638 Y77.685 E33.07236
G1 X94.556 Y77.932 E33.08456
G1 X94.526 Y78.225 E33.09837
G1 X94.563 Y78.646 E33.11819
G1 X94.695 Y78.919 E33.13241
G1 X94.842 Y79.072 E33.14236
G1 X94.995 Y79.121 E33.1499
G0 F7800 X95.302 Y79.521
G1 F2400 X95.505 Y79.467 E33.15975
G1 X95.826 Y79.239 E33.17821
G1 X96.012 Y78.965 E33.19375
G1 X96.111 Y78.566 E33.21302
G1 X96.126 Y78.276 E33.22664
G1 X96.107 Y77.975 E33.24079
G1 X96.049 Y77.683 E33.25475
G1 X95.941 Y77.447 E33.26692
G1 X95.81 Y77.271 E33.27721
G1 X95.583 Y77.102 E33.29048
G1 X95.392 Y77.032 E33.30002
G1 X95.137 Y77.01 E33.31202
G1 X94.723 Y77.073 E33.33166
G1 X94.5 Y77.213 E33.34401
G1 X94.281 Y77.493 E33.36068
G1 X94.167 Y77.833 E33.3775
G1 X94.126 Y78.234 E33.3964
G1 X94.158 Y78.614 E33.41429
G1 X94.222 Y78.862 E33.4263
G1 X94.357 Y79.137 E33.44066
G1 X94.641 Y79.429 E33.45977
G1 X94.916 Y79.516 E33.47329
G1 X95.302 Y79.521 E33.4914
G0 F7800 X95.367 Y79.917
;TYPE:WALL-OUTER
G1 F2400 X95.656 Y79.841 E33.50541
G1 X95.904 Y79.703 E33.51872
G1 X96.128 Y79.506 E33.53271
G1 X96.314 Y79.233 E33.5482
G1 X96.429 Y78.946 E33.5627
G1 X96.509 Y78.626 E33.57817
G1 X96.527 Y78.274 E33.5947
G1 X96.505 Y77.923 E33.61119
G1 X96.432 Y77.559 E33.6286
G1 X96.287 Y77.243 E33.64491
G1 X96.107 Y77 E33.65909
G1 X95.759 Y76.741 E33.67943
G1 X95.48 Y76.638 E33.69338
G1 X95.139 Y76.609 E33.70943
G1 X94.855 Y76.631 E33.72279
G1 X94.567 Y76.699 E33.73667
G1 X94.228 Y76.911 E33.75542
G1 X93.923 Y77.301 E33.77864
G1 X93.741 Y77.848 E33.80567
G1 X93.725 Y78.243 E33.82421
G1 X93.762 Y78.682 E33.84487
G1 X93.845 Y79.002 E33.86038
G1 X94.018 Y79.355 E33.87881
G1 X94.197 Y79.572 E33.892
G1 X94.441 Y79.785 E33.90719
G1 X94.836 Y79.91 E33.92662
G1 X95.103 Y79.935 E33.9392
G1 X95.367 Y79.917 E33.95161
G0 F7800 X95.56 Y79.867
G0 X95.381 Y79.192
G0 X95.202 Y78.738
;TYPE:SKIN
G1 F2264.2 X95.056 Y78.749 E33.95865
G1 X94.928 Y78.535 E33.97065
G1 F2243 X94.902 Y78.232 E33.98543
G1 F2222.2 X94.98 Y77.866 E34.00378
G1 X95.035 Y77.809 E34.00766
G1 X95.238 Y77.811 E34.01761
G1 X95.332 Y77.975 E34.02688
G1 F2243 X95.34 Y78.449 E34.04991
G1 F2264.2 X95.272 Y78.667 E34.0609
G1 X95.202 Y78.738 E34.0657
G1 F2400 E30.0657
G1 F300 Z1.1
G0 F7800 X95.202 Y78.738 Z1.1
G0 X102.555 Y83.56
;TYPE:WALL-INNER
G1 F300 Z0.3
G1 F2400 E34.0657
G1 X102.767 Y83.527 E34.07576
G1 X102.874 Y83.467 E34.08151
G1 X103.027 Y83.291 E34.09245
G1 X103.131 Y82.97 E34.10828
G1 X103.159 Y82.678 E34.12203
G1 X103.094 Y82.247 E34.14247
G1 X103.005 Y82.039 E34.15308
G1 X102.841 Y81.894 E34.16335
G1 X102.571 Y81.838 E34.17628
G1 X102.241 Y81.919 E34.19222
G1 X102.072 Y82.098 E34.20376
G1 X101.963 Y82.483 E34.22253
G1 X101.968 Y83.031 E34.24823
G1 X102.191 Y83.44 E34.27007
G1 X102.297 Y83.516 E34.27619
G1 X102.555 Y83.56 E34.28846
G0 F7800 X102.732 Y83.949
G1 F2400 X102.916 Y83.902 E34.29737
G1 X103.113 Y83.792 E34.30795
G1 X103.381 Y83.483 E34.32713
G1 X103.526 Y83.038 E34.34908
G1 X103.561 Y82.679 E34.366
G1 X103.534 Y82.387 E34.37975
G1 X103.477 Y82.125 E34.39233
G1 X103.343 Y81.816 E34.40812
G1 X103.023 Y81.53 E34.42825
G1 X102.675 Y81.427 E34.44527
G1 X102.251 Y81.476 E34.46528
G1 X102.03 Y81.576 E34.47666
G1 X101.869 Y81.706 E34.48636
G1 X101.717 Y81.904 E34.49807
G1 X101.612 Y82.193 E34.51249
G1 X101.545 Y82.535 E34.52883
G1 X101.569 Y82.941 E34.54791
G1 X101.618 Y83.214 E34.56091
G1 X101.752 Y83.513 E34.57628
G1 X101.903 Y83.726 E34.58852
G1 X102.119 Y83.88 E34.60097
G1 X102.309 Y83.936 E34.61025
G1 X102.732 Y83.949 E34.6301
G0 F7800 X102.796 Y84.345
;TYPE:WALL-OUTER
G1 F2400 X103.065 Y84.276 E34.64313
G1 X103.352 Y84.117 E34.65851
G1 X103.579 Y83.901 E34.67321
G1 X103.735 Y83.675 E34.68609
G1 X103.849 Y83.397 E34.70018
G1 X103.922 Y83.106 E34.71425
G1 X103.963 Y82.679 E34.73436
G1 X103.93 Y82.327 E34.75094
G1 X103.86 Y82.002 E34.76653
G1 X103.682 Y81.592 E34.7875
G1 X103.462 Y81.358 E34.80256
G1 X103.205 Y81.166 E34.8176
G1 X102.849 Y81.062 E34.835
G1 X102.591 Y81.037 E34.84715
G1 X102.129 Y81.092 E34.86897
G1 X101.818 Y81.232 E34.88497
G1 X101.581 Y81.425 E34.8993
G1 X101.362 Y81.71 E34.91616
G1 X101.226 Y82.086 E34.93491
G1 X101.167 Y82.385 E34.9492
G1 X101.153 Y82.667 E34.96244
G1 X101.171 Y82.988 E34.97752
G1 X101.233 Y83.332 E34.99391
G1 X101.403 Y83.712 E35.01343
G1 X101.616 Y84.012 E35.03069
G1 X101.941 Y84.245 E35.04944
G1 X102.231 Y84.33 E35.06361
G1 X102.54 Y84.363 E35.07819
G1 X102.796 Y84.345 E35.09022
G0 F7800 X102.989 Y84.296
G0 X102.805 Y83.624
G0 X102.611 Y83.175
;TYPE:SKIN
G1 F2243 X102.453 Y83.147 E35.09802
G1 X102.338 Y82.936 E35.10969
G1 X102.334 Y82.529 E35.12946
G1 X102.399 Y82.299 E35.14107
G1 X102.487 Y82.232 E35.14645
G1 X102.676 Y82.244 E35.15565
G1 X102.732 Y82.359 E35.16186
G1 F2222.2 X102.776 Y82.683 E35.17789
G1 X102.761 Y82.901 E35.18861
G1 F2243 X102.697 Y83.095 E35.19853
G1 X102.611 Y83.175 E35.20424
G1 F2400 E31.20424
G1 F300 Z1.1
G0 F7800 X102.611 Y83.175 Z1.1
G0 X102.908 Y33.23
;TYPE:WALL-OUTER
G1 F300 Z0.3
G1 F2400 E35.20424
G1 F1736 X102.56 Y33.35 E35.2281
G1 X102.245 Y33.392 E35.24871
G1 F1714.3 X101.858 Y33.396 E35.27412
G1 F1684.2 X101.474 Y33.375 E35.29982
G1 F1696.1 X101.137 Y33.328 E35.3224
G1 F1711.2 X100.954 Y33.185 E35.33767
G1 X100.929 Y32.974 E35.35165
G1 F1705.2 X101.004 Y32.757 E35.3668
G1 F1687.2 X101.525 Y32.806 E35.40171
G1 F1708.2 X102.188 Y32.847 E35.44548
G1 F1736 X102.194 Y32.855 E35.44613
G1 X102.483 Y32.899 E35.46508
G1 X102.854 Y32.983 E35.48974
G1 X102.948 Y33.041 E35.4969
G1 X102.971 Y33.109 E35.50156
G1 X102.908 Y33.23 E35.5104
G0 F7800 X102.971 Y33.109
G0 X102.951 Y33.049
G1 F2400 E31.5104
G1 F300 Z1.1
G0 F7800 X102.188 Y28.924 Z1.1
;TYPE:WALL-INNER
G1 F300 Z0.3
G1 F2400 E35.5104
G1 F2430.4 X102.287 Y28.843 E35.51633
G1 X102.295 Y28.7 E35.52296
G1 X102.222 Y28.6 E35.52869
G1 X102.032 Y28.546 E35.53784
G1 F2436.5 X101.725 Y28.545 E35.55202
G1 X101.486 Y28.629 E35.56372
G1 X101.474 Y28.85 E35.57395
G1 F2430.4 X101.56 Y28.927 E35.57929
G1 F2412.1 X101.915 Y28.949 E35.59589
G1 F2418.1 X102.188 Y28.924 E35.60865
G0 F7800 X102.539 Y29.194
;TYPE:WALL-OUTER
G1 F2400 X102.67 Y28.976 E35.62058
G1 X102.684 Y28.594 E35.6385
G1 X102.585 Y28.386 E35.64931
G1 X102.412 Y28.241 E35.65989
G1 X102.088 Y28.149 E35.67569
G1 X101.679 Y28.148 E35.69487
G1 X101.406 Y28.212 E35.70802
G1 X101.221 Y28.326 E35.71821
G1 X101.09 Y28.546 E35.73022
G1 X101.07 Y28.87 E35.74544
G1 X101.106 Y29.016 E35.75249
G1 X101.217 Y29.175 E35.76159
G1 X101.445 Y29.315 E35.77414
G1 X101.921 Y29.351 E35.79652
G1 X102.299 Y29.312 E35.81434
G1 X102.539 Y29.194 E35.82689
G0 F7800 X102.642 Y29.023
G1 F2400 E31.82689
G1 F300 Z1.1
G0 F7800 X98.584 Y29.235 Z1.1
;TYPE:WALL-INNER
G1 F300 Z0.3
G1 F2400 E35.82689
G1 F2025.3 X98.568 Y28.776 E35.85241
G1 F2008.4 X98.589 Y28.278 E35.88034
G0 F7800 X98.775 Y31.794
G0 X98.528 Y32.539
G1 F2506.5 X98.473 Y32.706 E35.88824
G0 F7800 X98.528 Y32.539
G1 F2330.1 X98.711 Y32.188 E35.90736
