;FLAVOR:Marlin
;TIME:2676
;Filament used: 2.50047m
;Layer height: 0.2
;MINX:87.25
;MINY:77.75
;MINZ:0.3
;MAXX:136.75
;MAXY:147.25
;MAXZ:8.7
;TARGET_MACHINE.NAME:Anet ET4 Pro
;POSTPROCESSED
;  [CreateThumbnail]
;Generated with Cura_SteamEngine 5.7.0
;
;

M82 ;absolute extrusion mode
M104 S245.0  ; Start heating up the nozzle most of the way
M190 S80.0 ; Start heating the bed, wait until target temperature reached
M109 S245.0 ; Finish heating the nozzle
G92 E0 ; Reset Extruder
G28 ; Home all axes
G1 Z2.0 F3000 ; Move Z Axis up little to prevent scratching of Heat Bed
G1 X1 Y20 Z0.3 F5000.0 ; Move to start position
G1 X1 Y200.0 Z0.3 F1500.0 E15 ; Draw the first line
G1 X1.5 Y200.0 Z0.3 F5000.0 ; Move to side a little
G1 X1.5 Y20 Z0.3 F1500.0 E30 ; Draw the second line
G92 E0
G1 Z2.0 F3000
G1 X5 Y20 Z0.3 F5000.0
G92 E0
G92 E0
G1 F1200 E-4
;LAYER_COUNT:39
;LAYER:0
M107
M204 S2000
G1 F300 Z1.1
G0 F9000 X90.024 Y100.042 Z1.1
;TYPE:SKIRT
G1 F300 Z0.3
G1 F1200 E0
G1 F3600 X90.234 Y99.856 E0.01263
G1 X90.62 Y99.54 E0.03509
G1 X90.98 Y99.281 E0.05505
G1 X91.59 Y98.896 E0.08753
G1 X91.89 Y98.729 E0.10299
G1 X92.301 Y98.528 E0.12359
G1 X93.576 Y97.96 E0.18643
G1 X96.082 Y96.802 E0.31071
G1 X98.532 Y95.585 E0.43387
G1 X100.941 Y94.301 E0.55677
G1 X103.285 Y92.965 E0.67824
G1 X105.647 Y91.53 E0.80266
G1 X107.941 Y90.046 E0.92567
G1 X110.161 Y88.517 E1.04703
G1 X112.354 Y86.916 E1.16927
G1 X114.537 Y85.225 E1.29359
G1 X116.622 Y83.512 E1.41507
G1 X118.7 Y81.704 E1.53908
G1 X121.4 Y79.197 E1.70496
G1 X121.954 Y78.764 E1.73661
G1 X122.365 Y78.503 E1.75853
G1 X122.837 Y78.251 E1.78262
G1 X123.193 Y78.114 E1.79979
G1 X123.579 Y77.991 E1.81803
G1 X123.981 Y77.89 E1.83669
G1 X124.398 Y77.814 E1.85578
G1 X124.942 Y77.761 E1.88038
G1 X125.497 Y77.75 E1.90537
G1 X130.673 Y77.75 E2.1384
G1 X131.42 Y77.763 E2.17204
G1 X132.013 Y77.827 E2.19889
G1 X132.37 Y77.897 E2.21527
G1 X132.792 Y78.009 E2.23493
G1 X133.191 Y78.144 E2.25389
G1 X133.735 Y78.381 E2.2806
G1 X134.056 Y78.576 E2.29751
G1 X134.496 Y78.881 E2.32162
G1 X134.969 Y79.28 E2.34948
G1 X135.308 Y79.628 E2.37135
G1 X135.682 Y80.087 E2.398
G1 X135.906 Y80.418 E2.416
G1 X136.219 Y80.996 E2.44559
G1 X136.37 Y81.357 E2.46321
G1 X136.518 Y81.8 E2.48424
G1 X136.586 Y82.06 E2.49634
G1 X136.674 Y82.527 E2.51773
G1 X136.716 Y82.88 E2.53373
G1 X136.739 Y83.22 E2.54908
G1 X136.749 Y83.879 E2.57875
G1 X136.75 Y138.067 E5.01834
G1 X136.742 Y138.673 E5.04563
G1 X136.709 Y139.359 E5.07655
G1 X136.672 Y139.715 E5.09266
G1 X136.587 Y140.259 E5.11745
G1 X136.533 Y140.533 E5.13002
G1 X136.439 Y140.921 E5.148
G1 X136.328 Y141.284 E5.16509
G1 X136.093 Y141.915 E5.1954
G1 X135.917 Y142.309 E5.21483
G1 X135.587 Y142.938 E5.24681
G1 X135.419 Y143.224 E5.26174
G1 X135.106 Y143.69 E5.28701
G1 X134.758 Y144.138 E5.31255
G1 X134.5 Y144.434 E5.33023
G1 X134.278 Y144.666 E5.34469
G1 X133.842 Y145.083 E5.37185
G1 X133.537 Y145.343 E5.38989
G1 X133.139 Y145.643 E5.41233
G1 X132.892 Y145.812 E5.4258
G1 X132.389 Y146.119 E5.45233
G1 X132.006 Y146.326 E5.47193
G1 X131.747 Y146.452 E5.4849
G1 X131.451 Y146.581 E5.49944
G1 X131.119 Y146.706 E5.51541
G1 X130.491 Y146.908 E5.54511
G1 X130.202 Y146.987 E5.5586
G1 X129.755 Y147.087 E5.57922
G1 X129.502 Y147.133 E5.5908
G1 X129.128 Y147.184 E5.60779
G1 X128.826 Y147.212 E5.62144
G1 X128.299 Y147.236 E5.6452
G1 X127.357 Y147.25 E5.68761
G1 X96.173 Y147.241 E7.09154
G1 X95.413 Y147.23 E7.12576
G1 X95.018 Y147.2 E7.1436
G1 X94.274 Y147.094 E7.17743
G1 X93.855 Y147.007 E7.1967
G1 X93.421 Y146.887 E7.21697
G1 X92.68 Y146.629 E7.25229
G1 X92.221 Y146.431 E7.2748
G1 X91.56 Y146.086 E7.30837
G1 X91.291 Y145.928 E7.32241
G1 X90.769 Y145.577 E7.35073
G1 X90.362 Y145.258 E7.37401
G1 X90.067 Y145.001 E7.39163
G1 X89.843 Y144.788 E7.40554
G1 X89.541 Y144.475 E7.42512
G1 X89.355 Y144.265 E7.43775
G1 X89.024 Y143.86 E7.4613
G1 X88.793 Y143.539 E7.47911
G1 X88.359 Y142.848 E7.51584
G1 X88.134 Y142.428 E7.53729
G1 X87.923 Y141.956 E7.56057
G1 X87.787 Y141.601 E7.57769
G1 X87.59 Y140.985 E7.6068
G1 X87.508 Y140.683 E7.62089
G1 X87.416 Y140.268 E7.64003
G1 X87.317 Y139.631 E7.66905
G1 X87.288 Y139.331 E7.68262
G1 X87.263 Y138.787 E7.70714
G1 X87.25 Y137.857 E7.74901
G1 X87.259 Y106.637 E9.15456
G1 X87.27 Y105.97 E9.1846
G1 X87.293 Y105.632 E9.19985
G1 X87.358 Y105.069 E9.22537
G1 X87.404 Y104.782 E9.23845
G1 X87.489 Y104.367 E9.25752
G1 X87.611 Y103.925 E9.27817
G1 X87.871 Y103.179 E9.31373
G1 X88.068 Y102.723 E9.3361
G1 X88.412 Y102.064 E9.36956
G1 X88.585 Y101.771 E9.38488
G1 X88.936 Y101.252 E9.41309
G1 X89.242 Y100.862 E9.43541
G1 X89.5 Y100.566 E9.45309
G1 X89.712 Y100.343 E9.46694
G1 X90.024 Y100.042 E9.48646
G0 F9000 X90.29 Y100.341
G1 F3600 X90.487 Y100.166 E9.49832
G1 X90.873 Y99.85 E9.52078
G1 X91.193 Y99.619 E9.53855
G1 X91.786 Y99.245 E9.57011
G1 X92.066 Y99.088 E9.58456
G1 X92.464 Y98.893 E9.60452
G1 X93.744 Y98.323 E9.6676
G1 X96.25 Y97.165 E9.79188
G1 X98.719 Y95.938 E9.91601
G1 X101.139 Y94.649 E10.03945
G1 X103.483 Y93.313 E10.16092
G1 X105.855 Y91.872 E10.28587
G1 X108.158 Y90.382 E10.40936
G1 X110.397 Y88.84 E10.53176
G1 X112.59 Y87.239 E10.654
G1 X114.782 Y85.541 E10.77883
G1 X116.885 Y83.814 E10.90134
G1 X118.963 Y82.006 E11.02535
G1 X121.672 Y79.49 E11.1918
G1 X122.168 Y79.102 E11.22015
G1 X122.579 Y78.841 E11.24207
G1 X123.025 Y78.604 E11.26481
G1 X123.315 Y78.495 E11.27875
G1 X123.676 Y78.379 E11.29583
G1 X124.078 Y78.278 E11.31449
G1 X124.438 Y78.212 E11.33096
G1 X124.95 Y78.161 E11.35413
G1 X125.505 Y78.15 E11.37912
G1 X130.667 Y78.15 E11.61152
G1 X131.378 Y78.161 E11.64353
G1 X131.937 Y78.22 E11.66884
G1 X132.267 Y78.284 E11.68397
G1 X132.689 Y78.396 E11.70363
G1 X133.062 Y78.523 E11.72137
G1 X133.527 Y78.723 E11.74416
G1 X133.848 Y78.918 E11.76107
G1 X134.238 Y79.187 E11.7824
G1 X134.711 Y79.586 E11.81026
G1 X134.999 Y79.881 E11.82882
G1 X135.352 Y80.312 E11.8539
G1 X135.554 Y80.608 E11.87003
G1 X135.867 Y81.186 E11.89962
G1 X135.991 Y81.485 E11.9142
G1 X136.131 Y81.901 E11.93396
G1 X136.199 Y82.161 E11.94606
G1 X136.281 Y82.6 E11.96616
G1 X136.317 Y82.908 E11.98012
G1 X136.339 Y83.226 E11.99448
G1 X136.349 Y83.879 E12.02388
G1 X136.35 Y138.062 E14.46325
G1 X136.342 Y138.654 E14.4899
G1 X136.311 Y139.319 E14.51987
G1 X136.277 Y139.654 E14.53503
G1 X136.195 Y140.181 E14.55904
G1 X136.144 Y140.439 E14.57088
G1 X136.056 Y140.804 E14.58779
G1 X135.945 Y141.167 E14.60488
G1 X135.728 Y141.752 E14.63297
G1 X135.563 Y142.123 E14.65125
G1 X135.242 Y142.736 E14.6824
G1 X135.087 Y143.001 E14.69622
G1 X134.774 Y143.467 E14.72149
G1 X134.456 Y143.875 E14.74478
G1 X134.198 Y144.171 E14.76246
G1 X134.001 Y144.377 E14.77529
G1 X133.582 Y144.779 E14.80144
G1 X133.296 Y145.024 E14.81839
G1 X132.912 Y145.314 E14.84005
G1 X132.684 Y145.471 E14.85252
G1 X132.199 Y145.767 E14.8781
G1 X131.831 Y145.966 E14.89693
G1 X131.587 Y146.085 E14.90915
G1 X131.291 Y146.214 E14.92369
G1 X130.996 Y146.325 E14.93788
G1 X130.386 Y146.522 E14.96674
G1 X130.097 Y146.601 E14.98023
G1 X129.683 Y146.693 E14.99932
G1 X129.43 Y146.739 E15.0109
G1 X129.092 Y146.786 E15.02626
G1 X128.807 Y146.812 E15.03915
G1 X128.293 Y146.836 E15.06231
G1 X127.357 Y146.85 E15.10446
G1 X96.178 Y146.841 E16.50816
G1 X95.442 Y146.831 E16.5413
G1 X95.074 Y146.804 E16.55792
G1 X94.355 Y146.702 E16.59061
G1 X93.961 Y146.621 E16.60872
G1 X93.553 Y146.509 E16.62777
G1 X92.812 Y146.251 E16.66309
G1 X92.38 Y146.064 E16.68428
G1 X91.763 Y145.741 E16.71564
G1 X91.494 Y145.583 E16.72968
G1 X90.992 Y145.245 E16.75693
G1 X90.625 Y144.956 E16.77796
G1 X90.33 Y144.699 E16.79557
G1 X90.131 Y144.51 E16.80793
G1 X89.84 Y144.209 E16.82678
G1 X89.665 Y144.012 E16.83864
G1 X89.349 Y143.626 E16.8611
G1 X89.118 Y143.305 E16.87891
G1 X88.711 Y142.659 E16.91328
G1 X88.499 Y142.264 E16.93346
G1 X88.296 Y141.812 E16.95577
G1 X88.168 Y141.479 E16.97183
G1 X87.976 Y140.881 E17.00011
G1 X87.899 Y140.596 E17.0134
G1 X87.807 Y140.181 E17.03254
G1 X87.715 Y139.593 E17.05933
G1 X87.688 Y139.312 E17.07204
G1 X87.663 Y138.781 E17.09597
G1 X87.65 Y137.857 E17.13758
G1 X87.659 Y106.643 E18.54286
G1 X87.669 Y105.996 E18.57199
G1 X87.69 Y105.678 E18.58634
G1 X87.753 Y105.132 E18.61108
G1 X87.796 Y104.862 E18.62339
G1 X87.875 Y104.473 E18.64126
G1 X87.989 Y104.057 E18.66068
G1 X88.249 Y103.311 E18.69625
G1 X88.435 Y102.882 E18.7173
G1 X88.757 Y102.266 E18.74859
G1 X88.916 Y101.995 E18.76274
G1 X89.251 Y101.499 E18.78969
G1 X89.544 Y101.125 E18.81108
G1 X89.802 Y100.829 E18.82875
G1 X89.99 Y100.631 E18.84105
G1 X90.29 Y100.341 E18.85983
G1 F1200 E14.85983
G1 F300 Z1.1
;MESH:yendstopand servo.STL
G0 F9000 X95.749 Y109.744 Z1.1
;TYPE:WALL-INNER
G1 F300 Z0.3
G1 F1200 E18.85983
G1 F3600 X95.236 Y109.744 E18.88293
G1 X94.94 Y109.7 E18.8964
G1 X94.459 Y109.551 E18.91907
G1 X93.933 Y109.264 E18.94605
G1 X93.59 Y108.985 E18.96595
G1 X93.271 Y108.628 E18.98751
G1 X93.008 Y108.183 E19.01078
G1 X92.896 Y107.91 E19.02406
G1 X92.733 Y107.231 E19.0555
G1 X92.809 Y106.29 E19.098
G1 X93.121 Y105.618 E19.13136
G1 X93.435 Y105.173 E19.15588
G1 X93.867 Y104.775 E19.18232
G1 X94.413 Y104.467 E19.21055
G1 X94.905 Y104.307 E19.23384
G1 X95.567 Y104.217 E19.26392
G1 X96.372 Y104.38 E19.30089
G1 X96.942 Y104.651 E19.32931
G1 X97.305 Y104.918 E19.3496
G1 X97.697 Y105.336 E19.37539
G1 X97.979 Y105.801 E19.39988
G1 X98.093 Y106.07 E19.41303
G1 X98.219 Y106.557 E19.43568
G1 X98.244 Y107.14 E19.46195
G1 X98.192 Y107.58 E19.4819
G1 X97.988 Y108.233 E19.5127
G1 X97.453 Y108.968 E19.55362
G1 X96.829 Y109.414 E19.58816
G1 X96.435 Y109.587 E19.60753
G1 X95.749 Y109.744 E19.63921
G0 F9000 X95.703 Y109.341
G1 F3600 X95.144 Y109.345 E19.66438
G1 X94.615 Y109.181 E19.68931
G1 X94.156 Y108.931 E19.71284
G1 X93.9 Y108.722 E19.72772
G1 X93.597 Y108.394 E19.74783
G1 X93.306 Y107.9 E19.77364
G1 X93.136 Y107.198 E19.80616
G1 X93.201 Y106.411 E19.84171
G1 X93.466 Y105.82 E19.87087
G1 X93.733 Y105.443 E19.89167
G1 X94.101 Y105.102 E19.91425
G1 X94.58 Y104.832 E19.93901
G1 X94.965 Y104.708 E19.95722
G1 X95.555 Y104.623 E19.98406
G1 X96.242 Y104.761 E20.0156
G1 X96.734 Y104.994 E20.04011
G1 X97.035 Y105.216 E20.05695
G1 X97.376 Y105.578 E20.07934
G1 X97.685 Y106.086 E20.10611
G1 X97.822 Y106.623 E20.13106
G1 X97.844 Y107.127 E20.15377
G1 X97.804 Y107.46 E20.16887
G1 X97.629 Y108.046 E20.1964
G1 X97.184 Y108.668 E20.23084
G1 X96.66 Y109.045 E20.2599
G1 X96.308 Y109.207 E20.27734
G1 X95.703 Y109.341 E20.30524
G1 F1200 E16.30524
G0 F9000 X95.703 Y109.645
G0 X112.347 Y109.165
G0 X126.518 Y109.753
G1 F1200 E20.30524
G1 F3600 X125.887 Y109.681 E20.33383
G1 X125.457 Y109.548 E20.3541
G1 X124.933 Y109.27 E20.3808
G1 X124.544 Y108.931 E20.40403
G1 X124.24 Y108.579 E20.42497
G1 X124.04 Y108.233 E20.44297
G1 X123.781 Y107.589 E20.47422
G1 X123.748 Y106.836 E20.50815
G1 X123.813 Y106.412 E20.52746
G1 X124.014 Y105.765 E20.55796
G1 X124.452 Y105.148 E20.59203
G1 X124.987 Y104.695 E20.62359
G1 X125.458 Y104.446 E20.64757
G1 X125.872 Y104.32 E20.66706
G1 X126.466 Y104.244 E20.69402
G1 X127.185 Y104.304 E20.7265
G1 X127.849 Y104.602 E20.75927
G1 X128.288 Y104.904 E20.78326
G1 X128.609 Y105.23 E20.80385
G1 X128.764 Y105.433 E20.81535
G1 X128.995 Y105.838 E20.83634
G1 X129.095 Y106.077 E20.84801
G1 X129.21 Y106.511 E20.86822
G1 X129.267 Y107.175 E20.89822
G1 X129.109 Y107.893 E20.93132
G1 X128.899 Y108.332 E20.95323
G1 X128.603 Y108.78 E20.97741
G1 X128.355 Y109.038 E20.99352
G1 X127.883 Y109.38 E21.01976
G1 X127.418 Y109.594 E21.0428
G1 X127.007 Y109.702 E21.06194
G1 X126.518 Y109.753 E21.08407
G0 F9000 X125.974 Y109.29
G1 F3600 X125.599 Y109.174 E21.10174
G1 X125.133 Y108.915 E21.12575
G1 X124.822 Y108.644 E21.14432
G1 X124.588 Y108.37 E21.16054
G1 X124.394 Y108.046 E21.17754
G1 X124.175 Y107.489 E21.20449
G1 X124.154 Y106.827 E21.2343
G1 X124.204 Y106.495 E21.24942
G1 X124.389 Y105.921 E21.27657
G1 X124.75 Y105.419 E21.30441
G1 X125.21 Y105.029 E21.33156
G1 X125.609 Y104.819 E21.35186
G1 X125.96 Y104.71 E21.36841
G1 X126.493 Y104.647 E21.39257
G1 X127.116 Y104.706 E21.42074
G1 X127.66 Y104.955 E21.44768
G1 X128.032 Y105.215 E21.46811
G1 X128.379 Y105.567 E21.49036
G1 X128.688 Y106.105 E21.5183
G1 X128.814 Y106.576 E21.54025
G1 X128.864 Y107.145 E21.56596
G1 X128.727 Y107.764 E21.5945
G1 X128.565 Y108.111 E21.61175
G1 X128.269 Y108.559 E21.63592
G1 X128.12 Y108.714 E21.6456
G1 X127.677 Y109.035 E21.67023
G1 X127.331 Y109.194 E21.68737
G1 X126.939 Y109.308 E21.70575
G1 X126.553 Y109.348 E21.72322
G1 X125.974 Y109.29 E21.74942
G0 F9000 X125.883 Y109.577
G0 X125.019 Y109.129
G0 X124.642 Y108.809
G0 X124.168 Y108.134
G0 X123.941 Y107.546
G0 X123.913 Y106.836
G0 X123.969 Y106.434
G0 X124.125 Y105.944
G0 X127.836 Y99.204
G1 F3600 X127.057 Y99.002 E21.78565
G1 X126.554 Y98.712 E21.81179
G1 X126.112 Y98.351 E21.83748
G1 X125.759 Y97.912 E21.86284
G1 X125.52 Y97.472 E21.88539
G1 X125.354 Y96.933 E21.91078
G1 X125.288 Y96.28 E21.94033
G1 X125.37 Y95.655 E21.96871
G1 X125.559 Y95.15 E21.99298
G1 X125.771 Y94.761 E22.01293
G1 X125.932 Y94.545 E22.02506
G1 X126.276 Y94.192 E22.04725
G1 X126.489 Y94.027 E22.05938
G1 X126.994 Y93.734 E22.08566
G1 X127.544 Y93.542 E22.11189
G1 X128.243 Y93.495 E22.14343
G1 X128.748 Y93.562 E22.16636
G1 X129.15 Y93.678 E22.1852
G1 X129.623 Y93.892 E22.20857
G1 X130.089 Y94.255 E22.23517
G1 X130.371 Y94.556 E22.25374
G1 X130.61 Y94.905 E22.27278
G1 X130.843 Y95.413 E22.29794
G1 X130.978 Y95.96 E22.32331
G1 X131.003 Y96.429 E22.34445
G1 X130.926 Y97.013 E22.37097
G1 X130.754 Y97.517 E22.39495
G1 X130.428 Y98.064 E22.42362
G1 X130.144 Y98.387 E22.44298
G1 X129.772 Y98.699 E22.46484
G1 X129.381 Y98.924 E22.48515
G1 X128.701 Y99.17 E22.5177
G1 X127.836 Y99.204 E22.55668
G0 F9000 X127.886 Y98.805
G1 F3600 X127.214 Y98.631 E22.58793
G1 X126.779 Y98.381 E22.61052
G1 X126.396 Y98.066 E22.63284
G1 X126.093 Y97.69 E22.65458
G1 X125.891 Y97.318 E22.67364
G1 X125.75 Y96.858 E22.6953
G1 X125.692 Y96.32 E22.71966
G1 X125.761 Y95.75 E22.74551
G1 X125.946 Y95.274 E22.7685
G1 X126.162 Y94.881 E22.78869
G1 X126.618 Y94.415 E22.81805
G1 X127.16 Y94.1 E22.84627
G1 X127.631 Y93.935 E22.86874
G1 X128.23 Y93.9 E22.89575
G1 X128.663 Y93.953 E22.91539
G1 X129.01 Y94.053 E22.93165
G1 X129.415 Y94.237 E22.95168
G1 X129.781 Y94.522 E22.97256
G1 X130.023 Y94.77 E22.98816
G1 X130.255 Y95.093 E23.00606
G1 X130.464 Y95.545 E23.02848
G1 X130.582 Y96.024 E23.05069
G1 X130.6 Y96.38 E23.06674
G1 X130.54 Y96.884 E23.08959
G1 X130.394 Y97.34 E23.11115
G1 X130.099 Y97.834 E23.13705
G1 X129.83 Y98.128 E23.15499
G1 X129.542 Y98.369 E23.1719
G1 X129.211 Y98.561 E23.18913
G1 X128.644 Y98.765 E23.21626
G1 X127.886 Y98.805 E23.25043
G0 F9000 X127.81 Y99.095
G0 X127.131 Y98.857
G0 X126.637 Y98.577
G0 X126.229 Y98.239
G0 X125.895 Y97.823
G0 X125.677 Y97.417
G0 X125.516 Y96.914
G0 X125.446 Y96.318
G0 X125.514 Y95.808
G0 X127.674 Y89.658
G1 F3600 X127.038 Y89.496 E23.27998
G1 X126.496 Y89.18 E23.30822
G1 X126.28 Y89.011 E23.32057
G1 X125.937 Y88.655 E23.34283
G1 X125.78 Y88.444 E23.35467
G1 X125.524 Y87.979 E23.37856
G1 X125.421 Y87.703 E23.39183
G1 X125.309 Y87.167 E23.41648
G1 X125.303 Y86.667 E23.43899
G1 X125.368 Y86.186 E23.46084
G1 X125.457 Y85.889 E23.4748
G1 X125.701 Y85.377 E23.50034
G1 X125.864 Y85.134 E23.51351
G1 X126.202 Y84.763 E23.5361
G1 X126.59 Y84.454 E23.55844
G1 X127.02 Y84.228 E23.58031
G1 X127.494 Y84.072 E23.60277
G1 X127.963 Y84.003 E23.62411
G1 X128.458 Y84.009 E23.6464
G1 X129.082 Y84.149 E23.67519
G1 X129.537 Y84.351 E23.6976
G1 X129.976 Y84.661 E23.7218
G1 X130.255 Y84.926 E23.73912
G1 X130.529 Y85.273 E23.75903
G1 X130.814 Y85.82 E23.7868
G1 X130.962 Y86.367 E23.81231
G1 X131.008 Y86.939 E23.83814
G1 X130.918 Y87.565 E23.86662
G1 X130.837 Y87.821 E23.87871
G1 X130.617 Y88.283 E23.90174
G1 X130.295 Y88.736 E23.92677
G1 X129.926 Y89.08 E23.94948
G1 X129.558 Y89.335 E23.96963
G1 X129.305 Y89.461 E23.98236
G1 X128.777 Y89.629 E24.0073
G1 X128.201 Y89.706 E24.03347
G1 X127.674 Y89.658 E24.05729
G0 F9000 X127.742 Y89.264
G1 F3600 X127.195 Y89.126 E24.08269
G1 X126.627 Y88.794 E24.11231
G1 X126.168 Y88.319 E24.14205
G1 X125.831 Y87.709 E24.17342
G1 X125.708 Y87.121 E24.20047
G1 X125.709 Y86.655 E24.22145
