;FLAVOR:Marlin
;TIME:5097
;Filament used: 4.79696m
;Layer height: 0.2
;MINX:72.931
;MINY:82.001
;MINZ:0.3
;MAXX:148.975
;MAXY:142.997
;MAXZ:11.9
;TARGET_MACHINE.NAME:Anet ET4 Pro
;POSTPROCESSED
;  [CreateThumbnail]
;Generated with Cura_SteamEngine 5.7.0
;
;

M82 ;absolute extrusion mode
M104 S235.0  ; Start heating up the nozzle most of the way
M190 S80.0 ; Start heating the bed, wait until target temperature reached
M109 S235.0 ; Finish heating the nozzle
G92 E0 ; Reset Extruder
G28 ; Home all axes
G1 Z2.0 F3000 ; Move Z Axis up little to prevent scratching of Heat Bed
G1 X1 Y20 Z0.3 F5000.0 ; Move to start position
G1 X1 Y200.0 Z0.3 F1500.0 E15 ; Draw the first line
G1 X1.5 Y200.0 Z0.3 F5000.0 ; Move to side a little
G1 X1.5 Y20 Z0.3 F1500.0 E30 ; Draw the second line
G92 E0
G1 Z2.0 F3000
G1 X5 Y20 Z0.3 F5000.0
G92 E0
G92 E0
G1 F600 E-5
;LAYER_COUNT:59
;LAYER:0
M107
M204 S2000
G1 F300 Z1.1
G0 F9000 X79.16 Y86.499 Z1.1
;TYPE:SKIRT
G1 F300 Z0.3
G1 F600 E0
G1 F3600 X79.512 Y86.181 E0.02136
G1 X79.775 Y85.976 E0.03637
G1 X80.243 Y85.669 E0.06157
G1 X80.57 Y85.51 E0.07794
G1 X80.882 Y85.38 E0.09315
G1 X81.466 Y85.196 E0.12072
G1 X82.21 Y85.104 E0.15447
G1 X83.301 Y85.089 E0.20359
G1 X84.472 Y85.109 E0.25632
G1 X85.571 Y85.155 E0.30584
G1 X86.637 Y85.219 E0.35392
G1 X87.668 Y85.302 E0.40049
G1 X91.223 Y85.637 E0.56125
G1 X93.915 Y85.812 E0.6827
G1 X96.667 Y85.913 E0.80668
G1 X99.399 Y85.937 E0.92968
G1 X102.104 Y85.883 E1.05149
G1 X104.817 Y85.753 E1.17377
G1 X107.575 Y85.543 E1.2983
G1 X110.251 Y85.262 E1.41943
G1 X112.98 Y84.897 E1.54339
G1 X115.632 Y84.466 E1.66435
G1 X118.359 Y83.942 E1.78937
G1 X119.277 Y83.739 E1.8317
G1 X120.26 Y83.538 E1.87687
G1 X120.884 Y83.471 E1.90512
G1 X121.489 Y83.46 E1.93237
G1 X122.359 Y83.46 E1.97153
G1 X125.145 Y83.42 E2.09698
G1 X127.862 Y83.305 E2.21941
G1 X130.595 Y83.111 E2.34276
G1 X133.279 Y82.845 E2.46419
G1 X136.011 Y82.496 E2.58818
G1 X138.717 Y82.077 E2.71146
G1 X139.252 Y82.021 E2.73568
G1 X139.768 Y82.001 E2.75893
G1 X140.094 Y82.008 E2.77361
G1 X140.651 Y82.054 E2.79877
G1 X140.943 Y82.095 E2.81205
G1 X141.365 Y82.174 E2.83137
G1 X141.666 Y82.248 E2.84533
G1 X142.053 Y82.363 E2.86351
G1 X142.483 Y82.516 E2.88405
G1 X143.142 Y82.813 E2.9166
G1 X143.443 Y82.974 E2.93196
G1 X143.902 Y83.26 E2.95631
G1 X144.16 Y83.442 E2.97053
G1 X144.386 Y83.617 E2.98339
G1 X144.723 Y83.899 E3.00318
G1 X145.059 Y84.223 E3.02419
G1 X145.443 Y84.652 E3.05011
G1 X145.638 Y84.893 E3.06407
G1 X145.958 Y85.345 E3.089
G1 X146.111 Y85.588 E3.10193
G1 X146.26 Y85.852 E3.11558
G1 X146.548 Y86.438 E3.14498
G1 X146.732 Y86.902 E3.16745
G1 X146.853 Y87.264 E3.18463
G1 X146.954 Y87.628 E3.20164
G1 X147.726 Y91.175 E3.36507
G1 X147.994 Y92.318 E3.41792
G1 X148.082 Y92.967 E3.44741
G1 X148.098 Y93.375 E3.46579
G1 X148.044 Y94.151 E3.50081
G1 X147.792 Y95.558 E3.56516
G1 X147.349 Y98.242 E3.68763
G1 X146.984 Y100.938 E3.81012
G1 X146.69 Y103.68 E3.93427
G1 X146.478 Y106.379 E4.05616
G1 X146.342 Y109.116 E4.17953
G1 X146.282 Y111.825 E4.30152
G1 X146.3 Y114.552 E4.4243
G1 X146.395 Y117.271 E4.54679
G1 X146.566 Y119.995 E4.66966
G1 X146.817 Y122.731 E4.79336
G1 X147.139 Y125.409 E4.91479
G1 X147.541 Y128.114 E5.03791
G1 X148.041 Y130.937 E5.16698
G1 X148.095 Y131.649 E5.19913
G1 X148.086 Y131.943 E5.21237
G1 X148.011 Y132.561 E5.2404
G1 X147.568 Y134.528 E5.33117
G1 X147.286 Y135.868 E5.39282
G1 X146.953 Y137.361 E5.46169
G1 X146.867 Y137.677 E5.47644
G1 X146.653 Y138.309 E5.50648
G1 X146.476 Y138.722 E5.52671
G1 X146.329 Y139.021 E5.54171
G1 X146.189 Y139.279 E5.55492
G1 X146.018 Y139.562 E5.56981
G1 X145.846 Y139.821 E5.5838
G1 X145.54 Y140.229 E5.60676
G1 X145.131 Y140.7 E5.63485
G1 X144.747 Y141.076 E5.65904
G1 X144.455 Y141.332 E5.67653
G1 X144.06 Y141.632 E5.69886
G1 X143.703 Y141.866 E5.71808
G1 X143.443 Y142.021 E5.7317
G1 X143.072 Y142.22 E5.75066
G1 X142.531 Y142.465 E5.77739
G1 X142.245 Y142.573 E5.79116
G1 X141.739 Y142.733 E5.81505
G1 X141.282 Y142.842 E5.8362
G1 X140.953 Y142.903 E5.85127
G1 X140.653 Y142.945 E5.8649
G1 X140.266 Y142.982 E5.88241
G1 X139.955 Y142.996 E5.89642
G1 X139.612 Y142.997 E5.91186
G1 X139.263 Y142.979 E5.9276
G1 X138.705 Y142.92 E5.95286
G1 X137.592 Y142.752 E6.00354
G1 X136.672 Y142.6 E6.04552
G1 X133.99 Y142.239 E6.16735
G1 X131.257 Y141.948 E6.29109
G1 X128.562 Y141.737 E6.41279
G1 X125.815 Y141.601 E6.53662
G1 X122.381 Y141.54 E6.69124
G1 X120.864 Y141.527 E6.75954
G1 X120.214 Y141.455 E6.78898
G1 X119.175 Y141.233 E6.83682
G1 X116.442 Y140.685 E6.96231
G1 X113.771 Y140.227 E7.08431
G1 X111.082 Y139.844 E7.2066
G1 X108.336 Y139.533 E7.33101
G1 X105.657 Y139.304 E7.45207
G1 X102.933 Y139.15 E7.5749
G1 X100.18 Y139.072 E7.69889
G1 X97.486 Y139.072 E7.82018
G1 X94.734 Y139.15 E7.94412
G1 X92.011 Y139.304 E8.06691
G1 X89.206 Y139.544 E8.19366
G1 X87.637 Y139.7 E8.26464
G1 X86.554 Y139.785 E8.31355
G1 X85.486 Y139.85 E8.36172
G1 X84.384 Y139.892 E8.41137
G1 X83.055 Y139.914 E8.47121
G1 X82.262 Y139.909 E8.50691
G1 X81.687 Y139.853 E8.53292
G1 X81.04 Y139.675 E8.56313
G1 X80.655 Y139.525 E8.58174
G1 X80.201 Y139.304 E8.60447
G1 X79.833 Y139.062 E8.6243
G1 X79.57 Y138.864 E8.63912
G1 X79.127 Y138.467 E8.6659
G1 X78.822 Y138.103 E8.68728
G1 X78.626 Y137.833 E8.7023
G1 X78.322 Y137.331 E8.72872
G1 X78.191 Y137.039 E8.74313
G1 X78.045 Y136.667 E8.76112
G1 X77.908 Y136.232 E8.78166
G1 X77.211 Y133.294 E8.9176
G1 X76.504 Y130.659 E9.04042
G1 X75.727 Y128.06 E9.16255
G1 X74.869 Y125.46 E9.28581
G1 X73.941 Y122.892 E9.40874
G1 X73.187 Y120.935 E9.50316
G1 X73.028 Y120.381 E9.52911
G1 X72.956 Y119.741 E9.55811
G1 X72.934 Y118.635 E9.60791
G1 X72.931 Y105.979 E10.1777
G1 X72.941 Y105.321 E10.20732
G1 X73.004 Y104.717 E10.23466
G1 X73.185 Y104.072 E10.26482
G1 X74.075 Y101.781 E10.37548
G1 X74.991 Y99.212 E10.49827
G1 X75.823 Y96.651 E10.6195
G1 X76.602 Y94.004 E10.74372
G1 X77.294 Y91.377 E10.86602
G1 X77.693 Y89.66 E10.94539
G1 X77.974 Y88.53 E10.99781
G1 X78.172 Y87.954 E11.02523
G1 X78.489 Y87.38 E11.05475
G1 X78.799 Y86.932 E11.07928
G1 X79.16 Y86.499 E11.10466
G0 F9000 X79.429 Y86.795
G1 F3600 X79.759 Y86.496 E11.12471
G1 X79.997 Y86.309 E11.13833
G1 X80.418 Y86.029 E11.1611
G1 X80.745 Y85.87 E11.17747
G1 X81.036 Y85.749 E11.19166
G1 X81.517 Y85.593 E11.21442
G1 X82.216 Y85.504 E11.24614
G1 X83.294 Y85.489 E11.29468
G1 X84.456 Y85.509 E11.347
G1 X85.547 Y85.554 E11.39616
G1 X86.605 Y85.618 E11.44388
G1 X87.63 Y85.7 E11.49018
G1 X91.193 Y86.036 E11.6513
G1 X93.9 Y86.212 E11.77343
G1 X96.652 Y86.313 E11.89741
G1 X99.404 Y86.337 E12.02131
G1 X102.123 Y86.283 E12.14375
G1 X104.836 Y86.153 E12.26603
G1 X107.614 Y85.941 E12.39146
G1 X110.293 Y85.659 E12.51274
G1 X113.044 Y85.292 E12.63769
G1 X115.7 Y84.86 E12.75883
G1 X118.445 Y84.333 E12.88467
G1 X119.358 Y84.131 E12.92677
G1 X120.304 Y83.936 E12.97026
G1 X120.891 Y83.871 E12.99684
G1 X121.496 Y83.86 E13.02409
G1 X122.365 Y83.86 E13.06321
G1 X125.162 Y83.82 E13.18915
G1 X127.879 Y83.705 E13.31158
G1 X130.626 Y83.51 E13.43556
G1 X133.33 Y83.242 E13.55789
G1 X136.062 Y82.893 E13.68189
G1 X138.759 Y82.475 E13.80476
G1 X139.268 Y82.421 E13.82781
G1 X139.76 Y82.401 E13.84998
G1 X140.061 Y82.407 E13.86353
G1 X140.618 Y82.453 E13.88869
G1 X140.87 Y82.488 E13.90015
G1 X141.269 Y82.562 E13.91842
G1 X141.553 Y82.632 E13.93158
G1 X141.919 Y82.74 E13.94876
G1 X142.349 Y82.893 E13.96931
G1 X142.953 Y83.166 E13.99915
G1 X143.254 Y83.327 E14.01452
G1 X143.672 Y83.588 E14.03671
G1 X143.916 Y83.759 E14.05012
G1 X144.13 Y83.924 E14.06229
G1 X144.445 Y84.187 E14.08076
G1 X144.781 Y84.511 E14.10178
G1 X145.132 Y84.904 E14.1255
G1 X145.327 Y85.145 E14.13946
G1 X145.62 Y85.558 E14.16225
G1 X145.763 Y85.785 E14.17433
G1 X145.901 Y86.029 E14.18695
G1 X146.176 Y86.586 E14.21492
G1 X146.353 Y87.03 E14.23644
G1 X146.468 Y87.371 E14.25264
G1 X146.563 Y87.713 E14.26862
G1 X147.337 Y91.267 E14.43237
G1 X147.598 Y92.372 E14.48349
G1 X147.682 Y92.983 E14.51126
G1 X147.698 Y93.391 E14.52964
G1 X147.65 Y94.08 E14.56073
G1 X147.398 Y95.487 E14.62509
G1 X146.954 Y98.177 E14.74783
G1 X146.586 Y100.895 E14.87132
G1 X146.292 Y103.637 E14.99547
G1 X146.079 Y106.348 E15.1179
G1 X145.942 Y109.096 E15.24177
G1 X145.882 Y111.816 E15.36426
G1 X145.9 Y114.566 E15.48807
G1 X145.995 Y117.285 E15.61055
G1 X146.168 Y120.032 E15.73447
G1 X146.42 Y122.779 E15.85866
G1 X146.743 Y125.468 E15.98059
G1 X147.147 Y128.184 E16.10422
G1 X147.647 Y131.007 E16.23329
G1 X147.695 Y131.64 E16.26187
G1 X147.689 Y131.895 E16.27335
G1 X147.614 Y132.513 E16.30138
G1 X147.178 Y134.44 E16.39033
G1 X146.896 Y135.781 E16.45202
G1 X146.567 Y137.257 E16.5201
G1 X146.488 Y137.549 E16.53372
G1 X146.285 Y138.151 E16.56232
G1 X146.108 Y138.564 E16.58255
G1 X145.978 Y138.83 E16.59588
G1 X145.846 Y139.073 E16.60833
G1 X145.685 Y139.341 E16.62241
G1 X145.526 Y139.581 E16.63537
G1 X145.22 Y139.989 E16.65833
G1 X144.851 Y140.414 E16.68367
G1 X144.483 Y140.775 E16.70688
G1 X144.191 Y141.031 E16.72436
G1 X143.84 Y141.298 E16.74421
G1 X143.498 Y141.523 E16.76264
G1 X143.254 Y141.669 E16.77545
G1 X142.906 Y141.856 E16.79323
G1 X142.389 Y142.091 E16.8188
G1 X142.124 Y142.192 E16.83157
G1 X141.645 Y142.344 E16.85419
G1 X141.209 Y142.449 E16.87438
G1 X140.897 Y142.507 E16.88867
G1 X140.615 Y142.547 E16.90149
G1 X140.247 Y142.582 E16.91813
G1 X139.954 Y142.596 E16.93134
G1 X139.632 Y142.597 E16.94584
G1 X139.305 Y142.581 E16.96058
G1 X138.765 Y142.524 E16.98502
G1 X137.657 Y142.357 E17.03547
G1 X136.737 Y142.206 E17.07744
G1 X134.032 Y141.841 E17.20033
G1 X131.294 Y141.549 E17.3243
G1 X128.582 Y141.337 E17.44676
G1 X125.835 Y141.201 E17.57059
G1 X122.388 Y141.14 E17.7258
G1 X120.908 Y141.129 E17.79243
G1 X120.258 Y141.057 E17.82188
G1 X119.259 Y140.842 E17.86788
G1 X116.517 Y140.292 E17.99379
G1 X113.827 Y139.831 E18.11666
G1 X111.138 Y139.448 E18.23894
G1 X108.37 Y139.134 E18.36436
G1 X105.691 Y138.906 E18.48541
G1 X102.944 Y138.75 E18.60928
G1 X100.191 Y138.672 E18.73327
G1 X97.475 Y138.672 E18.85555
G1 X94.723 Y138.75 E18.97949
G1 X91.977 Y138.905 E19.10332
G1 X89.172 Y139.145 E19.23006
G1 X87.605 Y139.301 E19.30096
G1 X86.53 Y139.386 E19.34951
G1 X85.471 Y139.45 E19.39727
G1 X84.377 Y139.492 E19.44656
G1 X83.057 Y139.514 E19.506
G1 X82.296 Y139.51 E19.54026
G1 X81.793 Y139.467 E19.56299
G1 X81.146 Y139.289 E19.5932
G1 X80.83 Y139.165 E19.60848
G1 X80.376 Y138.944 E19.63121
G1 X80.074 Y138.742 E19.64757
G1 X79.811 Y138.544 E19.66239
G1 X79.433 Y138.209 E19.68513
G1 X79.146 Y137.868 E19.7052
G1 X78.95 Y137.598 E19.72022
G1 X78.687 Y137.167 E19.74295
G1 X78.563 Y136.892 E19.75653
G1 X78.427 Y136.547 E19.77323
G1 X78.29 Y136.112 E19.79376
G1 X77.6 Y133.202 E19.9284
G1 X76.89 Y130.555 E20.05178
G1 X76.11 Y127.945 E20.17442
G1 X75.249 Y125.335 E20.29816
G1 X74.317 Y122.756 E20.42162
G1 X73.57 Y120.82 E20.51504
G1 X73.425 Y120.336 E20.53779
G1 X73.356 Y119.733 E20.56511
G1 X73.334 Y118.635 E20.61455
G1 X73.331 Y105.985 E21.18407
G1 X73.341 Y105.327 E21.2137
G1 X73.389 Y104.824 E21.23644
G1 X73.558 Y104.217 E21.26481
G1 X74.448 Y101.926 E21.37546
G1 X75.368 Y99.346 E21.49878
G1 X76.207 Y96.764 E21.62101
G1 X76.986 Y94.117 E21.74523
G1 X77.681 Y91.479 E21.86805
G1 X78.081 Y89.757 E21.94764
G1 X78.362 Y88.627 E22.00006
G1 X78.522 Y88.147 E22.02284
G1 X78.839 Y87.573 E22.05236
G1 X79.108 Y87.186 E22.07358
G1 X79.429 Y86.795 E22.09636
G1 F600 E17.09636
G1 F300 Z1.1
;MESH:Nozzle Fan Case.stl
G0 F9000 X99.707 Y91.994 Z1.1
;TYPE:WALL-INNER
G1 F300 Z0.3
G1 F600 E22.09636
G1 F2711.9 X100.687 Y91.93 E22.15505
G1 F3428.6 X101.919 Y91.885 E22.21333
G1 F3966.9 X102.876 Y91.872 E22.25243
G1 F4000 X103.704 Y91.882 E22.28599
G1 F3529.4 X104.859 Y91.922 E22.33906
G1 F2834.6 X105.881 Y91.983 E22.39759
G1 F2239.5 X106.769 Y92.057 E22.46208
G0 F9000 X111.548 Y93.935
G0 X113.383 Y94.909
G0 X114.896 Y95.906
G0 X116.515 Y97.21
G0 X117.809 Y98.472
G0 X119.154 Y100.055
G0 X120.33 Y101.769
G0 X121.213 Y103.363
G0 X121.898 Y104.935
G0 X123.124 Y108.483
G1 F3600 X123.124 Y101.457 E22.7784
G1 X123.14 Y101.077 E22.79552
G1 X123.204 Y100.539 E22.81991
G1 X123.289 Y100.128 E22.83881
G1 X123.401 Y99.728 E22.85751
G1 X123.559 Y99.281 E22.87886
G1 X123.749 Y98.869 E22.89928
G1 X123.998 Y98.423 E22.92228
G1 X124.231 Y98.072 E22.94125
G1 X124.513 Y97.708 E22.96198
G1 X124.85 Y97.347 E22.98421
G1 X125.146 Y97.07 E23.00246
G1 X125.52 Y96.776 E23.02388
G1 X125.896 Y96.523 E23.04428
G1 X126.249 Y96.321 E23.06259
G1 X126.767 Y96.078 E23.08835
G1 X127.236 Y95.904 E23.11087
G1 X139.426 Y93.925 E23.66686
G1 F3469.9 X139.882 Y93.838 E23.68855
G1 F3412.3 X140.584 Y93.733 E23.72226
G1 F3404.3 X141.081 Y93.641 E23.74632
G1 F3461.5 X141.493 Y93.591 E23.76576
G1 F3600 X143.519 Y93.254 E23.85822
G1 X142.933 Y91.867 E23.92601
G1 X142.541 Y92.279 E23.95161
G1 X142.322 Y92.475 E23.96484
G1 X141.925 Y92.762 E23.9869
G1 X141.598 Y92.949 E24.00386
G1 F3564.4 X141.242 Y93.115 E24.02172
G1 F3420.4 X140.97 Y93.224 E24.0356
G1 F3404.3 X140.5 Y93.329 E24.05853
G1 F3453.2 X139.915 Y93.415 E24.08628
G1 F3503.6 X139.296 Y93.361 E24.11503
G1 F3600 X139.008 Y93.317 E24.12814
G1 X138.615 Y93.22 E24.14637
G1 X138.238 Y93.083 E24.16443
G1 X137.912 Y92.929 E24.18066
G1 X137.559 Y92.721 E24.1991
G1 X137.267 Y92.509 E24.21535
G1 X136.878 Y92.15 E24.23918
G1 X136.638 Y91.87 E24.25578
G1 X136.415 Y91.561 E24.27294
G1 X136.217 Y91.219 E24.29073
G1 X136.052 Y90.859 E24.30856
G1 X135.931 Y90.512 E24.32511
G1 X135.855 Y90.186 E24.34018
G1 X135.763 Y89.562 E24.36857
G1 X135.802 Y88.914 E24.3978
G1 X135.869 Y88.513 E24.4161
G1 X135.99 Y88.061 E24.43717
G1 X121.426 Y88.06 E25.09285
G1 X120.937 Y88.666 E25.12791
G1 X120.479 Y89.139 E25.15755
G1 X119.981 Y89.586 E25.18768
G1 X119.551 Y89.927 E25.21239
G1 X118.998 Y90.312 E25.24272
G1 X118.48 Y90.626 E25.26999
G1 X117.942 Y90.909 E25.29736
G1 X117.334 Y91.179 E25.32731
G1 X116.739 Y91.398 E25.35586
G1 X116.171 Y91.566 E25.38252
G1 X115.521 Y91.716 E25.41256
G1 X114.846 Y91.824 E25.44333
G1 X114.31 Y91.876 E25.46758
G1 X113.674 Y91.9 E25.49623
G1 X107.966 Y91.899 E25.75321
G1 F3083.5 X107.398 Y91.966 E25.78327
G1 F2396 X106.83 Y92.033 E25.82196
G1 F2345.3 X106.747 Y92.066 E25.82813
G1 F3006.3 X107.903 Y92.472 E25.89419
G1 F3600 X108.816 Y92.723 E25.93682
G1 X109.71 Y93.01 E25.97909
G1 X110.798 Y93.427 E26.03155
G1 X111.602 Y93.779 E26.07106
G1 X112.448 Y94.202 E26.11364
G1 X113.479 Y94.78 E26.16686
G1 X114.227 Y95.248 E26.20658
G1 X114.963 Y95.758 E26.24689
G1 X115.929 Y96.498 E26.30168
G1 X116.644 Y97.109 E26.34402
G1 X117.264 Y97.689 E26.38224
G1 X117.927 Y98.36 E26.42471
G1 X118.727 Y99.268 E26.47919
G1 X119.282 Y99.957 E26.51902
G1 X119.813 Y100.683 E26.55952
G1 X120.47 Y101.695 E26.61384
G1 X120.942 Y102.498 E26.65577
G1 X121.372 Y103.319 E26.6975
G1 X121.878 Y104.414 E26.75181
G1 X122.198 Y105.218 E26.79076
G1 X122.601 Y106.395 E26.84677
G1 X122.858 Y107.289 E26.88865
G1 X123.073 Y108.2 E26.93079
G1 X123.124 Y108.483 E26.94374
G0 F9000 X123.247 Y110.302
G0 X123.327 Y111.258
G0 X123.35 Y113.292
G0 X123.316 Y113.823
G0 X121.444 Y136.94
G1 F3600 X135.984 Y136.935 E27.59834
G1 X135.841 Y136.33 E27.62633
G1 X135.764 Y135.782 E27.65125
G1 X135.793 Y135.231 E27.67609
G1 X135.847 Y134.842 E27.69377
G1 X135.95 Y134.428 E27.71297
G1 X136.113 Y133.996 E27.73376
G1 X136.3 Y133.62 E27.75267
G1 X136.5 Y133.309 E27.76931
G1 X136.68 Y133.073 E27.78268
G1 X136.964 Y132.762 E27.80164
G1 X137.235 Y132.517 E27.81809
G1 X137.541 Y132.289 E27.83527
G1 X137.853 Y132.096 E27.85178
G1 X138.222 Y131.921 E27.87017
G1 X138.676 Y131.76 E27.89186
G1 X139.05 Y131.673 E27.90914
G1 F3396.2 X139.626 Y131.576 E27.93702
G1 F3318 X140.153 Y131.616 E27.96284
G1 F3453.2 X140.549 Y131.674 E27.98162
G1 F3364.5 X141.036 Y131.789 E28.00572
G1 F3388.2 X141.307 Y131.907 E28.01986
G1 F3555.6 X141.72 Y132.115 E28.04094
G1 F3600 X142 Y132.287 E28.05574
G1 X142.379 Y132.573 E28.07711
G1 X142.653 Y132.832 E28.09409
G1 X142.926 Y133.144 E28.11275
G1 X143.516 Y131.742 E28.18123
G1 X141.564 Y131.414 E28.27035
G1 F3428.6 X141.148 Y131.366 E28.29014
G1 F3364.5 X140.615 Y131.265 E28.31627
G1 F3333.3 X139.66 Y131.129 E28.36318
G1 F3396.2 X138.924 Y130.985 E28.39897
