;FLAVOR:Marlin
;TIME:1036
;Filament used: 0.878558m
;Layer height: 0.2
;MINX:86.4
;MINY:95.4
;MINZ:0.3
;MAXX:133.6
;MAXY:124.6
;MAXZ:2.9
;TARGET_MACHINE.NAME:Anet ET4 Pro
;POSTPROCESSED
;  [CreateThumbnail]
;Generated with Cura_SteamEngine 5.7.0
;
;

M82 ;absolute extrusion mode
M104 S235.0  ; Start heating up the nozzle most of the way
M190 S80.0 ; Start heating the bed, wait until target temperature reached
M109 S235.0 ; Finish heating the nozzle
G92 E0 ; Reset Extruder
G28 ; Home all axes
G1 Z2.0 F3000 ; Move Z Axis up little to prevent scratching of Heat Bed
G1 X1 Y20 Z0.3 F5000.0 ; Move to start position
G1 X1 Y200.0 Z0.3 F1500.0 E15 ; Draw the first line
G1 X1.5 Y200.0 Z0.3 F5000.0 ; Move to side a little
G1 X1.5 Y20 Z0.3 F1500.0 E30 ; Draw the second line
G92 E0
G1 Z2.0 F3000
G1 X5 Y20 Z0.3 F5000.0
G92 E0
G92 E0
G1 F900 E-5
;LAYER_COUNT:14
;LAYER:0
M107
M204 S2000
G1 F300 Z1.1
G0 F9000 X87.535 Y96.395 Z1.1
;TYPE:SKIRT
G1 F300 Z0.3
G1 F900 E0
G1 F3600 X87.978 Y96.038 E0.02561
G1 X88.471 Y95.755 E0.05121
G1 X88.942 Y95.571 E0.07397
G1 X89.549 Y95.439 E0.10194
G1 X89.908 Y95.41 E0.11815
G1 X90.24 Y95.401 E0.13311
G1 X129.345 Y95.4 E1.89365
G1 X130.043 Y95.41 E1.92508
G1 X130.64 Y95.47 E1.95209
G1 X131.19 Y95.616 E1.97771
G1 X131.654 Y95.818 E2.00049
G1 X132.135 Y96.12 E2.02606
G1 X132.608 Y96.539 E2.05451
G1 X132.963 Y96.981 E2.08003
G1 X133.246 Y97.475 E2.10566
G1 X133.447 Y98.006 E2.13123
G1 X133.562 Y98.553 E2.15639
G1 X133.59 Y98.909 E2.17247
G1 X133.599 Y99.24 E2.18738
G1 X133.6 Y120.309 E3.13592
G1 X133.591 Y121.036 E3.16865
G1 X133.533 Y121.633 E3.19566
G1 X133.387 Y122.183 E3.22128
G1 X133.157 Y122.702 E3.24683
G1 X132.848 Y123.18 E3.27246
G1 X132.467 Y123.603 E3.29809
G1 X132.026 Y123.96 E3.32363
G1 X131.532 Y124.244 E3.34929
G1 X131.001 Y124.445 E3.37485
G1 X130.455 Y124.561 E3.39998
G1 X130.092 Y124.59 E3.41637
G1 X129.76 Y124.599 E3.43133
G1 X90.661 Y124.6 E5.1916
G1 X89.963 Y124.591 E5.22303
G1 X89.365 Y124.532 E5.25008
G1 X88.815 Y124.386 E5.2757
G1 X88.295 Y124.155 E5.30132
G1 X87.819 Y123.847 E5.32684
G1 X87.396 Y123.466 E5.35247
G1 X87.039 Y123.023 E5.37808
G1 X86.756 Y122.531 E5.40364
G1 X86.554 Y121.999 E5.42926
G1 X86.439 Y121.453 E5.45438
G1 X86.41 Y121.088 E5.47086
G1 X86.401 Y120.744 E5.48635
G1 X86.4 Y99.626 E6.43711
G1 X86.409 Y98.961 E6.46705
G1 X86.469 Y98.362 E6.49415
G1 X86.615 Y97.814 E6.51968
G1 X86.845 Y97.295 E6.54524
G1 X87.155 Y96.817 E6.57089
G1 X87.535 Y96.395 E6.59646
G0 F9000 X87.789 Y96.704
G1 F3600 X88.18 Y96.383 E6.61923
G1 X88.617 Y96.128 E6.64201
G1 X89.088 Y95.944 E6.66478
G1 X89.582 Y95.838 E6.68752
G1 X89.919 Y95.81 E6.70275
G1 X90.24 Y95.801 E6.7172
G1 X129.339 Y95.8 E8.47748
G1 X130.037 Y95.81 E8.5089
G1 X130.54 Y95.857 E8.53165
G1 X131.03 Y95.983 E8.55443
G1 X131.494 Y96.185 E8.57721
G1 X131.92 Y96.457 E8.59997
G1 X132.298 Y96.792 E8.6227
G1 X132.618 Y97.183 E8.64545
G1 X132.873 Y97.62 E8.66823
G1 X133.056 Y98.091 E8.69098
G1 X133.163 Y98.585 E8.71374
G1 X133.19 Y98.92 E8.72887
G1 X133.199 Y99.24 E8.74328
G1 X133.2 Y120.304 E9.6916
G1 X133.191 Y121.031 E9.72433
G1 X133.145 Y121.534 E9.74707
G1 X133.02 Y122.024 E9.76984
G1 X132.819 Y122.488 E9.7926
G1 X132.548 Y122.915 E9.81537
G1 X132.213 Y123.294 E9.83815
G1 X131.823 Y123.615 E9.86089
G1 X131.387 Y123.871 E9.88365
G1 X130.916 Y124.054 E9.9064
G1 X130.422 Y124.162 E9.92916
G1 X130.081 Y124.19 E9.94457
G1 X129.76 Y124.199 E9.95903
G1 X90.666 Y124.2 E11.71907
G1 X89.968 Y124.191 E11.7505
G1 X89.464 Y124.144 E11.77329
G1 X88.974 Y124.019 E11.79606
G1 X88.51 Y123.818 E11.81882
G1 X88.084 Y123.547 E11.84155
G1 X87.705 Y123.212 E11.86433
G1 X87.384 Y122.821 E11.8871
G1 X87.129 Y122.385 E11.90984
G1 X86.945 Y121.914 E11.93261
G1 X86.838 Y121.42 E11.95536
G1 X86.81 Y121.077 E11.97086
G1 X86.801 Y120.744 E11.98585
G1 X86.8 Y99.631 E12.93638
G1 X86.809 Y98.966 E12.96632
G1 X86.856 Y98.462 E12.98911
G1 X86.982 Y97.973 E13.01185
G1 X87.183 Y97.509 E13.03461
G1 X87.454 Y97.082 E13.05738
G1 X87.789 Y96.704 E13.08012
G1 F900 E8.08012
G1 F300 Z1.1
;MESH:Body1.stl
G0 F9000 X95.356 Y112.73 Z1.1
;TYPE:WALL-INNER
G1 F300 Z0.3
G1 F900 E13.08012
G1 F3600 X94.854 Y112.743 E13.10273
G1 X94.391 Y112.69 E13.12371
G1 X93.913 Y112.527 E13.14644
G1 X93.481 Y112.298 E13.16846
G1 X93.097 Y111.989 E13.19065
G1 X92.767 Y111.615 E13.2131
G1 X92.518 Y111.192 E13.2352
G1 X92.344 Y110.735 E13.25722
G1 X92.256 Y110.246 E13.27959
G1 X92.256 Y109.751 E13.30187
G1 X92.343 Y109.264 E13.32414
G1 X92.518 Y108.804 E13.3463
G1 X92.767 Y108.382 E13.36836
G1 X93.099 Y108.004 E13.39101
G1 X93.484 Y107.702 E13.41304
G1 X93.91 Y107.469 E13.4349
G1 X94.395 Y107.311 E13.45786
G1 X94.854 Y107.253 E13.47869
G1 X95.368 Y107.266 E13.50184
G1 X95.859 Y107.383 E13.52457
G1 X96.305 Y107.579 E13.5465
G1 X96.719 Y107.851 E13.5688
G1 X97.082 Y108.197 E13.59138
G1 X97.372 Y108.613 E13.61421
G1 X97.582 Y109.057 E13.63632
G1 X97.709 Y109.513 E13.65763
G1 X97.753 Y110.005 E13.67987
G1 X97.697 Y110.527 E13.7035
G1 X97.583 Y110.94 E13.72279
G1 X97.371 Y111.397 E13.74547
G1 X97.087 Y111.791 E13.76734
G1 X96.715 Y112.155 E13.79077
G1 X96.305 Y112.417 E13.81268
G1 X95.86 Y112.617 E13.83464
G1 X95.356 Y112.73 E13.8579
G0 F9000 X95.34 Y112.324
G1 F3600 X94.879 Y112.343 E13.87867
G1 X94.473 Y112.296 E13.89707
G1 X94.027 Y112.135 E13.91842
G1 X93.706 Y111.965 E13.93477
G1 X93.374 Y111.698 E13.95395
G1 X93.092 Y111.379 E13.97312
G1 X92.88 Y111.02 E13.99189
G1 X92.731 Y110.626 E14.01085
G1 X92.656 Y110.21 E14.02988
G1 X92.656 Y109.787 E14.04893
G1 X92.731 Y109.369 E14.06805
G1 X92.88 Y108.976 E14.08697
G1 X93.092 Y108.617 E14.10574
G1 X93.382 Y108.288 E14.12549
G1 X93.749 Y108.012 E14.14616
G1 X94.07 Y107.837 E14.16262
G1 X94.48 Y107.704 E14.18202
G1 X94.878 Y107.653 E14.20009
G1 X95.314 Y107.666 E14.21973
G1 X95.73 Y107.764 E14.23897
G1 X96.113 Y107.929 E14.25774
G1 X96.467 Y108.162 E14.27682
G1 X96.777 Y108.459 E14.29615
G1 X97.023 Y108.809 E14.31541
G1 X97.204 Y109.188 E14.33432
G1 X97.312 Y109.584 E14.3528
G1 X97.347 Y109.965 E14.37002
G1 X97.313 Y110.424 E14.39075
G1 X97.191 Y110.846 E14.41052
G1 X97.003 Y111.225 E14.42957
G1 X96.75 Y111.568 E14.44876
G1 X96.465 Y111.836 E14.46637
G1 X96.113 Y112.067 E14.48533
G1 X95.729 Y112.237 E14.50423
G1 X95.34 Y112.324 E14.52218
G0 F9000 X95.406 Y112.618
G0 X103.861 Y113.285
G0 X104.973 Y113.416
G0 X105.603 Y113.925
G1 F3044.4 X105.89 Y114.196 E14.54319
G1 X106.071 Y114.393 E14.55743
G0 F9000 X106.584 Y115.027
G0 X107.524 Y115.564
G0 X108.733 Y115.958
G0 X110 Y116.091
G0 X111.267 Y115.958
G0 X112.476 Y115.564
G0 X113.416 Y115.027
G0 X113.936 Y114.385
G1 F3063.8 X114.151 Y114.151 E14.57424
G1 F3031.6 X114.405 Y113.913 E14.59285
G0 F9000 X115.027 Y113.416
G0 X115.657 Y113.313
G0 X116.112 Y113.359
G0 X116.554 Y113.492
G0 X116.958 Y113.708
G0 X117.314 Y113.999
G0 X117.606 Y114.355
G0 X117.822 Y114.761
G0 X117.955 Y115.2
G0 X118.001 Y115.657
G0 X117.955 Y116.112
G0 X117.822 Y116.554
G0 X117.606 Y116.958
G0 X117.315 Y117.315
G0 X116.958 Y117.606
G0 X115.656 Y118.156
G1 F3600 X115.177 Y118.116 E14.61449
G1 X114.696 Y117.969 E14.63714
G1 X114.26 Y117.74 E14.65931
G1 X113.886 Y117.427 E14.68127
G1 X113.574 Y117.055 E14.70312
G1 X113.338 Y116.596 E14.72636
G1 X113.2 Y116.124 E14.7485
G1 X113.16 Y115.753 E14.7653
G1 X113.177 Y115.389 E14.78171
G1 X112.571 Y115.693 E14.81223
G1 X111.982 Y115.923 E14.8407
G1 X111.257 Y116.122 E14.87454
G1 X110.603 Y116.219 E14.90431
G1 X110 Y116.248 E14.93149
G1 X109.393 Y116.219 E14.95885
G1 X108.756 Y116.125 E14.98784
G1 X108.107 Y115.953 E15.01806
G1 X107.427 Y115.694 E15.05082
G1 X106.823 Y115.388 E15.08131
G1 X106.84 Y115.753 E15.09776
G1 X106.795 Y116.172 E15.11673
G1 X106.639 Y116.642 E15.13902
G1 X106.419 Y117.058 E15.16021
G1 X106.111 Y117.426 E15.18181
G1 X105.736 Y117.74 E15.20383
G1 X105.3 Y117.972 E15.22607
G1 X104.805 Y118.114 E15.24925
G1 X104.34 Y118.156 E15.27027
G1 X103.859 Y118.116 E15.292
G1 X103.382 Y117.968 E15.31449
G1 X102.951 Y117.737 E15.3365
G1 X102.575 Y117.434 E15.35824
G1 X102.258 Y117.048 E15.38073
G1 X102.027 Y116.612 E15.40295
G1 X101.88 Y116.139 E15.42524
G1 X101.84 Y115.665 E15.44666
G1 X101.885 Y115.161 E15.46944
G1 X102.024 Y114.716 E15.49043
G1 X102.247 Y114.29 E15.51208
G1 X102.575 Y113.878 E15.53579
G1 X102.95 Y113.577 E15.55744
G1 X103.395 Y113.339 E15.58016
G1 X103.872 Y113.2 E15.60252
G1 X104.243 Y113.16 E15.61932
G1 X104.607 Y113.177 E15.63573
G1 X104.303 Y112.571 E15.66625
G1 X104.073 Y111.982 E15.69472
G1 X103.884 Y111.287 E15.72715
G1 X103.785 Y110.66 E15.75572
G1 X103.749 Y109.942 E15.78809
G1 X103.785 Y109.336 E15.81542
G1 X103.884 Y108.708 E15.84404
G1 X104.041 Y108.114 E15.8717
G1 X104.302 Y107.427 E15.90479
G1 X104.608 Y106.823 E15.93527
G1 X104.243 Y106.84 E15.95172
G1 X103.831 Y106.795 E15.97038
G1 X103.374 Y106.653 E15.99193
G1 X102.953 Y106.425 E16.01348
G1 X102.573 Y106.115 E16.03556
G1 X102.249 Y105.709 E16.05895
G1 X102.023 Y105.296 E16.08014
G1 X101.883 Y104.808 E16.103
G1 X101.835 Y104.338 E16.12427
G1 X101.882 Y103.854 E16.14616
G1 X102.028 Y103.38 E16.16849
G1 X102.26 Y102.949 E16.19053
G1 X102.572 Y102.565 E16.2128
G1 X102.95 Y102.26 E16.23467
G1 X103.386 Y102.025 E16.25697
G1 X103.879 Y101.882 E16.28008
G1 X104.34 Y101.84 E16.30092
G1 X104.823 Y101.88 E16.32274
G1 X105.31 Y102.029 E16.34566
G1 X105.741 Y102.265 E16.36779
G1 X106.112 Y102.571 E16.38944
G1 X106.422 Y102.946 E16.41134
G1 X106.66 Y103.393 E16.43414
G1 X106.8 Y103.874 E16.4567
G1 X106.84 Y104.243 E16.47341
G1 X106.823 Y104.608 E16.48986
G1 X107.427 Y104.302 E16.52034
G1 X108.114 Y104.041 E16.55343
G1 X108.739 Y103.878 E16.58251
G1 X109.386 Y103.781 E16.61196
G1 X110.058 Y103.749 E16.64225
G1 X110.61 Y103.781 E16.66714
G1 X111.342 Y103.897 E16.70051
G1 X111.982 Y104.073 E16.73039
G1 X112.587 Y104.31 E16.75964
G1 X113.178 Y104.618 E16.78965
G1 X113.16 Y104.243 E16.80655
G1 X113.2 Y103.872 E16.82335
G1 X113.341 Y103.39 E16.84596
G1 X113.575 Y102.946 E16.86855
G1 X113.883 Y102.572 E16.89037
G1 X114.258 Y102.262 E16.91227
G1 X114.699 Y102.024 E16.93483
G1 X115.195 Y101.882 E16.95806
G1 X115.656 Y101.84 E16.9789
G1 X116.138 Y101.88 E17.00068
G1 X116.614 Y102.028 E17.02312
G1 X117.052 Y102.26 E17.04543
G1 X117.431 Y102.573 E17.06756
G1 X117.736 Y102.949 E17.08936
G1 X117.968 Y103.38 E17.11139
G1 X118.114 Y103.853 E17.13368
G1 X118.162 Y104.342 E17.1558
G1 X118.109 Y104.85 E17.1788
G1 X117.958 Y105.329 E17.20141
G1 X117.716 Y105.762 E17.22374
G1 X117.446 Y106.085 E17.24269
G1 X117.064 Y106.417 E17.26548
G1 X116.642 Y106.639 E17.28695
G1 X116.167 Y106.796 E17.30947
G1 X115.753 Y106.84 E17.32821
G1 X115.389 Y106.824 E17.34462
G1 X115.727 Y107.502 E17.37872
G1 X115.953 Y108.107 E17.4078
G1 X116.115 Y108.705 E17.43569
G1 X116.216 Y109.34 E17.46464
G1 X116.248 Y110.001 E17.49443
G1 X116.215 Y110.656 E17.52396
G1 X116.115 Y111.291 E17.5529
G1 X115.923 Y111.982 E17.58519
G1 X115.686 Y112.587 E17.61444
G1 X115.386 Y113.178 E17.64428
G1 X115.753 Y113.16 E17.66082
G1 X116.124 Y113.2 E17.67762
G1 X116.608 Y113.341 E17.70032
G1 X117.05 Y113.572 E17.72277
G1 X117.445 Y113.91 E17.74618
G1 X117.75 Y114.276 E17.76763
G1 X117.975 Y114.712 E17.78971
G1 X118.113 Y115.191 E17.81216
G1 X118.161 Y115.658 E17.83329
G1 X118.114 Y116.144 E17.85527
G1 X117.969 Y116.612 E17.87733
G1 X117.738 Y117.048 E17.89955
G1 X117.427 Y117.427 E17.92162
G1 X117.047 Y117.738 E17.94373
G1 X116.606 Y117.972 E17.9662
G1 X116.117 Y118.114 E17.98913
G1 X115.656 Y118.156 E18.00997
G0 F9000 X116.554 Y117.822
G0 X124.642 Y112.73
G1 F3600 X124.144 Y112.62 E18.03293
G1 X123.693 Y112.423 E18.05508
G1 X123.277 Y112.145 E18.07761
G1 X122.916 Y111.795 E18.10025
G1 X122.628 Y111.395 E18.12244
G1 X122.431 Y110.989 E18.14275
G1 X122.285 Y110.477 E18.16672
G1 X122.248 Y110.001 E18.18822
G1 X122.285 Y109.519 E18.20998
G1 X122.424 Y109.017 E18.23343
G1 X122.627 Y108.607 E18.25403
G1 X122.914 Y108.196 E18.2766
G1 X123.277 Y107.851 E18.29915
G1 X123.691 Y107.579 E18.32145
G1 X124.135 Y107.384 E18.34328
G1 X124.637 Y107.267 E18.36649
G1 X125.126 Y107.249 E18.38852
G1 X125.604 Y107.312 E18.41022
G1 X126.081 Y107.467 E18.4328
G1 X126.512 Y107.698 E18.45482
G1 X126.903 Y108.006 E18.47723
G1 X127.226 Y108.377 E18.49937
G1 X127.484 Y108.804 E18.52183
G1 X127.654 Y109.271 E18.54421
G1 X127.74 Y109.751 E18.56616
G1 X127.74 Y110.252 E18.58872
G1 X127.654 Y110.724 E18.61032
G1 X127.484 Y111.191 E18.63269
G1 X127.226 Y111.619 E18.65519
G1 X126.905 Y111.988 E18.67721
G1 X126.515 Y112.301 E18.69972
G1 X126.089 Y112.524 E18.72137
G1 X125.606 Y112.69 E18.74436
G1 X125.143 Y112.743 E18.76534
G1 X124.642 Y112.73 E18.78791
G0 F9000 X124.691 Y112.331
G1 F3600 X124.266 Y112.237 E18.8075
G1 X123.883 Y112.067 E18.82637
G1 X123.529 Y111.834 E18.84545
G1 X123.25 Y111.567 E18.86283
G1 X122.975 Y111.196 E18.88363
G1 X122.795 Y110.827 E18.90211
G1 X122.683 Y110.41 E18.92155
G1 X122.648 Y109.969 E18.94147
G1 X122.683 Y109.586 E18.95878
G1 X122.791 Y109.191 E18.97722
G1 X122.996 Y108.771 E18.99826
G1 X123.22 Y108.462 E19.01544
G1 X123.529 Y108.162 E19.03483
G1 X123.883 Y107.929 E19.05391
G1 X124.27 Y107.762 E19.07288
G1 X124.66 Y107.672 E19.0909
G1 X125.08 Y107.652 E19.10983
G1 X125.514 Y107.703 E19.12951
G1 X125.921 Y107.836 E19.14878
G1 X126.293 Y108.035 E19.16778
G1 X126.625 Y108.295 E19.18676
G1 X126.902 Y108.615 E19.20582
G1 X127.12 Y108.975 E19.22477
G1 X127.266 Y109.375 E19.24394
G1 X127.34 Y109.788 E19.26283
G1 X127.34 Y110.216 E19.28209
G1 X127.266 Y110.62 E19.30059
G1 X127.12 Y111.021 E19.3198
G1 X126.902 Y111.381 E19.33875
G1 X126.63 Y111.695 E19.35745
G1 X126.295 Y111.964 E19.37679
G1 X125.966 Y112.137 E19.39353
G1 X125.523 Y112.296 E19.41472
G1 X125.118 Y112.343 E19.43307
G1 X124.691 Y112.331 E19.4523
G0 F9000 X124.678 Y112.631
G0 X129 Y120
G1 F3600 X129 Y100 E20.35272
G1 X91 Y100 E22.06352
G1 X91 Y120 E22.96394
G1 X129 Y120 E24.67473
G0 F9000 X129.4 Y120.4
G1 F3600 X129.4 Y99.6 E25.61117
G1 X90.6 Y99.6 E27.35798
G1 X90.6 Y120.4 E28.29441
G1 X129.4 Y120.4 E30.04122
G0 F9000 X129.13 Y120.13
G0 X115.027 Y106.584
G0 X114.379 Y106.055
G1 F3063.8 X114.196 Y105.89 E30.05426
G1 F3025.2 X113.909 Y105.587 E30.07662
G0 F9000 X113.416 Y104.973
G0 X112.476 Y104.436
G0 X111.267 Y104.042
G0 X110 Y103.909
G0 X108.733 Y104.042
G0 X107.524 Y104.436
G0 X106.584 Y104.973
G0 X106.071 Y105.603
G1 F3063.8 X105.847 Y105.847 E30.09414
G1 X105.603 Y106.071 E30.11166
G0 F9000 X104.973 Y106.584
G0 X104.436 Y107.524
G0 X104.042 Y108.733
G0 X102.045 Y115.2
G0 X101.999 Y115.657
G0 X102.045 Y116.112
G0 X102.178 Y116.554
G0 X102.394 Y116.958
G0 X102.685 Y117.315
G0 X103.042 Y117.606
G0 X103.446 Y117.822
G0 X103.888 Y117.955
G0 X115.686 Y118.058
G0 X115.657 Y117.76
G1 F3600 X115.252 Y117.72 E30.12998
G1 X114.849 Y117.597 E30.14895
G1 X114.484 Y117.406 E30.1675
G1 X114.17 Y117.142 E30.18597
G1 X113.905 Y116.826 E30.20454
G1 X113.704 Y116.423 E30.22481
G1 X113.593 Y116.052 E30.24225
G1 X113.552 Y115.657 E30.26012
G1 X113.591 Y115.253 E30.2784
G1 X113.703 Y114.886 E30.29567
G1 F3428.6 X113.91 Y114.402 E30.32056
G1 X113.547 Y114.643 E30.34115
G1 F3600 X113.409 Y114.752 E30.34907
G1 X112.891 Y115.084 E30.37677
G1 X112.351 Y115.353 E30.40393
G1 X111.783 Y115.567 E30.43126
G1 X111.238 Y115.717 E30.45671
G1 X110.583 Y115.82 E30.48656
G1 X109.969 Y115.848 E30.51423
G1 X109.413 Y115.82 E30.53929
G1 X108.753 Y115.715 E30.56938
G1 X108.157 Y115.549 E30.59723
G1 X107.645 Y115.353 E30.62192
G1 X107.108 Y115.084 E30.64896
G1 X106.538 Y114.715 E30.67953
G1 X106.444 Y114.639 E30.68497
G1 F3412.3 X106.091 Y114.406 E30.70506
G1 X106.302 Y114.904 E30.73075
G1 F3600 X106.409 Y115.253 E30.74718
G1 X106.448 Y115.658 E30.7655
G1 X106.407 Y116.051 E30.78329
G1 X106.275 Y116.476 E30.80332
G1 X106.104 Y116.8 E30.81982
G1 X105.83 Y117.139 E30.83944
G1 X105.514 Y117.404 E30.85801
G1 X105.148 Y117.599 E30.87668
G1 X104.736 Y117.72 E30.89601
G1 X104.341 Y117.76 E30.91388
G1 X103.932 Y117.72 E30.93239
G1 X103.535 Y117.597 E30.9511
G1 X103.177 Y117.404 E30.96941
G1 X102.854 Y117.144 E30.98808
G1 X102.591 Y116.823 E31.00676
G1 X102.399 Y116.461 E31.02521
G1 X102.276 Y116.064 E31.04392
G1 X102.236 Y115.654 E31.06246
