;FLAVOR:Marlin
;TIME:7789
;Filament used: 9.96996m
;Layer height: 0.2
;MINX:53.8
;MINY:46.3
;MINZ:0.3
;MAXX:166.2
;MAXY:158.7
;MAXZ:17.7
;TARGET_MACHINE.NAME:Anet ET4 Pro
;POSTPROCESSED
;  [CreateThumbnail]
;Generated with Cura_SteamEngine 5.7.0
;
;

M82 ;absolute extrusion mode
M104 S250.0  ; Start heating up the nozzle most of the way
M190 S100.0 ; Start heating the bed, wait until target temperature reached
M109 S250.0 ; Finish heating the nozzle
G92 E0 ; Reset Extruder
G28 ; Home all axes
G1 Z2.0 F3000 ; Move Z Axis up little to prevent scratching of Heat Bed
G1 X1 Y20 Z0.3 F5000.0 ; Move to start position
G1 X1 Y200.0 Z0.3 F1500.0 E15 ; Draw the first line
G1 X1.5 Y200.0 Z0.3 F5000.0 ; Move to side a little
G1 X1.5 Y20 Z0.3 F1500.0 E30 ; Draw the second line
G92 E0
G1 Z2.0 F3000
G1 X5 Y20 Z0.3 F5000.0
M141 S36
G92 E0
G92 E0
G1 F2400 E-4
;LAYER_COUNT:84
;LAYER:0
M107
M204 S2500
G1 F300 Z1.1
G0 F6000 X55.059 Y48.102 Z1.1
;TYPE:SKIRT
G1 F300 Z0.3
G1 F2400 E0
G1 X55.387 Y47.773 E0.02026
G1 X55.716 Y47.487 E0.03927
G1 X56.147 Y47.16 E0.06287
G1 X56.623 Y46.891 E0.08672
G1 X56.905 Y46.756 E0.10035
G1 X57.427 Y46.56 E0.12467
G1 X57.9 Y46.428 E0.14609
G1 X58.396 Y46.331 E0.16813
G1 X58.692 Y46.311 E0.18107
G1 X59.23 Y46.3 E0.20454
G1 X160.499 Y46.306 E4.62129
G1 X161.201 Y46.316 E4.65191
G1 X161.698 Y46.362 E4.67368
G1 X162.058 Y46.424 E4.68961
G1 X162.561 Y46.554 E4.71227
G1 X162.879 Y46.664 E4.72694
G1 X163.528 Y46.974 E4.75831
G1 X163.925 Y47.222 E4.77873
G1 X164.453 Y47.634 E4.80794
G1 X164.746 Y47.917 E4.8257
G1 X165.144 Y48.383 E4.85243
G1 X165.329 Y48.647 E4.86649
G1 X165.63 Y49.178 E4.89311
G1 X165.827 Y49.619 E4.91418
G1 X166.033 Y50.248 E4.94304
G1 X166.108 Y50.595 E4.95853
G1 X166.179 Y51.21 E4.98553
G1 X166.199 Y52.261 E5.03137
G1 X166.2 Y152.878 E9.41969
G1 X166.19 Y153.584 E9.45048
G1 X166.164 Y153.946 E9.46631
G1 X166.11 Y154.367 E9.48482
G1 X165.994 Y154.902 E9.5087
G1 X165.885 Y155.256 E9.52485
G1 X165.699 Y155.726 E9.5469
G1 X165.557 Y155.983 E9.5597
G1 X165.332 Y156.351 E9.57851
G1 X165.002 Y156.799 E9.60278
G1 X164.703 Y157.138 E9.6225
G1 X164.34 Y157.489 E9.64452
G1 X164.04 Y157.708 E9.66072
G1 X163.61 Y157.986 E9.68305
G1 X163.165 Y158.226 E9.7051
G1 X162.889 Y158.333 E9.71801
G1 X162.489 Y158.467 E9.73641
G1 X162.026 Y158.585 E9.75725
G1 X161.718 Y158.639 E9.77089
G1 X161.231 Y158.686 E9.79223
G1 X160.583 Y158.699 E9.82049
G1 X59.684 Y158.7 E14.2211
G1 X58.76 Y158.679 E14.26141
G1 X58.254 Y158.636 E14.28356
G1 X57.755 Y158.553 E14.30563
G1 X57.364 Y158.429 E14.32352
G1 X56.925 Y158.258 E14.34406
G1 X56.327 Y157.949 E14.37342
G1 X56.049 Y157.766 E14.38794
G1 X55.618 Y157.427 E14.41185
G1 X55.294 Y157.123 E14.43123
G1 X54.836 Y156.586 E14.46201
G1 X54.595 Y156.231 E14.48072
G1 X54.269 Y155.645 E14.50997
G1 X54.07 Y155.094 E14.53552
G1 X53.973 Y154.751 E14.55107
G1 X53.877 Y154.282 E14.57195
G1 X53.835 Y153.95 E14.58654
G1 X53.81 Y153.598 E14.60193
G1 X53.801 Y152.97 E14.62933
G1 X53.8 Y51.982 E19.03382
G1 X53.809 Y51.329 E19.0623
G1 X53.866 Y50.769 E19.08685
G1 X53.939 Y50.389 E19.10373
G1 X54.101 Y49.829 E19.12915
G1 X54.26 Y49.422 E19.14821
G1 X54.516 Y48.909 E19.17321
G1 X54.761 Y48.511 E19.1936
G1 X55.059 Y48.102 E19.21567
G1 F2400 E15.21567
G1 F300 Z1.1
;MESH:cover4.STL
G0 F6000 X96.142 Y126.594 Z1.1
;TYPE:WALL-OUTER
G1 F300 Z0.3
G1 F2400 E19.21567
G1 F1893.5 X96.575 Y125.986 E19.25693
G1 F1889.8 X97.199 Y125.986 E19.2915
G1 F1893.5 X96.765 Y126.594 E19.33279
G1 X96.142 Y126.594 E19.36723
G0 F6000 X96.342 Y126.594
G1 F2400 E15.36723
G1 F300 Z1.1
G0 F6000 X94.473 Y128.988 Z1.1
G1 F300 Z0.3
G1 F2400 E19.36723
G1 F1846.2 X95.112 Y128.067 E19.43079
G1 F1849.7 X95.738 Y128.067 E19.46621
G1 F1846.2 X95.11 Y128.988 E19.52942
G1 F1842.6 X94.473 Y128.988 E19.5656
G0 F6000 X94.673 Y128.988
G1 F2400 E15.5656
G1 F300 Z1.1
G0 F6000 X91.61 Y127.611 Z1.1
;TYPE:WALL-INNER
G1 F300 Z0.3
G1 F2400 E19.5656
G1 F2681.6 X91.588 Y127.649 E19.56732
G1 X91.522 Y127.611 E19.57029
G1 X91.587 Y127.573 E19.57323
G0 F6000 X93.423 Y125.509
G1 F2008.4 X93.597 Y125.273 E19.58851
G1 F2400 E15.58851
G1 F300 Z1.1
G0 F6000 X94.264 Y123.929 Z1.1
G0 X88.852 Y126.313
G1 F300 Z0.3
G1 F2400 E19.58851
G1 F2774.6 X88.83 Y126.35 E19.59013
G1 X88.766 Y126.313 E19.59292
G1 X88.83 Y126.276 E19.59571
G1 F2400 E15.59571
G1 F300 Z1.1
G0 F6000 X87.185 Y128.41 Z1.1
G1 F300 Z0.3
G1 F2400 E19.59571
G1 F2025.3 X87.127 Y128.41 E19.59871
G1 X87.097 Y128.461 E19.60177
G1 X87.127 Y128.512 E19.60482
G1 X87.185 Y128.512 E19.60782
G1 X87.215 Y128.461 E19.61088
G1 F2400 E15.61088
G1 F300 Z1.1
G0 F6000 X84.553 Y127.347 Z1.1
G1 F300 Z0.3
G1 F2400 E19.61088
G1 F2133.3 X84.525 Y127.395 E19.61361
G1 X84.47 Y127.395 E19.61631
G1 X84.441 Y127.347 E19.61906
G1 X84.469 Y127.299 E19.62178
G1 X84.524 Y127.299 E19.62448
G0 F6000 X84.82 Y127.529
G0 X85.437 Y127.771
G1 F2400 X85.156 Y127.564 E19.6397
G1 X84.898 Y127.237 E19.65787
G1 F2029.6 X84.838 Y126.838 E19.67868
G1 F1548.4 X84.778 Y126.439 E19.70596
G1 F1705.2 X84.434 Y126.684 E19.73188
G1 F2307.7 X84.049 Y127.252 E19.76301
G1 F1811.3 X83.74 Y127.934 E19.80627
G1 X84.324 Y127.772 E19.8413
G1 F2400 X85.437 Y127.771 E19.88984
G0 F6000 X84.82 Y127.529
G0 X84.627 Y126.81
G0 X84.778 Y126.439
G1 F1432.8 X84.96 Y126.129 E19.9161
G1 F1470.1 X85.484 Y125.37 E19.98177
G0 F6000 X85.905 Y124.647
G0 X84.163 Y127.526
G0 X83.74 Y127.934
G1 F1514.2 X82.964 Y129.03 E20.0746
G1 F1558.4 X82.873 Y129.18 E20.08639
G0 F6000 X82.624 Y129.739
G0 X82.888 Y130.617
G0 X83.568 Y131.015
G0 X96.283 Y131.134
G1 F2400 X95.719 Y131.227 E20.11132
G1 X91.045 Y131.223 E20.31517
G1 X90.802 Y131.155 E20.32617
G1 X90.601 Y131.049 E20.33608
G1 X90.332 Y130.794 E20.35225
G1 X90.136 Y130.383 E20.37211
G1 X89.604 Y130.763 E20.40062
G1 X89.157 Y130.991 E20.42251
G1 X88.721 Y131.133 E20.44251
G1 X88.196 Y131.223 E20.46574
G1 X84.116 Y131.223 E20.64368
G1 X83.687 Y131.183 E20.66247
G1 X83.399 Y131.096 E20.6756
G1 X82.92 Y130.823 E20.69964
G1 X82.679 Y130.537 E20.71595
G1 X82.491 Y130.14 E20.73511
G1 X82.269 Y130.364 E20.74887
G1 X81.663 Y130.809 E20.78166
G1 X80.989 Y131.097 E20.81362
G1 X80.456 Y131.208 E20.83737
G1 X75.807 Y131.227 E21.04013
G1 X75.56 Y131.18 E21.0511
G1 X75.093 Y130.971 E21.07341
G1 X74.833 Y130.673 E21.09066
G1 X74.554 Y130.178 E21.11544
G1 X74.52 Y129.828 E21.13078
G1 X74.593 Y129.222 E21.1574
G1 X74.838 Y128.726 E21.18153
G1 X77.485 Y124.856 E21.38602
G1 X77.623 Y124.709 E21.39481
G1 X78.139 Y124.335 E21.42261
G1 X78.426 Y124.174 E21.43696
G1 X78.863 Y123.993 E21.45759
G1 X79.335 Y123.879 E21.47877
G1 X79.797 Y123.813 E21.49912
G1 X80.237 Y123.789 E21.51834
G1 X80.998 Y123.783 E21.55153
G1 X81.372 Y123.895 E21.56856
G1 X81.768 Y124.285 E21.5928
G1 X82.164 Y123.895 E21.61704
G1 X82.535 Y123.784 E21.63393
G1 X84.853 Y123.786 E21.73503
G1 X85.16 Y123.855 E21.74875
G1 X85.393 Y123.987 E21.76043
G1 X85.611 Y124.197 E21.77363
G1 X85.794 Y124.558 E21.79128
G1 X86.103 Y124.308 E21.80862
G1 X86.625 Y124.031 E21.83439
G1 X87.064 Y123.877 E21.85468
G1 X87.557 Y123.793 E21.8765
G1 X93.061 Y123.794 E22.11655
G1 X93.427 Y123.89 E22.13305
G1 X93.766 Y124.216 E22.15356
G1 X93.804 Y124.29 E22.15719
G1 X94.159 Y123.945 E22.17878
G1 X94.317 Y123.861 E22.18658
G1 X94.622 Y123.787 E22.20027
G1 X99.605 Y123.784 E22.4176
G1 X100.089 Y123.835 E22.43883
G1 X100.413 Y123.944 E22.45374
G1 X100.899 Y124.263 E22.47909
G1 X101.181 Y124.635 E22.49945
G1 X101.306 Y125.007 E22.51657
G1 X101.32 Y125.18 E22.52414
G1 X101.266 Y125.581 E22.54178
G1 X101.095 Y125.988 E22.56104
G1 X99.866 Y127.716 E22.65352
G1 X99.528 Y128.04 E22.67394
G1 X99.392 Y128.408 E22.69105
G1 X98.262 Y130.071 E22.77874
G1 X98.081 Y130.257 E22.79006
G1 X97.613 Y130.627 E22.81608
G1 X96.991 Y130.918 E22.84603
G1 X96.631 Y131.043 E22.86265
G1 X96.283 Y131.134 E22.87834
G0 F6000 X104.736 Y132.49
G1 F2400 X104.475 Y132.437 E22.88995
G1 X103.956 Y132.213 E22.91461
G1 X103.516 Y131.856 E22.93932
G1 X103.213 Y131.426 E22.96226
G1 X103.033 Y130.844 E22.98883
G1 X103 Y130.588 E23.00009
G1 X103.003 Y123.215 E23.32166
G1 X103.146 Y122.729 E23.34375
G1 X103.375 Y122.318 E23.36427
G1 X103.733 Y121.939 E23.38701
G1 X104.199 Y121.651 E23.4109
G1 X104.833 Y121.502 E23.43931
G1 X119.186 Y121.508 E24.0653
G1 X119.674 Y121.609 E24.08703
G1 X120.116 Y121.823 E24.10845
G1 X120.581 Y122.266 E24.13646
G1 X120.873 Y122.77 E24.16187
G1 X120.999 Y123.268 E24.18427
G1 X120.998 Y130.82 E24.51364
G1 X120.81 Y131.344 E24.53792
G1 X120.685 Y131.573 E24.5493
G1 X120.342 Y131.977 E24.57242
G1 X120.153 Y132.132 E24.58308
G1 X119.714 Y132.38 E24.60507
G1 X119.128 Y132.494 E24.6311
G1 X104.736 Y132.49 E25.2588
G0 F6000 X104.682 Y132.091
G1 F2400 X104.184 Y131.882 E25.28235
G1 X103.811 Y131.579 E25.30331
G1 X103.584 Y131.248 E25.32082
G1 X103.4 Y130.684 E25.34669
G1 X103.402 Y123.273 E25.66991
G1 X103.531 Y122.856 E25.68895
G1 X103.713 Y122.538 E25.70493
G1 X103.989 Y122.257 E25.72211
G1 X104.35 Y122.026 E25.7408
G1 X104.869 Y121.901 E25.76408
G1 X119.093 Y121.901 E26.38445
G1 X119.552 Y121.99 E26.40484
G1 X119.894 Y122.163 E26.42156
G1 X120.255 Y122.498 E26.44304
G1 X120.505 Y122.936 E26.46503
G1 X120.6 Y123.322 E26.48237
G1 X120.599 Y130.743 E26.80603
G1 X120.401 Y131.292 E26.83148
G1 X119.996 Y131.763 E26.85858
G1 X119.571 Y131.998 E26.87976
G1 X119.099 Y132.095 E26.90077
G1 X104.682 Y132.091 E27.52956
G1 F2400 E23.52956
G0 F6000 X104.565 Y132.369
G0 X98.083 Y130.055
G0 X101.074 Y125.745
G0 X101.198 Y125.039
G0 X100.876 Y124.439
G0 X100.228 Y124.015
G0 X99.615 Y123.948
G0 X82.218 Y123.952
G0 X81.869 Y124.437
G0 X81.568 Y125.229
G1 F2400 E27.52956
G1 F1897.2 X79.188 Y128.751 E27.76408
G0 F6000 X82.43 Y124.352
G0 X85.265 Y124.353
G0 X85.509 Y124.815
G0 X83.034 Y129.524
G0 X83.004 Y129.899
G0 X83.2 Y130.336
G0 X83.693 Y130.624
G0 X96.256 Y131.038
G0 X96.205 Y130.741
G1 F2400 X95.695 Y130.828 E27.78664
G1 X91.095 Y130.825 E27.98727
G1 X90.828 Y130.719 E27.9998
G1 X90.691 Y130.589 E28.00803
G1 X90.513 Y130.27 E28.02397
G1 F2412.1 X90.478 Y130.02 E28.03492
G1 F2461.5 X90.539 Y129.796 E28.04479
G1 F2526.3 X91.287 Y128.703 E28.09967
G1 F2455.2 X91.502 Y128.365 E28.11675
G1 F2539.7 X93.06 Y126.154 E28.22822
G1 F2296.7 X93.423 Y125.509 E28.26196
G1 X92.788 Y125.934 E28.29678
G1 F2727.3 X92.465 Y126.392 E28.31829
G1 F2651.9 X92.028 Y126.985 E28.34737
G1 F2493.5 X91.564 Y127.232 E28.36943
G1 F2400 X90.955 Y127.233 E28.39599
G1 X91.105 Y127.429 E28.40676
G1 X91.222 Y127.75 E28.42166
G1 F2382.1 X91.154 Y128.161 E28.43997
G1 F2455.2 X90.965 Y128.515 E28.45707
G1 F2474.2 X89.985 Y129.932 E28.52996
G1 F2400 X89.743 Y130.174 E28.54489
G1 X89.428 Y130.398 E28.56174
G1 X89.044 Y130.6 E28.58067
G1 X88.681 Y130.729 E28.59747
G1 X88.208 Y130.82 E28.61848
G1 X84.135 Y130.824 E28.79612
G1 X83.641 Y130.776 E28.81777
G1 X83.168 Y130.505 E28.84154
G1 X83.023 Y130.333 E28.85135
G1 X82.851 Y129.963 E28.86915
G1 F1875 X82.873 Y129.18 E28.91288
G1 X82.545 Y129.464 E28.9371
G1 F2400 X82.284 Y129.782 E28.95504
G1 X82.002 Y130.067 E28.97253
G1 X81.458 Y130.458 E29.00175
G1 X80.893 Y130.704 E29.02862
G1 X80.443 Y130.803 E29.04872
G1 X75.831 Y130.827 E29.24987
G1 X75.395 Y130.669 E29.27009
G1 X75.198 Y130.499 E29.28144
G1 X74.956 Y130.086 E29.30232
G1 X74.914 Y129.866 E29.31209
G1 X74.981 Y129.345 E29.335
G1 X75.188 Y128.924 E29.35546
G1 X77.84 Y125.045 E29.5604
G1 X78.305 Y124.703 E29.58557
G1 X78.599 Y124.535 E29.60034
G1 X79.005 Y124.371 E29.61944
G1 X79.396 Y124.274 E29.63701
G1 X79.819 Y124.212 E29.65565
G1 X80.259 Y124.188 E29.67487
G1 X80.967 Y124.19 E29.70575
G1 X81.206 Y124.282 E29.71692
G1 X81.373 Y124.447 E29.72716
G1 X81.501 Y124.682 E29.73883
G1 F2096.1 X81.568 Y125.229 E29.76635
G1 X81.984 Y124.71 E29.79957
G1 F2400 X82.163 Y124.447 E29.81344
G1 X82.33 Y124.282 E29.82368
G1 X82.612 Y124.185 E29.83669
G1 X84.827 Y124.185 E29.93329
G1 X85.011 Y124.226 E29.94151
G1 X85.281 Y124.431 E29.9563
G1 F2064.5 X85.478 Y124.821 E29.97845
G1 F1613.4 X85.484 Y125.37 E30.01407
G1 F1811.3 X85.876 Y125.035 E30.04387
G1 F2400 X85.991 Y124.912 E30.05121
G1 X86.323 Y124.646 E30.06977
G1 X86.781 Y124.399 E30.09246
G1 X87.209 Y124.258 E30.11212
G1 X87.545 Y124.196 E30.12702
G1 X93.017 Y124.188 E30.36567
G1 X93.269 Y124.283 E30.37742
G1 X93.437 Y124.445 E30.3876
G1 X93.588 Y124.812 E30.40491
G1 F2206.9 X93.597 Y125.273 E30.42678
G1 X93.923 Y124.857 E30.45184
G1 F2400 X94.209 Y124.443 E30.47379
G1 X94.377 Y124.28 E30.484
G1 X94.655 Y124.185 E30.49681
G1 X99.59 Y124.184 E30.71205
G1 X100.028 Y124.23 E30.73126
G1 X100.222 Y124.296 E30.74019
G1 X100.634 Y124.566 E30.76168
G1 X100.774 Y124.75 E30.77176
G1 X100.929 Y125.117 E30.78914
G1 X100.872 Y125.512 E30.80654
G1 X100.769 Y125.756 E30.81809
G1 X99.56 Y127.455 E30.90904
G1 X99.323 Y127.684 E30.92341
G1 X99.156 Y127.794 E30.93213
G1 X99.137 Y127.962 E30.93951
G1 X98.997 Y128.277 E30.95454
G1 X97.904 Y129.887 E31.03941
G1 X97.397 Y130.288 E31.06761
G1 X96.843 Y130.546 E31.09426
G1 X96.549 Y130.65 E31.10786
G1 X96.205 Y130.741 E31.12338
G1 F2400 E27.12338
G0 F6000 X96.256 Y131.038
G0 X69.191 Y145.634
G1 F2400 E31.12338
G1 X68.568 Y145.953 E31.15391
G1 X67.882 Y146.131 E31.18482
G1 X67.186 Y146.137 E31.21517
G1 X66.728 Y146.044 E31.23556
G1 X66.138 Y145.817 E31.26313
G1 X65.677 Y145.513 E31.28721
G1 X65.216 Y145.076 E31.31492
G1 X64.838 Y144.402 E31.34862
G1 X64.67 Y143.928 E31.37055
G1 X64.593 Y143.328 E31.39694
G1 X64.635 Y142.671 E31.42565
G1 X64.922 Y141.873 E31.46263
G1 X65.295 Y141.356 E31.49044
G1 X65.674 Y140.99 E31.51342
G1 X66.089 Y140.711 E31.53523
G1 X66.692 Y140.457 E31.56376
G1 X67.392 Y140.342 E31.5947
G1 X67.974 Y140.38 E31.62014
G1 X68.419 Y140.5 E31.64024
G1 X68.979 Y140.754 E31.66706
G1 X69.523 Y141.142 E31.6962
G1 X69.981 Y141.718 E31.7283
G1 X70.284 Y142.376 E31.75989
G1 X70.424 Y143.156 E31.79446
G1 X70.302 Y144.082 E31.83519
G1 X69.984 Y144.746 E31.8673
G1 X69.637 Y145.213 E31.89268
G1 X69.191 Y145.634 E31.91943
G0 F6000 X68.957 Y145.297
G1 F2400 X68.434 Y145.574 E31.94524
G1 X67.835 Y145.732 E31.97226
G1 X67.236 Y145.735 E31.99838
G1 X66.892 Y145.675 E32.01361
G1 X66.353 Y145.472 E32.03873
G1 X65.907 Y145.179 E32.062
G1 X65.512 Y144.801 E32.08585
G1 X65.179 Y144.185 E32.11639
G1 X65.056 Y143.796 E32.13418
G1 X64.996 Y143.28 E32.15684
G1 X65.037 Y142.751 E32.17998
G1 X65.285 Y142.063 E32.21188
G1 X65.59 Y141.627 E32.23508
G1 X65.922 Y141.305 E32.25526
G1 X66.279 Y141.063 E32.27407
G1 X66.833 Y140.837 E32.30016
G1 X67.408 Y140.744 E32.32557
G1 X67.936 Y140.785 E32.34866
G1 X68.287 Y140.877 E32.36449
G1 X68.778 Y141.1 E32.38801
G1 X69.243 Y141.433 E32.41295
G1 X69.638 Y141.928 E32.44057
G1 X69.9 Y142.497 E32.46789
G1 X70.018 Y143.16 E32.49726
G1 X69.914 Y143.977 E32.53318
G1 X69.642 Y144.539 E32.56042
G1 X69.334 Y144.95 E32.58282
G1 X68.957 Y145.297 E32.60516
G0 F6000 X69.165 Y145.521
G0 X62.374 Y154.081
G0 X62.197 Y153.839
G1 F2400 X61.74 Y154.171 E32.6298
G1 X61.369 Y154.347 E32.64771
G1 F2347.2 X60.905 Y154.477 E32.6692
G1 F2352.9 X60.425 Y154.503 E32.69058
G1 X59.815 Y154.439 E32.71787
G1 F2318.8 X59.143 Y154.118 E32.75149
G1 F2376.2 X58.674 Y153.712 E32.77881
G1 F2400 X58.433 Y153.406 E32.7958
G1 F2382.1 X58.158 Y152.926 E32.82011
G1 F2341.5 X58.017 Y152.369 E32.84579
G1 F2307.7 X58.004 Y151.565 E32.88227
G1 F2318.8 X58.239 Y150.883 E32.91483
G1 F2376.2 X58.648 Y150.296 E32.94634
G1 F2400 X59.035 Y149.969 E32.96844
G1 X59.422 Y149.739 E32.98807
G1 X60.04 Y149.514 E33.01676
G1 X60.698 Y149.503 E33.04546
G1 X61.093 Y149.57 E33.06293
G1 X61.791 Y149.829 E33.0954
G1 X62.273 Y150.232 E33.12281
G1 X62.522 Y150.531 E33.13978
G1 X62.747 Y150.903 E33.15874
G1 X62.919 Y151.378 E33.18077
G1 X63.003 Y151.908 E33.20418
G1 X62.967 Y152.471 E33.22878
G1 X62.918 Y152.673 E33.23785
G1 X62.597 Y153.406 E33.27275
G1 X62.197 Y153.839 E33.29846
G0 F6000 X62.374 Y154.081
G0 X62.8 Y153.538
G0 X63.197 Y152.631
G0 X63.241 Y151.902
G0 X63.168 Y151.356
G0 X62.978 Y150.822
G0 X62.722 Y150.393
G0 X62.437 Y150.058
G0 X61.91 Y149.619
G0 X61.157 Y149.336
G0 X60.706 Y149.266
G0 X60.002 Y149.277
G0 X59.32 Y149.523
G0 X58.893 Y149.778
G0 X58.472 Y150.136
G0 X58.02 Y150.78
G0 X57.767 Y151.571
G0 X57.781 Y152.369
