; HEADER_BLOCK_START
; generated by OrcaSlicer 2.2.0 on 2025-01-26 at 12:41:41
; total layer number: 534
; filament_density: 1.04
; filament_diameter: 1.75
; max_z_height: 80.55
; HEADER_BLOCK_END

; THUMBNAIL_BLOCK_START

;
; THUMBNAIL_BLOCK_END

; external perimeters extrusion width = 0.40mm
; perimeters extrusion width = 0.40mm
; infill extrusion width = 0.40mm
; solid infill extrusion width = 0.40mm
; top infill extrusion width = 0.40mm
; first layer extrusion width = 0.40mm

; EXECUTABLE_BLOCK_START
M73 P0 R208
;TYPE:Custom
G90 ; use absolute coordinates
M83 ; extruder relative mode
M140 S100 ; set final bed temp
M104 S150 ; set temporary nozzle temp to prevent oozing during homing
G4 S10 ; allow partial nozzle warmup
M104 S250 ; set final nozzle temp
M190 S100 ; wait for bed temp to stabilize
M109 S250 ; wait for nozzle temp to stabilize
G28 ; home all axis
G1 Z15 F240
G1 X-2 Y10 F3000
G1 Z0.28 F240
G92 E0
G1 Y140 E10 F1500 ; prime the nozzle
G1 X-1.7 F5000
G92 E0
G1 Y10 E10 F1200 ; prime the nozzle
G92 E0
M106 P3 S178
G90
G21
M83 ; use relative distances for extrusion
; Filament gcode
M106 S0
;LAYER_CHANGE
;Z:0.3
;HEIGHT:0.3
;BEFORE_LAYER_CHANGE
;0.3
G92 E0

G1 E-4 F1500
;_SET_FAN_SPEED_CHANGING_LAYER
M204 S1500
G1 Z.8 F9000
G1 X31.258 Y41.898
G1 Z.8
G1 Z.3
G1 E4 F1500
;TYPE:Skirt
;WIDTH:0.4
G1 F3000
G1 X195.599 Y41.896 E6.87936
G1 X196.944 Y42.288 E.05865
G1 X197.868 Y43.341 E.05865
G1 X198.103 Y44.399 E.04537
G1 X198.104 Y175.599 E5.49206
G1 X197.712 Y176.944 E.05865
G1 X196.659 Y177.868 E.05865
G1 X195.601 Y178.102 E.04537
G1 X24.401 Y178.105 E7.16648
G1 X23.056 Y177.713 E.05865
G1 X22.132 Y176.659 E.05865
G1 X21.897 Y175.601 E.04537
G1 X21.896 Y44.402 E5.49206
G1 X22.288 Y43.057 E.05865
G1 X23.341 Y42.133 E.05865
G1 X24.399 Y41.898 E.04537
G1 X31.218 Y41.898 E.28545
G1 X31.218 Y42.234 F9000
G1 F3000
G1 X195.599 Y42.231 E6.88103
G1 X196.841 Y42.622 E.05449
G1 X197.635 Y43.654 E.05449
G1 X197.767 Y44.399 E.0317
G1 X197.769 Y175.599 E5.49206
G1 X197.378 Y176.84 E.05449
G1 X196.347 Y177.634 E.05449
G1 X195.601 Y177.767 E.0317
G1 X24.401 Y177.769 E7.16648
G1 X23.159 Y177.378 E.05449
G1 X22.365 Y176.347 E.05449
G1 X22.233 Y175.601 E.0317
G1 X22.231 Y44.402 E5.49206
G1 X22.622 Y43.16 E.05449
G1 X23.653 Y42.366 E.05449
G1 X24.399 Y42.234 E.0317
G1 X31.178 Y42.234 E.28378
; printing object Display_front_v3.stl id:11 copy 0
G1 E-3.5 F1500
;WIPE_START
G1 F3000
G1 X32.178 Y42.234 E-.5
;WIPE_END
G1 Z.8 F9000
G1 X33.149 Y68.566 Z.8
G1 Z.3
G1 E4 F1500
;TYPE:Inner wall
G1 F2100
G1 X189 Y68.564 E6.52395
G1 X190.185 Y68.564 E.04961
G1 X190.186 Y158.935 E3.78296
G1 X32.815 Y158.937 E6.58761
M73 P0 R207
M73 P0 R207
G1 X32.814 Y68.566 E3.78296
G1 X33.109 Y68.566 E.01237
G1 X33.149 Y68.901 F9000
;TYPE:Outer wall
G1 F2100
G1 X189 Y68.899 E6.52395
G1 X189.849 Y68.899 E.03556
G1 X189.851 Y158.599 E3.75486
G1 X33.151 Y158.601 E6.55951
G1 X33.149 Y68.941 E3.75319
G1 E-3.28571 F1500
;WIPE_START
G1 F2100
G1 X34.149 Y68.941 E-.71429
;WIPE_END
G1 Z.8 F9000
G1 X25.087 Y174.916 Z.8
G1 Z.3
G1 E4 F1500
;TYPE:Inner wall
G1 F2100
G1 X25.085 Y45.087 E5.43466
G1 X194.913 Y45.085 E7.10908
G1 X194.915 Y174.913 E5.43466
G1 X25.127 Y174.916 E7.10741
G1 X24.751 Y175.251 F9000
;TYPE:Outer wall
G1 F2100
G1 X24.749 Y44.752 E5.46276
G1 X195.249 Y44.749 E7.13718
G1 X195.249 Y44.783 E.00144
G1 X195.251 Y175.249 E5.46133
G1 X24.791 Y175.251 E7.13551
G1 E-3.28571 F1500
;WIPE_START
G1 F2100
G1 X24.791 Y174.251 E-.71429
;WIPE_END
G1 Z.8 F9000
G1 X194.813 Y45.865
G1 Z.8
M73 P0 R206
M73 P0 R206
G1 Z.3
G1 E4 F1500
;TYPE:Bottom surface
;WIDTH:0.400337
G1 F2400
G1 X194.285 Y45.336 E.0313
G1 X193.81 Y45.336 E.01991
G1 X194.662 Y46.189 E.0505
G1 X194.662 Y46.664 E.01991
G1 X193.334 Y45.336 E.07866
G1 X192.859 Y45.336 E.01991
G1 X194.662 Y47.139 E.10681
G1 X194.662 Y47.614 E.01991
G1 X192.384 Y45.337 E.13497
G1 X191.909 Y45.337 E.01991
G1 X194.662 Y48.089 E.16312
G1 X194.662 Y48.564 E.01991
G1 X191.434 Y45.337 E.19128
G1 X190.959 Y45.337 E.01991
G1 X194.662 Y49.039 E.21943
G1 X194.662 Y49.515 E.01991
G1 X190.484 Y45.337 E.24759
G1 X190.009 Y45.337 E.01991
G1 X194.662 Y49.99 E.27574
G1 X194.662 Y50.465 E.01991
G1 X189.534 Y45.337 E.30389
G1 X189.058 Y45.337 E.01991
G1 X194.662 Y50.94 E.33205
G1 X194.662 Y51.415 E.01991
G1 X188.583 Y45.337 E.3602
G1 X188.108 Y45.337 E.01991
G1 X194.662 Y51.89 E.38836
G1 X194.662 Y52.365 E.01991
G1 X187.633 Y45.337 E.41651
G1 X187.158 Y45.337 E.01991
G1 X194.662 Y52.84 E.44467
G1 X194.662 Y53.316 E.01991
G1 X186.683 Y45.337 E.47282
G1 X186.208 Y45.337 E.01991
G1 X194.662 Y53.791 E.50098
G1 X194.662 Y54.266 E.01991
G1 X185.733 Y45.337 E.52913
G1 X185.258 Y45.337 E.01991
G1 X194.662 Y54.741 E.55729
G1 X194.662 Y55.216 E.01991
G1 X184.782 Y45.337 E.58544
G1 X184.307 Y45.337 E.01991
G1 X194.662 Y55.691 E.6136
G1 X194.662 Y56.166 E.01991
G1 X183.832 Y45.337 E.64175
G1 X183.357 Y45.337 E.01991
G1 X194.662 Y56.641 E.6699
G1 X194.662 Y57.116 E.01991
G1 X182.882 Y45.337 E.69806
G1 X182.407 Y45.337 E.01991
G1 X194.662 Y57.592 E.72621
G1 X194.662 Y58.067 E.01991
G1 X181.932 Y45.337 E.75437
G1 X181.457 Y45.337 E.01991
G1 X194.662 Y58.542 E.78252
G1 X194.662 Y59.017 E.01991
G1 X180.982 Y45.337 E.81068
G1 X180.507 Y45.337 E.01991
G1 X194.662 Y59.492 E.83883
G1 X194.662 Y59.967 E.01991
G1 X180.031 Y45.337 E.86699
G1 X179.556 Y45.337 E.01991
G1 X194.662 Y60.442 E.89514
G1 X194.662 Y60.917 E.01991
G1 X179.081 Y45.337 E.9233
G1 X178.606 Y45.337 E.01991
G1 X194.662 Y61.393 E.95145
G1 X194.662 Y61.868 E.01991
G1 X178.131 Y45.337 E.97961
G1 X177.656 Y45.337 E.01991
G1 X194.662 Y62.343 E1.00776
G1 X194.662 Y62.818 E.01991
G1 X177.181 Y45.337 E1.03592
G1 X176.706 Y45.337 E.01991
M73 P1 R206
M73 P1 R206
G1 X194.662 Y63.293 E1.06407
G1 X194.662 Y63.768 E.01991
G1 X176.231 Y45.337 E1.09222
G1 X175.755 Y45.337 E.01991
G1 X194.662 Y64.243 E1.12038
G1 X194.662 Y64.718 E.01991
G1 X175.28 Y45.337 E1.14853
G1 X174.805 Y45.337 E.01991
G1 X194.662 Y65.194 E1.17669
G1 X194.662 Y65.669 E.01991
G1 X174.33 Y45.337 E1.20484
G1 X173.855 Y45.337 E.01991
G1 X194.662 Y66.144 E1.233
G1 X194.662 Y66.619 E.01991
G1 X173.38 Y45.337 E1.26115
G1 X172.905 Y45.337 E.01991
G1 X194.662 Y67.094 E1.28931
G1 X194.662 Y67.569 E.01991
G1 X172.43 Y45.337 E1.31746
G1 X171.955 Y45.337 E.01991
G1 X194.662 Y68.044 E1.34562
G1 X194.662 Y68.519 E.01991
G1 X171.48 Y45.337 E1.37377
G1 X171.004 Y45.337 E.01991
G1 X194.662 Y68.994 E1.40193
G1 X194.662 Y69.47 E.01991
G1 X170.529 Y45.337 E1.43008
G1 X170.054 Y45.337 E.01991
G1 X194.662 Y69.945 E1.45823
G1 X194.662 Y70.42 E.01991
G1 X169.579 Y45.337 E1.48639
G1 X169.104 Y45.337 E.01991
G1 X194.662 Y70.895 E1.51454
G1 X194.662 Y71.37 E.01991
G1 X168.629 Y45.337 E1.5427
G1 X168.154 Y45.337 E.01991
G1 X194.662 Y71.845 E1.57085
G1 X194.662 Y72.32 E.01991
G1 X167.679 Y45.337 E1.59901
G1 X167.204 Y45.337 E.01991
G1 X194.662 Y72.795 E1.62716
G1 X194.662 Y73.271 E.01991
G1 X190.437 Y69.045 E.25039
G1 X190.437 Y69.52 E.01991
G1 X194.662 Y73.746 E.25039
G1 X194.662 Y74.221 E.01991
G1 X190.437 Y69.995 E.25039
G1 X190.437 Y70.471 E.01991
G1 X194.662 Y74.696 E.25039
G1 X194.662 Y75.171 E.01991
G1 X190.437 Y70.946 E.25039
G1 X190.437 Y71.421 E.01991
G1 X194.662 Y75.646 E.25039
G1 X194.662 Y76.121 E.01991
G1 X190.437 Y71.896 E.25039
G1 X190.437 Y72.371 E.01991
G1 X194.662 Y76.596 E.25039
G1 X194.662 Y77.072 E.01991
G1 X190.437 Y72.846 E.25039
G1 X190.437 Y73.321 E.01991
G1 X194.662 Y77.547 E.25039
G1 X194.662 Y78.022 E.01991
G1 X190.437 Y73.796 E.25039
G1 X190.437 Y74.272 E.01991
G1 X194.662 Y78.497 E.25039
G1 X194.662 Y78.972 E.01991
G1 X190.437 Y74.747 E.25039
G1 X190.437 Y75.222 E.01991
G1 X194.662 Y79.447 E.25039
G1 X194.662 Y79.922 E.01991
G1 X190.437 Y75.697 E.25039
G1 X190.437 Y76.172 E.01991
G1 X194.662 Y80.397 E.25039
G1 X194.662 Y80.872 E.01991
G1 X190.437 Y76.647 E.25039
G1 X190.437 Y77.122 E.01991
G1 X194.662 Y81.348 E.25039
G1 X194.662 Y81.823 E.01991
G1 X190.437 Y77.597 E.25039
G1 X190.437 Y78.072 E.01991
G1 X194.662 Y82.298 E.25039
G1 X194.662 Y82.773 E.01991
G1 X190.437 Y78.548 E.25039
G1 X190.437 Y79.023 E.01991
G1 X194.662 Y83.248 E.25039
G1 X194.662 Y83.723 E.01991
G1 X190.437 Y79.498 E.25039
G1 X190.437 Y79.973 E.01991
G1 X194.662 Y84.198 E.25039
G1 X194.662 Y84.673 E.01991
G1 X190.437 Y80.448 E.25039
G1 X190.437 Y80.923 E.01991
G1 X194.662 Y85.149 E.25039
G1 X194.662 Y85.624 E.01991
G1 X190.437 Y81.398 E.25039
G1 X190.437 Y81.873 E.01991
G1 X194.662 Y86.099 E.25039
G1 X194.662 Y86.574 E.01991
G1 X190.437 Y82.349 E.25039
G1 X190.437 Y82.824 E.01991
G1 X194.662 Y87.049 E.25039
G1 X194.662 Y87.524 E.01991
G1 X190.437 Y83.299 E.25039
G1 X190.437 Y83.774 E.01991
G1 X194.662 Y87.999 E.25039
G1 X194.662 Y88.474 E.01991
G1 X190.437 Y84.249 E.25039
G1 X190.437 Y84.724 E.01991
G1 X194.662 Y88.95 E.25039
G1 X194.662 Y89.425 E.01991
G1 X190.437 Y85.199 E.25039
G1 X190.437 Y85.674 E.01991
G1 X194.662 Y89.9 E.25039
G1 X194.662 Y90.375 E.01991
G1 X190.437 Y86.15 E.25039
G1 X190.437 Y86.625 E.01991
G1 X194.662 Y90.85 E.25039
G1 X194.662 Y91.325 E.01991
G1 X190.437 Y87.1 E.25039
G1 X190.437 Y87.575 E.01991
G1 X194.662 Y91.8 E.25039
G1 X194.662 Y92.275 E.01991
G1 X190.437 Y88.05 E.25039
G1 X190.437 Y88.525 E.01991
G1 X194.662 Y92.75 E.25039
G1 X194.662 Y93.226 E.01991
G1 X190.437 Y89 E.25039
G1 X190.437 Y89.475 E.01991
G1 X194.662 Y93.701 E.25039
G1 X194.662 Y94.176 E.01991
G1 X190.437 Y89.95 E.25039
G1 X190.437 Y90.426 E.01991
G1 X194.662 Y94.651 E.25039
G1 X194.662 Y95.126 E.01991
G1 X190.437 Y90.901 E.25039
G1 X190.437 Y91.376 E.01991
G1 X194.662 Y95.601 E.25039
G1 X194.662 Y96.076 E.01991
G1 X190.437 Y91.851 E.25039
G1 X190.437 Y92.326 E.01991
G1 X194.662 Y96.551 E.25039
G1 X194.662 Y97.027 E.01991
G1 X190.437 Y92.801 E.25039
G1 X190.437 Y93.276 E.01991
G1 X194.662 Y97.502 E.25039
G1 X194.662 Y97.977 E.01991
G1 X190.437 Y93.751 E.25039
G1 X190.437 Y94.227 E.01991
G1 X194.662 Y98.452 E.25039
G1 X194.663 Y98.927 E.01991
G1 X190.437 Y94.702 E.25039
G1 X190.437 Y95.177 E.01991
G1 X194.663 Y99.402 E.25039
G1 X194.663 Y99.877 E.01991
G1 X190.437 Y95.652 E.25039
G1 X190.437 Y96.127 E.01991
G1 X194.663 Y100.352 E.25039
G1 X194.663 Y100.828 E.01991
G1 X190.437 Y96.602 E.25039
G1 X190.437 Y97.077 E.01991
G1 X194.663 Y101.303 E.25039
G1 X194.663 Y101.778 E.01991
G1 X190.437 Y97.552 E.25039
G1 X190.437 Y98.028 E.01991
G1 X194.663 Y102.253 E.25039
G1 X194.663 Y102.728 E.01991
G1 X190.437 Y98.503 E.25039
G1 X190.437 Y98.978 E.01991
G1 X194.663 Y103.203 E.25039
G1 X194.663 Y103.678 E.01991
G1 X190.437 Y99.453 E.25039
G1 X190.437 Y99.928 E.01991
G1 X194.663 Y104.153 E.25039
G1 X194.663 Y104.629 E.01991
G1 X190.437 Y100.403 E.25039
G1 X190.437 Y100.878 E.01991
G1 X194.663 Y105.104 E.25039
G1 X194.663 Y105.579 E.01991
G1 X190.437 Y101.353 E.25039
G1 X190.437 Y101.828 E.01991
G1 X194.663 Y106.054 E.25039
G1 X194.663 Y106.529 E.01991
G1 X190.437 Y102.304 E.25039
G1 X190.437 Y102.779 E.01991
G1 X194.663 Y107.004 E.25039
G1 X194.663 Y107.479 E.01991
G1 X190.437 Y103.254 E.25039
G1 X190.437 Y103.729 E.01991
G1 X194.663 Y107.954 E.25039
G1 X194.663 Y108.429 E.01991
G1 X190.437 Y104.204 E.25039
G1 X190.437 Y104.679 E.01991
G1 X194.663 Y108.905 E.25039
G1 X194.663 Y109.38 E.01991
G1 X190.437 Y105.154 E.25039
G1 X190.437 Y105.629 E.01991
G1 X194.663 Y109.855 E.25039
G1 X194.663 Y110.33 E.01991
G1 X190.437 Y106.105 E.25039
G1 X190.437 Y106.58 E.01991
G1 X194.663 Y110.805 E.25039
G1 X194.663 Y111.28 E.01991
G1 X190.437 Y107.055 E.25039
G1 X190.437 Y107.53 E.01991
G1 X194.663 Y111.755 E.25039
G1 X194.663 Y112.23 E.01991
G1 X190.437 Y108.005 E.25039
G1 X190.437 Y108.48 E.01991
G1 X194.663 Y112.706 E.25039
G1 X194.663 Y113.181 E.01991
G1 X190.437 Y108.955 E.25039
G1 X190.437 Y109.43 E.01991
G1 X194.663 Y113.656 E.25039
G1 X194.663 Y114.131 E.01991
G1 X190.437 Y109.906 E.25039
G1 X190.437 Y110.381 E.01991
G1 X194.663 Y114.606 E.25039
G1 X194.663 Y115.081 E.01991
G1 X190.437 Y110.856 E.25039
G1 X190.437 Y111.331 E.01991
G1 X194.663 Y115.556 E.25039
G1 X194.663 Y116.031 E.01991
G1 X190.437 Y111.806 E.25039
G1 X190.437 Y112.281 E.01991
G1 X194.663 Y116.507 E.25039
G1 X194.663 Y116.982 E.01991
G1 X190.437 Y112.756 E.25039
G1 X190.437 Y113.231 E.01991
G1 X194.663 Y117.457 E.25039
G1 X194.663 Y117.932 E.01991
G1 X190.437 Y113.706 E.25039
G1 X190.437 Y114.182 E.01991
G1 X194.663 Y118.407 E.25039
G1 X194.663 Y118.882 E.01991
G1 X190.437 Y114.657 E.25039
G1 X190.437 Y115.132 E.01991
G1 X194.663 Y119.357 E.25039
G1 X194.663 Y119.832 E.01991
G1 X190.437 Y115.607 E.25039
G1 X190.437 Y116.082 E.01991
G1 X194.663 Y120.307 E.25039
G1 X194.663 Y120.783 E.01991
G1 X190.437 Y116.557 E.25039
G1 X190.437 Y117.032 E.01991
G1 X194.663 Y121.258 E.25039
G1 X194.663 Y121.733 E.01991
G1 X190.437 Y117.507 E.25039
G1 X190.437 Y117.983 E.01991
G1 X194.663 Y122.208 E.25039
G1 X194.663 Y122.683 E.01991
G1 X190.437 Y118.458 E.25039
G1 X190.437 Y118.933 E.01991
G1 X194.663 Y123.158 E.25039
G1 X194.663 Y123.633 E.01991
G1 X190.437 Y119.408 E.25039
G1 X190.437 Y119.883 E.01991
G1 X194.663 Y124.108 E.25039
G1 X194.663 Y124.584 E.01991
G1 X190.437 Y120.358 E.25039
G1 X190.437 Y120.833 E.01991
G1 X194.663 Y125.059 E.25039
G1 X194.663 Y125.534 E.01991
G1 X190.437 Y121.308 E.25039
G1 X190.437 Y121.784 E.01991
G1 X194.663 Y126.009 E.25039
G1 X194.663 Y126.484 E.01991
G1 X190.437 Y122.259 E.25039
G1 X190.438 Y122.734 E.01991
G1 X194.663 Y126.959 E.25039
G1 X194.663 Y127.434 E.01991
G1 X190.438 Y123.209 E.25039
G1 X190.438 Y123.684 E.01991
G1 X194.663 Y127.909 E.25039
G1 X194.663 Y128.385 E.01991
G1 X190.438 Y124.159 E.25039
G1 X190.438 Y124.634 E.01991
G1 X194.663 Y128.86 E.25039
G1 X194.663 Y129.335 E.01991
G1 X190.438 Y125.109 E.25039
G1 X190.438 Y125.584 E.01991
G1 X194.663 Y129.81 E.25039
G1 X194.663 Y130.285 E.01991
G1 X190.438 Y126.06 E.25039
G1 X190.438 Y126.535 E.01991
G1 X194.663 Y130.76 E.25039
G1 X194.663 Y131.235 E.01991
G1 X190.438 Y127.01 E.25039
G1 X190.438 Y127.485 E.01991
G1 X194.663 Y131.71 E.25039
G1 X194.663 Y132.185 E.01991
G1 X190.438 Y127.96 E.25039
G1 X190.438 Y128.435 E.01991
G1 X194.663 Y132.661 E.25039
G1 X194.663 Y133.136 E.01991
G1 X190.438 Y128.91 E.25039
G1 X190.438 Y129.385 E.01991
G1 X194.663 Y133.611 E.25039
G1 X194.663 Y134.086 E.01991
G1 X190.438 Y129.861 E.25039
G1 X190.438 Y130.336 E.01991
G1 X194.663 Y134.561 E.25039
G1 X194.663 Y135.036 E.01991
G1 X190.438 Y130.811 E.25039
G1 X190.438 Y131.286 E.01991
G1 X194.663 Y135.511 E.25039
G1 X194.663 Y135.986 E.01991
G1 X190.438 Y131.761 E.25039
G1 X190.438 Y132.236 E.01991
G1 X194.663 Y136.462 E.25039
G1 X194.663 Y136.937 E.01991
G1 X190.438 Y132.711 E.25039
G1 X190.438 Y133.186 E.01991
G1 X194.663 Y137.412 E.25039
G1 X194.663 Y137.887 E.01991
G1 X190.438 Y133.662 E.25039
G1 X190.438 Y134.137 E.01991
G1 X194.663 Y138.362 E.25039
G1 X194.663 Y138.837 E.01991
G1 X190.438 Y134.612 E.25039
G1 X190.438 Y135.087 E.01991
G1 X194.663 Y139.312 E.25039
G1 X194.663 Y139.787 E.01991
G1 X190.438 Y135.562 E.25039
G1 X190.438 Y136.037 E.01991
G1 X194.663 Y140.263 E.25039
G1 X194.663 Y140.738 E.01991
G1 X190.438 Y136.512 E.25039
G1 X190.438 Y136.987 E.01991
G1 X194.663 Y141.213 E.25039
G1 X194.663 Y141.688 E.01991
G1 X190.438 Y137.462 E.25039
G1 X190.438 Y137.938 E.01991
G1 X194.663 Y142.163 E.25039
G1 X194.663 Y142.638 E.01991
G1 X190.438 Y138.413 E.25039
G1 X190.438 Y138.888 E.01991
G1 X194.663 Y143.113 E.25039
G1 X194.663 Y143.588 E.01991
G1 X190.438 Y139.363 E.25039
G1 X190.438 Y139.838 E.01991
G1 X194.663 Y144.063 E.25039
G1 X194.663 Y144.539 E.01991
G1 X190.438 Y140.313 E.25039
M73 P1 R205
M73 P1 R205
G1 X190.438 Y140.788 E.01991
G1 X194.663 Y145.014 E.25039
G1 X194.663 Y145.489 E.01991
G1 X190.438 Y141.263 E.25039
G1 X190.438 Y141.739 E.01991
G1 X194.663 Y145.964 E.25039
G1 X194.663 Y146.439 E.01991
G1 X190.438 Y142.214 E.25039
G1 X190.438 Y142.689 E.01991
G1 X194.663 Y146.914 E.25039
G1 X194.663 Y147.389 E.01991
G1 X190.438 Y143.164 E.25039
G1 X190.438 Y143.639 E.01991
G1 X194.663 Y147.864 E.25039
G1 X194.663 Y148.34 E.01991
G1 X190.438 Y144.114 E.25039
G1 X190.438 Y144.589 E.01991
G1 X194.663 Y148.815 E.25039
G1 X194.663 Y149.29 E.01991
