; HEADER_BLOCK_START
; generated by OrcaSlicer 2.1.1 on 2025-02-14 at 21:12:18
; total layer number: 147
; filament_density: 1.04
; filament_diameter: 1.75
; max_z_height: 29.50
; HEADER_BLOCK_END

; THUMBNAIL_BLOCK_START

;
; THUMBNAIL_BLOCK_END

; external perimeters extrusion width = 0.40mm
; perimeters extrusion width = 0.40mm
; infill extrusion width = 0.40mm
; solid infill extrusion width = 0.40mm
; top infill extrusion width = 0.40mm
; first layer extrusion width = 0.40mm

; EXECUTABLE_BLOCK_START
M73 P0 R71
;TYPE:Custom
G90 ; use absolute coordinates
M83 ; extruder relative mode
M140 S100 ; set final bed temp
M104 S150 ; set temporary nozzle temp to prevent oozing during homing
G4 S10 ; allow partial nozzle warmup
M104 S250 ; set final nozzle temp
M190 S100 ; wait for bed temp to stabilize
M109 S250 ; wait for nozzle temp to stabilize
G28 ; home all axis
G1 Z15 F240
G1 X1 Y10 F3000
G1 Z0.28 F240
G92 E0
G1 Y140 E10 F1500 ; prime the nozzle
M73 P0 R70
G1 X1.2 F5000
G92 E0
G1 Y10 E10 F1200 ; prime the nozzle
G92 E0
M106 P3 S178
G90
G21
M83 ; use relative distances for extrusion
; Filament gcode
M106 S0
;LAYER_CHANGE
;Z:0.3
;HEIGHT:0.3
;BEFORE_LAYER_CHANGE
;0.3
G92 E0

G1 E-4 F1500
;_SET_FAN_SPEED_CHANGING_LAYER
M204 S4000
G1 Z.5 F9000
G1 X75.721 Y86.748
G1 Z.5
G1 Z.3
G1 E4 F1500
;TYPE:Skirt
;WIDTH:0.4
G1 F3000
G1 X76.775 Y85.906 E.05645
G1 X131.684 Y54.205 E2.65409
G1 X132.644 Y53.791 E.04374
G1 X133.441 Y53.619 E.03414
G1 X135.487 Y53.579 E.08568
G1 X136.227 Y53.646 E.03109
G1 X137.233 Y53.926 E.04371
G1 X137.772 Y54.186 E.02505
G1 X138.62 Y54.797 E.04374
G1 X139.31 Y55.582 E.04375
G1 X139.548 Y55.962 E.01876
G1 X139.807 Y56.5 E.02502
G1 X140.084 Y57.485 E.04281
G1 X145.287 Y101.436 E1.85265
G1 X145.305 Y162.75 E2.56662
G1 X145.096 Y163.94 E.05056
G1 X144.76 Y164.669 E.03359
G1 X143.696 Y165.651 E.06062
G1 X142.486 Y165.942 E.0521
G1 X133.483 Y165.942 E.37688
G1 X129.237 Y165.56 E.17845
G1 X127.885 Y165.04 E.06062
G1 X127.322 Y164.47 E.03356
G1 X75.774 Y93.487 E3.67222
G1 X74.751 Y91.61 E.08945
G1 X74.492 Y90.599 E.04372
G1 X74.447 Y90.002 E.02505
G1 X74.553 Y88.962 E.04375
G1 X74.887 Y87.973 E.04374
G1 X75.097 Y87.576 E.01876
G1 X75.697 Y86.78 E.04175
G1 X75.964 Y86.983 F9000
G1 F3000
G1 X75.976 Y86.967 E.00082
G1 X76.943 Y86.197 E.05175
G1 X131.852 Y54.495 E2.65409
G1 X132.73 Y54.115 E.04007
G1 X133.47 Y53.953 E.0317
G1 X135.487 Y53.915 E.08446
G1 X136.19 Y53.979 E.02952
G1 X137.122 Y54.243 E.04057
G1 X137.594 Y54.47 E.02191
G1 X138.382 Y55.035 E.0406
G1 X138.699 Y55.352 E.01876
G1 X139.264 Y56.14 E.0406
G1 X139.49 Y56.611 E.02188
G1 X139.751 Y57.524 E.03975
G1 X144.953 Y101.475 E1.85265
G1 X144.969 Y162.75 E2.56497
G1 X144.783 Y163.819 E.04542
G1 X144.474 Y164.493 E.03104
G1 X143.463 Y165.391 E.0566
G1 X142.486 Y165.607 E.04189
G1 X133.268 Y165.597 E.38586
G1 X129.268 Y165.226 E.16816
G1 X127.594 Y164.272 E.08065
G1 X76.046 Y93.29 E3.67221
G1 X75.059 Y91.476 E.08643
G1 X74.821 Y90.536 E.04058
G1 X74.782 Y90.015 E.02191
G1 X74.877 Y89.049 E.0406
G1 X74.993 Y88.616 E.01876
G1 X75.394 Y87.733 E.0406
G1 X75.94 Y87.014 E.03779
; printing object HDMI7andPi_DualHook60_v9.stl id:18446744073709551615 copy 0
G1 E-3.5 F1500
;WIPE_START
G1 F3000
G1 X75.976 Y86.967 E-.0298
G1 X76.711 Y86.381 E-.4702
;WIPE_END
G1 Z.8 F9000
G1 X85.985 Y89.813 Z.8
G1 Z.3
G1 E4 F1500
;TYPE:Inner wall
G1 F3000
G1 X85.95 Y89.722 E.00406
G1 X85.849 Y89.07 E.02765
G1 X85.891 Y88.41 E.02765
G1 X86.076 Y87.776 E.02765
G1 X86.394 Y87.197 E.02765
G1 X86.829 Y86.701 E.02763
G1 X87.314 Y86.346 E.02517
G1 X130.025 Y61.687 E2.06447
G1 X130.615 Y61.432 E.02693
G1 X131.299 Y61.311 E.02906
G1 X132.008 Y61.35 E.02972
G1 X132.683 Y61.552 E.02951
G1 X133.292 Y61.904 E.02943
G1 X133.804 Y62.386 E.02943
G1 X134.19 Y62.974 E.02943
G1 X134.43 Y63.635 E.02943
G1 X134.505 Y64.273 E.02693
G1 X134.505 Y98.323 E1.42531
G1 X134.435 Y98.941 E.02608
G1 X134.211 Y99.579 E.02828
G1 X133.852 Y100.151 E.02827
G1 X133.376 Y100.628 E.0282
G1 X132.817 Y100.983 E.02772
G1 X132.17 Y101.213 E.02875
G1 X131.512 Y101.292 E.02772
G1 X130.894 Y101.228 E.02602
G1 X88.172 Y91.874 E1.83072
G1 X87.602 Y91.682 E.02517
G1 X87.037 Y91.341 E.02763
G1 X86.559 Y90.886 E.02765
G1 X86.19 Y90.338 E.02765
G1 X86 Y89.85 E.02192
G1 X86.298 Y89.691 F9000
G1 F3000
G1 X86.276 Y89.634 E.00252
G1 X86.186 Y89.055 E.02457
G1 X86.224 Y88.469 E.02457
G1 X86.388 Y87.905 E.02457
G1 X86.67 Y87.391 E.02457
G1 X87.057 Y86.95 E.02455
G1 X87.498 Y86.627 E.02287
G1 X130.176 Y61.987 E2.06288
G1 X130.712 Y61.756 E.02446
G1 X131.319 Y61.649 E.0258
G1 X131.95 Y61.683 E.02644
G1 X132.549 Y61.863 E.0262
G1 X133.09 Y62.175 E.02615
G1 X133.545 Y62.604 E.02615
G1 X133.888 Y63.126 E.02615
G1 X134.102 Y63.712 E.02615
G1 X134.169 Y64.293 E.02446
G1 X134.169 Y98.304 E1.42369
G1 X134.105 Y98.866 E.0237
G1 X133.907 Y99.432 E.02513
G1 X133.588 Y99.94 E.02512
G1 X133.165 Y100.364 E.02507
G1 X132.669 Y100.679 E.02458
G1 X132.093 Y100.884 E.0256
G1 X131.51 Y100.954 E.02458
G1 X130.947 Y100.896 E.02366
G1 X88.262 Y91.55 E1.82916
G1 X87.744 Y91.376 E.02287
G1 X87.242 Y91.073 E.02455
G1 X86.817 Y90.668 E.02457
G1 X86.49 Y90.181 E.02457
G1 X86.312 Y89.728 E.02037
G1 X86.61 Y89.568 F9000
;TYPE:Outer wall
G1 F3000
G1 X86.602 Y89.547 E.00098
G1 X86.523 Y89.039 E.02148
G1 X86.556 Y88.527 E.02148
G1 X86.7 Y88.035 E.02148
G1 X86.947 Y87.585 E.02148
G1 X87.285 Y87.199 E.02148
G1 X87.681 Y86.909 E.02057
G1 X130.326 Y62.288 E2.0613
G1 X130.809 Y62.079 E.022
G1 X131.339 Y61.986 E.02254
G1 X131.892 Y62.016 E.02315
G1 X132.416 Y62.173 E.02289
G1 X132.889 Y62.446 E.02286
G1 X133.286 Y62.821 E.02286
G1 X133.586 Y63.277 E.02286
G1 X133.773 Y63.79 E.02286
G1 X133.834 Y64.313 E.022
G1 X133.834 Y98.285 E1.42208
G1 X133.776 Y98.791 E.02132
G1 X133.603 Y99.286 E.02197
G1 X133.323 Y99.73 E.02196
G1 X132.953 Y100.101 E.02194
G1 X132.521 Y100.376 E.02145
G1 X132.015 Y100.556 E.02245
G1 X131.507 Y100.617 E.02145
G1 X131 Y100.565 E.0213
G1 X88.352 Y91.226 E1.82759
G1 X87.886 Y91.069 E.02057
G1 X87.446 Y90.804 E.02148
G1 X87.075 Y90.451 E.02148
G1 X86.789 Y90.025 E.02148
G1 X86.625 Y89.606 E.01883
G1 E-3.5 F1500
;WIPE_START
G1 F3000
G1 X86.602 Y89.547 E-.03166
G1 X86.523 Y89.039 E-.2566
G1 X86.55 Y88.617 E-.21173
;WIPE_END
G1 Z.8 F9000
G1 X136.463 Y106.729 Z.8
G1 Z.3
G1 E4 F1500
;TYPE:Inner wall
G1 F3000
G1 X136.463 Y150.25 E1.82183
G1 X141.613 Y150.25 E.21558
M73 P1 R70
G1 X141.613 Y154.729 E.18747
G1 X136.463 Y154.729 E.21558
G1 X136.463 Y162.25 E.31483
G1 X134.505 Y162.25 E.08194
G1 X134.505 Y153.879 E.35041
G1 X130.505 Y153.879 E.16744
G1 X130.505 Y153.621 E.01078
G1 X134.505 Y153.621 E.16744
G1 X134.505 Y129.879 E.99387
G1 X130.505 Y129.879 E.16744
G1 X130.505 Y129.621 E.01078
G1 X134.505 Y129.621 E.16744
G1 X134.505 Y106.299 E.97626
G1 X134.434 Y105.678 E.0262
G1 X134.209 Y105.041 E.02824
G1 X133.84 Y104.459 E.02887
G1 X133.361 Y103.984 E.02824
G1 X132.782 Y103.624 E.02854
G1 X132.189 Y103.421 E.02623
G1 X79.51 Y91.886 E2.25739
G1 X79.267 Y91.805 E.01072
G1 X79.098 Y91.707 E.00821
G1 X78.942 Y91.566 E.00877
G1 X78.795 Y91.363 E.01052
G1 X78.292 Y90.491 E.04214
G1 X78.182 Y90.239 E.01151
G1 X78.141 Y90.025 E.00912
G1 X78.149 Y89.807 E.00912
G1 X78.206 Y89.597 E.00912
G1 X78.307 Y89.404 E.00912
G1 X78.446 Y89.243 E.0089
G1 X78.672 Y89.075 E.01179
G1 X133.492 Y57.425 E2.64976
G1 X133.686 Y57.334 E.00895
G1 X133.851 Y57.29 E.00718
G1 X134.064 Y57.271 E.00895
G1 X134.509 Y57.271 E.0186
G1 X135.429 Y57.272 E.03855
G1 X135.7 Y57.302 E.01138
G1 X135.905 Y57.374 E.00913
G1 X136.09 Y57.49 E.00912
G1 X136.244 Y57.644 E.00912
G1 X136.36 Y57.828 E.00912
G1 X136.43 Y58.029 E.0089
G1 X136.463 Y58.309 E.0118
G1 X136.463 Y102.25 E1.8394
G1 X141.613 Y102.25 E.21558
G1 X141.613 Y106.729 E.18747
G1 X136.503 Y106.729 E.21391
G1 X136.798 Y107.064 F9000
G1 F3000
G1 X136.798 Y149.915 E1.79373
G1 X141.948 Y149.915 E.21558
G1 X141.948 Y162.603 E.53114
G1 X141.419 Y162.637 E.02218
G1 X141.419 Y155.064 E.31701
G1 X136.798 Y155.064 E.19345
G1 X136.798 Y162.585 E.31483
G1 X134.169 Y162.585 E.11004
G1 X134.169 Y154.214 E.35041
G1 X130.798 Y154.214 E.14112
G1 X130.798 Y162.214 E.33488
G1 X130.169 Y162.214 E.02632
G1 X130.169 Y153.286 E.37376
G1 X134.169 Y153.286 E.16744
G1 X134.169 Y130.214 E.96577
G1 X130.798 Y130.214 E.14112
G1 X130.798 Y138.214 E.33488
G1 X130.169 Y138.214 E.02632
G1 X130.169 Y129.286 E.37376
G1 X134.169 Y129.286 E.16744
G1 X134.169 Y106.319 E.96141
G1 X134.104 Y105.754 E.02381
G1 X133.905 Y105.189 E.02507
G1 X133.577 Y104.67 E.02568
G1 X133.152 Y104.249 E.02507
G1 X132.637 Y103.929 E.02537
G1 X132.098 Y103.745 E.02383
G1 X79.421 Y92.21 E2.25733
G1 X79.128 Y92.113 E.01292
G1 X78.899 Y91.979 E.01113
G1 X78.691 Y91.791 E.01171
G1 X78.513 Y91.545 E.01271
G1 X77.992 Y90.642 E.04365
G1 X77.859 Y90.338 E.01388
G1 X77.804 Y90.05 E.01229
G1 X77.815 Y89.757 E.01229
G1 X77.891 Y89.473 E.01229
G1 X78.028 Y89.214 E.01229
G1 X78.216 Y88.995 E.01204
G1 X78.488 Y88.794 E.01416
G1 X133.337 Y57.127 E2.65119
G1 X133.57 Y57.018 E.01079
G1 X133.793 Y56.958 E.00964
G1 X134.05 Y56.936 E.01079
G1 X134.509 Y56.936 E.01922
G1 X135.448 Y56.936 E.03934
G1 X135.775 Y56.973 E.01375
G1 X136.052 Y57.07 E.01229
G1 X136.301 Y57.226 E.01229
G1 X136.508 Y57.433 E.01229
G1 X136.664 Y57.682 E.01229
G1 X136.759 Y57.953 E.01204
G1 X136.798 Y58.29 E.01417
G1 X136.798 Y101.915 E1.82616
G1 X141.948 Y101.915 E.21558
G1 X141.948 Y114.603 E.53114
G1 X141.419 Y114.637 E.02218
G1 X141.419 Y107.064 E.31701
G1 X136.838 Y107.064 E.19177
G1 X137.134 Y107.4 F9000
;TYPE:Outer wall
G1 F3000
G1 X137.134 Y149.579 E1.76563
G1 X142.251 Y149.579 E.21419
G1 X142.262 Y149.609 E.00136
G1 X142.284 Y149.773 E.00691
G1 X142.284 Y162.727 E.54227
G1 X142.248 Y162.927 E.00852
G1 X141.586 Y162.953 E.02775
G1 X141.164 Y163.012 E.01785
G1 X140.837 Y162.967 E.0138
G1 X141.084 Y162.661 E.01646
G1 X141.084 Y155.4 E.30393
G1 X137.134 Y155.4 E.16535
G1 X137.134 Y162.921 E.31483
G1 X133.834 Y162.921 E.13814
G1 X133.834 Y154.55 E.35041
G1 X131.134 Y154.55 E.11302
G1 X131.134 Y162.55 E.33488
G1 X129.834 Y162.55 E.05442
G1 X129.834 Y152.95 E.40186
G1 X133.834 Y152.95 E.16744
G1 X133.834 Y130.55 E.93767
G1 X131.134 Y130.55 E.11302
G1 X131.134 Y138.55 E.33488
G1 X129.834 Y138.55 E.05442
G1 X129.834 Y128.95 E.40186
G1 X133.834 Y128.95 E.16744
G1 X133.834 Y106.338 E.94655
G1 X133.775 Y105.829 E.02142
G1 X133.602 Y105.336 E.02189
G1 X133.314 Y104.882 E.0225
G1 X132.942 Y104.514 E.02189
G1 X132.492 Y104.234 E.02219
G1 X132.008 Y104.069 E.02143
G1 X79.332 Y92.534 E2.25726
G1 X78.99 Y92.42 E.01511
G1 X78.699 Y92.251 E.01406
G1 X78.44 Y92.017 E.01464
G1 X78.231 Y91.728 E.01491
G1 X77.691 Y90.794 E.04517
G1 X77.536 Y90.438 E.01625
G1 X77.467 Y90.075 E.01546
G1 X77.481 Y89.706 E.01545
G1 X77.577 Y89.35 E.01545
G1 X77.749 Y89.023 E.01546
G1 X77.986 Y88.748 E.01519
G1 X78.303 Y88.513 E.01654
G1 X133.181 Y56.829 E2.65261
G1 X133.455 Y56.701 E.01264
G1 X133.734 Y56.626 E.0121
G1 X134.035 Y56.6 E.01263
G1 X134.509 Y56.6 E.01983
G1 X135.467 Y56.6 E.04012
G1 X135.85 Y56.643 E.01612
G1 X136.198 Y56.765 E.01546
G1 X136.511 Y56.962 E.01546
G1 X136.772 Y57.223 E.01545
G1 X136.969 Y57.535 E.01546
G1 X137.088 Y57.878 E.01518
G1 X137.134 Y58.27 E.01654
G1 X137.134 Y101.579 E1.81292
G1 X142.251 Y101.579 E.21419
M73 P1 R69
G1 X142.284 Y101.773 E.00823
G1 X142.284 Y114.727 E.54227
G1 X142.248 Y114.927 E.00852
G1 X141.586 Y114.953 E.02775
G1 X141.164 Y115.012 E.01785
G1 X140.837 Y114.967 E.0138
G1 X141.084 Y114.661 E.01646
G1 X141.084 Y107.4 E.30393
G1 X137.174 Y107.4 E.16367
G1 E-3.5 F1500
;WIPE_START
G1 F3000
G1 X137.173 Y108.4 E-.5
;WIPE_END
G1 Z.8 F9000
G1 X141.684 Y106.897
G1 Z.8
G1 Z.3
G1 E4 F1500
;TYPE:Gap infill
;WIDTH:0.257544
G1 F3000
G1 X141.684 Y114.445 E.18187
G1 E-3.5 F1500
;WIPE_START
G1 F3000
G1 X141.684 Y113.445 E-.5
;WIPE_END
G1 Z.8 F9000
G1 X130.484 Y130.047 Z.8
G1 Z.3
G1 E4 F1500
;WIDTH:0.357525
G1 F3000
G1 X130.484 Y138.047 E.2925
G1 E-3.5 F1500
;WIPE_START
G1 F3000
G1 X130.484 Y137.047 E-.5
;WIPE_END
G1 Z.8 F9000
G1 X130.484 Y154.047 Z.8
G1 Z.3
G1 E4 F1500
G1 F3000
G1 X130.484 Y162.047 E.2925
G1 E-3.5 F1500
;WIPE_START
G1 F3000
G1 X130.484 Y161.047 E-.5
;WIPE_END
G1 Z.8 F9000
G1 X141.684 Y162.445 Z.8
G1 Z.3
G1 E4 F1500
;WIDTH:0.257544
G1 F3000
G1 X141.684 Y154.897 E.18187
G1 E-3.5 F1500
;WIPE_START
G1 F3000
G1 X141.684 Y155.897 E-.5
;WIPE_END
G1 Z.8 F9000
G1 X136.336 Y58.092 Z.8
G1 Z.3
G1 E4 F1500
;TYPE:Bottom surface
;WIDTH:0.400679
G1 F3000
G1 X135.931 Y57.687 E.02406
G1 X135.796 Y57.602 E.00668
G1 X135.643 Y57.549 E.00676
G1 X135.291 Y57.523 E.01481
G1 X136.211 Y58.443 E.05455
G1 X136.211 Y58.918 E.01995
G1 X134.816 Y57.523 E.08277
G1 X134.34 Y57.523 E.01995
G1 X136.211 Y59.394 E.11098
G1 X136.211 Y59.87 E.01995
G1 X133.883 Y57.542 E.13808
G1 X133.772 Y57.572 E.00483
G1 X133.548 Y57.683 E.01047
G1 X136.211 Y60.345 E.15794
G1 X136.211 Y60.821 E.01995
G1 X133.247 Y57.857 E.17583
G1 X132.945 Y58.031 E.0146
G1 X136.211 Y61.296 E.19371
G1 X136.211 Y61.772 E.01995
G1 X132.644 Y58.205 E.2116
G1 X132.342 Y58.379 E.0146
G1 X136.211 Y62.248 E.22948
G1 X136.211 Y62.723 E.01995
G1 X132.041 Y58.553 E.24737
G1 X131.739 Y58.727 E.0146
G1 X136.211 Y63.199 E.26525
G1 X136.211 Y63.674 E.01995
G1 X131.438 Y58.901 E.28314
G1 X131.136 Y59.075 E.0146
G1 X136.211 Y64.15 E.30103
G1 X136.211 Y64.626 E.01995
G1 X130.835 Y59.249 E.31891
G1 X130.533 Y59.423 E.0146
G1 X132.278 Y61.168 E.1035
G1 X132.052 Y61.101 E.00992
G1 X131.716 Y61.082 E.01408
G1 X130.232 Y59.598 E.08807
G1 X129.93 Y59.772 E.0146
G1 X131.227 Y61.068 E.07693
G1 X130.823 Y61.14 E.01722
G1 X129.629 Y59.946 E.07083
G1 X129.327 Y60.12 E.0146
G1 X130.441 Y61.233 E.06605
G1 X130.108 Y61.377 E.01518
G1 X129.026 Y60.294 E.06422
G1 X128.724 Y60.468 E.0146
G1 X129.789 Y61.532 E.06314
G1 X129.487 Y61.706 E.0146
G1 X128.423 Y60.642 E.06314
G1 X128.121 Y60.816 E.0146
G1 X129.185 Y61.881 E.06314
G1 X128.884 Y62.055 E.0146
G1 X127.819 Y60.99 E.06314
G1 X127.518 Y61.164 E.0146
G1 X128.582 Y62.229 E.06314
G1 X128.281 Y62.403 E.0146
G1 X127.216 Y61.338 E.06314
G1 X126.915 Y61.512 E.0146
G1 X127.979 Y62.577 E.06314
G1 X127.678 Y62.751 E.0146
G1 X126.613 Y61.686 E.06314
G1 X126.312 Y61.861 E.0146
G1 X127.376 Y62.925 E.06314
G1 X127.075 Y63.099 E.0146
G1 X126.01 Y62.035 E.06314
G1 X125.709 Y62.209 E.0146
G1 X126.773 Y63.273 E.06314
G1 X126.472 Y63.447 E.0146
G1 X125.407 Y62.383 E.06314
G1 X125.106 Y62.557 E.0146
G1 X126.17 Y63.621 E.06314
G1 X125.869 Y63.795 E.0146
G1 X124.804 Y62.731 E.06314
G1 X124.503 Y62.905 E.0146
G1 X125.567 Y63.97 E.06314
G1 X125.266 Y64.144 E.0146
G1 X124.201 Y63.079 E.06314
G1 X123.9 Y63.253 E.0146
G1 X124.964 Y64.318 E.06314
G1 X124.663 Y64.492 E.0146
G1 X123.598 Y63.427 E.06314
G1 X123.297 Y63.601 E.0146
G1 X124.361 Y64.666 E.06314
G1 X124.06 Y64.84 E.0146
G1 X122.995 Y63.775 E.06314
G1 X122.694 Y63.95 E.0146
G1 X123.758 Y65.014 E.06314
G1 X123.457 Y65.188 E.0146
G1 X122.392 Y64.124 E.06314
G1 X122.091 Y64.298 E.0146
G1 X123.155 Y65.362 E.06314
G1 X122.854 Y65.536 E.0146
G1 X121.789 Y64.472 E.06314
G1 X121.488 Y64.646 E.0146
G1 X122.552 Y65.71 E.06314
G1 X122.251 Y65.884 E.0146
G1 X121.186 Y64.82 E.06314
G1 X120.885 Y64.994 E.0146
G1 X121.949 Y66.058 E.06314
G1 X121.648 Y66.233 E.0146
G1 X120.583 Y65.168 E.06314
G1 X120.282 Y65.342 E.0146
G1 X121.346 Y66.407 E.06314
G1 X121.045 Y66.581 E.0146
G1 X119.98 Y65.516 E.06314
G1 X119.679 Y65.69 E.0146
G1 X120.743 Y66.755 E.06314
G1 X120.441 Y66.929 E.0146
G1 X119.377 Y65.864 E.06314
G1 X119.076 Y66.039 E.0146
G1 X120.14 Y67.103 E.06314
G1 X119.838 Y67.277 E.0146
G1 X118.774 Y66.213 E.06314
G1 X118.472 Y66.387 E.0146
G1 X119.537 Y67.451 E.06314
G1 X119.235 Y67.625 E.0146
G1 X118.171 Y66.561 E.06314
G1 X117.869 Y66.735 E.0146
G1 X118.934 Y67.799 E.06314
G1 X118.632 Y67.973 E.0146
G1 X117.568 Y66.909 E.06314
G1 X117.266 Y67.083 E.0146
G1 X118.331 Y68.147 E.06314
G1 X118.029 Y68.322 E.0146
G1 X116.965 Y67.257 E.06314
G1 X116.663 Y67.431 E.0146
G1 X117.728 Y68.496 E.06314
G1 X117.426 Y68.67 E.0146
G1 X116.362 Y67.605 E.06314
G1 X116.06 Y67.779 E.0146
G1 X117.125 Y68.844 E.06314
G1 X116.823 Y69.018 E.0146
G1 X115.759 Y67.953 E.06314
