; HEADER_BLOCK_START
; generated by OrcaSlicer 2.1.1 on 2025-02-14 at 20:25:21
; total layer number: 82
; filament_density: 1.04
; filament_diameter: 1.75
; max_z_height: 16.50
; HEADER_BLOCK_END

; THUMBNAIL_BLOCK_START

;
; THUMBNAIL_BLOCK_END

; external perimeters extrusion width = 0.40mm
; perimeters extrusion width = 0.40mm
; infill extrusion width = 0.40mm
; solid infill extrusion width = 0.40mm
; top infill extrusion width = 0.40mm
; first layer extrusion width = 0.40mm

; EXECUTABLE_BLOCK_START
M73 P0 R55
;TYPE:Custom
G90 ; use absolute coordinates
M83 ; extruder relative mode
M140 S100 ; set final bed temp
M104 S150 ; set temporary nozzle temp to prevent oozing during homing
G4 S10 ; allow partial nozzle warmup
M104 S250 ; set final nozzle temp
M190 S100 ; wait for bed temp to stabilize
M109 S250 ; wait for nozzle temp to stabilize
G28 ; home all axis
G1 Z15 F240
G1 X1 Y10 F3000
G1 Z0.28 F240
G92 E0
G1 Y140 E10 F1500 ; prime the nozzle
G1 X1.2 F5000
G92 E0
G1 Y10 E10 F1200 ; prime the nozzle
G92 E0
M106 P3 S178
G90
G21
M83 ; use relative distances for extrusion
; Filament gcode
M106 S0
;LAYER_CHANGE
;Z:0.3
;HEIGHT:0.3
;BEFORE_LAYER_CHANGE
;0.3
G92 E0

G1 E-4 F1500
;_SET_FAN_SPEED_CHANGING_LAYER
M204 S4000
G1 Z.5 F9000
G1 X25.803 Y44.705
G1 Z.5
G1 Z.3
G1 E4 F1500
;TYPE:Skirt
;WIDTH:0.4
G1 F3000
G1 X26.177 Y44.55 E.01694
G1 X26.85 Y44.369 E.02919
G1 X27.6 Y44.294 E.03155
G1 X192.749 Y44.317 E6.91317
G1 X193.15 Y44.369 E.01694
G1 X194.197 Y44.705 E.04603
G1 X194.801 Y45.053 E.02919
G1 X195.615 Y45.793 E.04604
G1 X196.21 Y46.718 E.04603
G1 X196.365 Y47.092 E.01694
G1 X196.546 Y47.765 E.02919
G1 X196.621 Y48.515 E.03155
G1 X196.621 Y171.485 E5.14756
G1 X196.546 Y172.235 E.03155
G1 X196.21 Y173.282 E.04604
G1 X195.615 Y174.207 E.04603
G1 X195.122 Y174.7 E.02919
G1 X194.197 Y175.295 E.04604
G1 X193.823 Y175.45 E.01694
G1 X193.15 Y175.631 E.02919
G1 X192.4 Y175.706 E.03155
G1 X27.6 Y175.706 E6.89858
G1 X26.85 Y175.631 E.03155
G1 X25.803 Y175.295 E.04604
G1 X25.199 Y174.947 E.02919
G1 X24.385 Y174.207 E.04604
G1 X24.138 Y173.886 E.01694
G1 X23.635 Y172.908 E.04604
G1 X23.454 Y172.235 E.02919
G1 X23.379 Y171.485 E.03155
G1 X23.379 Y48.515 E5.14756
G1 X23.454 Y47.765 E.03155
G1 X23.79 Y46.718 E.04604
G1 X24.138 Y46.114 E.02919
G1 X24.878 Y45.3 E.04604
G1 X25.769 Y44.726 E.04436
G1 X25.931 Y45.015 F9000
G1 F3000
G1 X26.305 Y44.86 E.01694
G1 X26.894 Y44.702 E.02552
G1 X27.6 Y44.629 E.02971
G1 X192.705 Y44.649 E6.91134
G1 X193.106 Y44.702 E.01694
M73 P1 R54
G1 X194.069 Y45.015 E.04237
G1 X194.597 Y45.32 E.02553
G1 X195.349 Y45.997 E.04237
G1 X195.9 Y46.846 E.04237
G1 X196.055 Y47.22 E.01694
G1 X196.213 Y47.809 E.02553
G1 X196.286 Y48.515 E.02971
G1 X196.286 Y171.485 E5.14756
G1 X196.213 Y172.191 E.02971
G1 X195.9 Y173.154 E.04238
G1 X195.349 Y174.003 E.04237
G1 X194.918 Y174.434 E.02552
G1 X194.069 Y174.985 E.04238
G1 X193.695 Y175.14 E.01694
G1 X193.106 Y175.298 E.02552
G1 X192.4 Y175.371 E.02971
G1 X27.6 Y175.371 E6.89858
G1 X26.894 Y175.298 E.02971
G1 X25.931 Y174.985 E.04237
G1 X25.403 Y174.68 E.02552
G1 X24.651 Y174.003 E.04237
G1 X24.405 Y173.682 E.01694
G1 X23.945 Y172.78 E.04237
G1 X23.787 Y172.191 E.02552
G1 X23.714 Y171.485 E.02971
G1 X23.714 Y48.515 E5.14756
G1 X23.787 Y47.809 E.02971
G1 X24.1 Y46.846 E.04238
G1 X24.405 Y46.318 E.02552
G1 X25.082 Y45.566 E.04237
G1 X25.898 Y45.037 E.0407
; printing object HDMI7_Uni_Lid_v24.stl id:0 copy 0
G1 E-3.5 F1500
;WIPE_START
G1 F3000
G1 X26.305 Y44.86 E-.22201
G1 X26.842 Y44.716 E-.27799
;WIPE_END
G1 Z.8 F9000
G1 X30.802 Y157.307 Z.8
G1 Z.3
G1 E4 F1500
;TYPE:Inner wall
G1 F3000
G1 X30.768 Y157.225 E.0037
G1 X30.679 Y156.547 E.02865
G1 X30.679 Y70.453 E3.60392
G1 X30.768 Y69.775 E.02865
G1 X31.056 Y69.08 E.03147
G1 X31.514 Y68.483 E.03147
G1 X32.11 Y68.026 E.03147
G1 X32.805 Y67.738 E.03147
G1 X33.483 Y67.649 E.02865
G1 X188.517 Y67.649 E6.48976
G1 X189.195 Y67.738 E.02865
G1 X189.89 Y68.026 E.03147
G1 X190.487 Y68.483 E.03147
G1 X190.944 Y69.08 E.03147
G1 X191.232 Y69.775 E.03147
G1 X191.321 Y70.453 E.02865
G1 X191.321 Y156.547 E3.60392
G1 X191.232 Y157.225 E.02865
G1 X190.944 Y157.92 E.03147
G1 X190.486 Y158.517 E.03147
G1 X189.89 Y158.974 E.03147
G1 X189.195 Y159.262 E.03147
G1 X188.517 Y159.351 E.02865
G1 X33.483 Y159.351 E6.48976
G1 X32.805 Y159.262 E.02865
G1 X32.11 Y158.974 E.03147
G1 X31.514 Y158.517 E.03147
G1 X31.056 Y157.92 E.03147
G1 X30.817 Y157.344 E.0261
G1 X31.112 Y157.179 F9000
G1 F3000
G1 X31.095 Y157.138 E.00185
G1 X31.014 Y156.525 E.02588
G1 X31.014 Y70.475 E3.60207
G1 X31.095 Y69.862 E.02588
G1 X31.349 Y69.249 E.02777
G1 X31.753 Y68.723 E.02777
G1 X32.279 Y68.319 E.02777
G1 X32.892 Y68.065 E.02777
G1 X33.505 Y67.984 E.02588
G1 X188.495 Y67.984 E6.48792
G1 X189.108 Y68.065 E.02588
G1 X189.721 Y68.319 E.02777
G1 X190.247 Y68.723 E.02777
G1 X190.651 Y69.249 E.02777
G1 X190.905 Y69.862 E.02777
G1 X190.986 Y70.475 E.02588
G1 X190.986 Y156.525 E3.60207
G1 X190.905 Y157.138 E.02588
G1 X190.651 Y157.751 E.02777
G1 X190.247 Y158.277 E.02777
G1 X189.721 Y158.681 E.02777
G1 X189.108 Y158.935 E.02777
G1 X188.495 Y159.016 E.02588
G1 X33.505 Y159.016 E6.48792
G1 X32.892 Y158.935 E.02588
G1 X32.279 Y158.681 E.02777
G1 X31.753 Y158.277 E.02777
G1 X31.349 Y157.751 E.02777
G1 X31.127 Y157.216 E.02425
G1 X31.422 Y157.05 F9000
;TYPE:Outer wall
G1 F3000
G1 X31.35 Y156.503 E.02311
G1 X31.35 Y70.497 E3.60023
G1 X31.422 Y69.95 E.02311
M73 P2 R54
G1 X31.642 Y69.418 E.02407
G1 X31.992 Y68.962 E.02407
G1 X32.449 Y68.612 E.02407
G1 X32.98 Y68.392 E.02407
G1 X33.527 Y68.32 E.02311
G1 X188.473 Y68.32 E6.48608
G1 X189.02 Y68.392 E.02311
G1 X189.552 Y68.612 E.02407
G1 X190.008 Y68.962 E.02407
G1 X190.358 Y69.418 E.02407
G1 X190.578 Y69.95 E.02407
G1 X190.65 Y70.497 E.02311
G1 X190.65 Y156.503 E3.60023
G1 X190.578 Y157.05 E.02311
G1 X190.358 Y157.582 E.02407
G1 X190.008 Y158.038 E.02407
G1 X189.551 Y158.388 E.02407
G1 X189.02 Y158.608 E.02407
G1 X188.473 Y158.68 E.02311
G1 X33.527 Y158.68 E6.48608
G1 X32.98 Y158.608 E.02311
G1 X32.448 Y158.388 E.02407
G1 X31.992 Y158.038 E.02407
G1 X31.642 Y157.582 E.02407
G1 X31.437 Y157.087 E.0224
G1 E-3.5 F1500
;WIPE_START
G1 F3000
G1 X31.35 Y156.503 E-.29535
G1 X31.35 Y156.094 E-.20465
;WIPE_END
G1 Z.8 F9000
G1 X192.66 Y171.935 Z.8
G1 Z.3
G1 E4 F1500
;TYPE:Inner wall
G1 F3000
G1 X192.535 Y171.987 E.00568
G1 X192.333 Y172.014 E.00851
G1 X27.667 Y172.014 E6.89297
G1 X27.465 Y171.987 E.00851
G1 X27.34 Y171.935 E.00568
G1 X27.232 Y171.853 E.00568
G1 X27.15 Y171.745 E.00568
G1 X27.098 Y171.62 E.00568
G1 X27.071 Y171.418 E.00851
G1 X27.071 Y48.582 E5.14196
G1 X27.098 Y48.38 E.00851
G1 X27.15 Y48.255 E.00568
G1 X27.232 Y48.147 E.00568
G1 X27.34 Y48.065 E.00568
G1 X27.465 Y48.013 E.00568
G1 X27.667 Y47.986 E.00851
G1 X192.396 Y47.995 E6.89561
G1 X192.535 Y48.013 E.00585
G1 X192.66 Y48.065 E.00568
G1 X192.768 Y48.147 E.00568
G1 X192.85 Y48.255 E.00568
G1 X192.902 Y48.38 E.00568
G1 X192.929 Y48.582 E.00851
G1 X192.929 Y171.418 E5.14196
G1 X192.902 Y171.62 E.00851
G1 X192.85 Y171.745 E.00568
G1 X192.768 Y171.853 E.00568
G1 X192.692 Y171.911 E.00401
G1 X192.829 Y172.228 F9000
G1 F3000
G1 X192.622 Y172.314 E.00938
G1 X192.355 Y172.349 E.01128
G1 X27.645 Y172.349 E6.89482
G1 X27.378 Y172.314 E.01128
G1 X27.171 Y172.228 E.00938
G1 X26.993 Y172.092 E.00938
G1 X26.857 Y171.914 E.00938
G1 X26.771 Y171.707 E.00938
G1 X26.736 Y171.44 E.01128
G1 X26.736 Y48.56 E5.1438
G1 X26.771 Y48.293 E.01128
M73 P2 R53
G1 X26.857 Y48.086 E.00938
G1 X26.993 Y47.908 E.00938
G1 X27.171 Y47.772 E.00938
G1 X27.378 Y47.686 E.00938
G1 X27.645 Y47.651 E.01128
G1 X192.44 Y47.662 E6.89837
G1 X192.622 Y47.686 E.0077
G1 X192.829 Y47.772 E.00938
G1 X193.007 Y47.908 E.00938
G1 X193.143 Y48.086 E.00938
G1 X193.229 Y48.293 E.00938
G1 X193.264 Y48.56 E.01128
G1 X193.264 Y171.44 E5.1438
G1 X193.229 Y171.707 E.01128
M73 P3 R53
G1 X193.143 Y171.914 E.00938
G1 X193.007 Y172.092 E.00938
G1 X192.861 Y172.204 E.00771
G1 X192.999 Y172.522 F9000
;TYPE:Outer wall
G1 F3000
G1 X192.71 Y172.641 E.01308
G1 X192.377 Y172.685 E.01405
G1 X27.623 Y172.685 E6.89666
G1 X27.29 Y172.641 E.01405
G1 X27.002 Y172.522 E.01308
G1 X26.754 Y172.331 E.01308
G1 X26.563 Y172.083 E.01308
G1 X26.444 Y171.795 E.01308
G1 X26.4 Y171.462 E.01405
G1 X26.4 Y48.538 E5.14564
G1 X26.444 Y48.205 E.01405
G1 X26.563 Y47.917 E.01308
G1 X26.754 Y47.669 E.01308
G1 X27.002 Y47.478 E.01308
G1 X27.29 Y47.359 E.01308
G1 X27.623 Y47.315 E.01405
G1 X192.377 Y47.315 E6.89666
G1 X192.484 Y47.329 E.0045
G1 X192.71 Y47.359 E.00955
G1 X192.999 Y47.478 E.01308
G1 X193.246 Y47.669 E.01308
G1 X193.437 Y47.917 E.01308
G1 X193.556 Y48.205 E.01308
G1 X193.6 Y48.538 E.01405
G1 X193.6 Y171.462 E5.14564
G1 X193.556 Y171.795 E.01405
G1 X193.437 Y172.083 E.01308
G1 X193.246 Y172.331 E.01308
G1 X193.03 Y172.497 E.01141
G1 E-3.5 F1500
;WIPE_START
G1 F3000
G1 X192.71 Y172.641 E-.17564
G1 X192.377 Y172.685 E-.16781
G1 X192.064 Y172.685 E-.15655
;WIPE_END
G1 Z.8 F9000
G1 X191.883 Y48.095
G1 Z.8
G1 Z.3
G1 E4 F1500
;TYPE:Bottom surface
;WIDTH:0.40049
G1 F3000
G1 X192.677 Y48.889 E.04709
G1 X192.677 Y49.365 E.01993
G1 X191.558 Y48.246 E.06632
G1 X191.083 Y48.246 E.01993
G1 X192.677 Y49.84 E.0945
G1 X192.677 Y50.315 E.01993
G1 X190.608 Y48.246 E.12268
G1 X190.132 Y48.246 E.01993
G1 X192.677 Y50.791 E.15086
G1 X192.677 Y51.266 E.01993
G1 X189.657 Y48.246 E.17904
G1 X189.182 Y48.246 E.01993
G1 X192.677 Y51.741 E.20722
G1 X192.677 Y52.217 E.01993
G1 X188.706 Y48.246 E.23541
G1 X188.231 Y48.246 E.01993
G1 X192.677 Y52.692 E.26359
G1 X192.677 Y53.167 E.01993
G1 X187.756 Y48.246 E.29177
G1 X187.28 Y48.246 E.01993
G1 X192.677 Y53.643 E.31995
G1 X192.677 Y54.118 E.01993
G1 X186.805 Y48.246 E.34813
G1 X186.33 Y48.246 E.01993
G1 X192.677 Y54.593 E.37632
G1 X192.677 Y55.069 E.01993
G1 X185.854 Y48.246 E.4045
G1 X185.379 Y48.246 E.01993
G1 X192.677 Y55.544 E.43268
G1 X192.677 Y56.019 E.01993
G1 X184.904 Y48.246 E.46086
G1 X184.428 Y48.246 E.01993
G1 X192.677 Y56.495 E.48904
G1 X192.677 Y56.97 E.01993
G1 X183.953 Y48.246 E.51722
G1 X183.477 Y48.246 E.01993
G1 X192.677 Y57.445 E.54541
G1 X192.677 Y57.921 E.01993
G1 X183.002 Y48.246 E.57359
G1 X182.527 Y48.246 E.01993
G1 X192.677 Y58.396 E.60177
G1 X192.677 Y58.871 E.01993
G1 X182.051 Y48.246 E.62995
G1 X181.576 Y48.246 E.01993
G1 X192.677 Y59.347 E.65813
G1 X192.677 Y59.822 E.01993
G1 X181.101 Y48.246 E.68631
G1 X180.625 Y48.246 E.01993
G1 X192.677 Y60.297 E.7145
G1 X192.677 Y60.773 E.01993
G1 X180.15 Y48.246 E.74268
G1 X179.675 Y48.246 E.01993
G1 X192.677 Y61.248 E.77086
G1 X192.677 Y61.723 E.01993
G1 X179.199 Y48.246 E.79904
G1 X178.724 Y48.246 E.01993
G1 X192.677 Y62.199 E.82722
G1 X192.677 Y62.674 E.01993
G1 X178.249 Y48.246 E.8554
G1 X177.773 Y48.246 E.01993
G1 X192.677 Y63.149 E.88359
G1 X192.677 Y63.625 E.01993
G1 X177.298 Y48.245 E.91177
G1 X176.822 Y48.245 E.01993
G1 X192.677 Y64.1 E.93995
G1 X192.677 Y64.575 E.01993
G1 X176.347 Y48.245 E.96813
G1 X175.872 Y48.245 E.01993
G1 X192.677 Y65.051 E.99631
G1 X192.677 Y65.526 E.01993
G1 X175.396 Y48.245 E1.02449
G1 X174.921 Y48.245 E.01993
G1 X192.677 Y66.001 E1.05268
G1 X192.677 Y66.477 E.01993
G1 X174.446 Y48.245 E1.08086
G1 X173.97 Y48.245 E.01993
G1 X192.677 Y66.952 E1.10904
G1 X192.677 Y67.427 E.01993
G1 X173.495 Y48.245 E1.13722
G1 X173.02 Y48.245 E.01993
G1 X192.677 Y67.903 E1.1654
G1 X192.677 Y68.378 E.01993
G1 X172.544 Y48.245 E1.19358
G1 X172.069 Y48.245 E.01993
G1 X192.677 Y68.853 E1.22177
G1 X192.677 Y69.329 E.01993
G1 X171.594 Y48.245 E1.24995
G1 X171.118 Y48.245 E.01993
G1 X192.677 Y69.804 E1.27813
G1 X192.677 Y70.279 E.01993
G1 X170.643 Y48.245 E1.30631
G1 X170.168 Y48.245 E.01993
G1 X189.524 Y67.602 E1.14758
G1 X190.017 Y67.806 E.02236
G1 X190.666 Y68.304 E.0343
G1 X191.164 Y68.953 E.0343
G1 X191.368 Y69.446 E.02236
G1 X192.677 Y70.755 E.0776
G1 X192.677 Y71.23 E.01993
G1 X191.526 Y70.079 E.06825
G1 X191.573 Y70.437 E.01513
G1 X191.573 Y70.601 E.0069
G1 X192.677 Y71.705 E.06546
G1 X192.677 Y72.181 E.01993
G1 X191.573 Y71.077 E.06546
G1 X191.573 Y71.552 E.01993
G1 X192.677 Y72.656 E.06546
G1 X192.677 Y73.131 E.01993
G1 X191.573 Y72.027 E.06546
G1 X191.573 Y72.503 E.01993
G1 X192.677 Y73.607 E.06546
G1 X192.677 Y74.082 E.01993
G1 X191.573 Y72.978 E.06546
G1 X191.573 Y73.453 E.01993
G1 X192.677 Y74.557 E.06546
G1 X192.677 Y75.033 E.01993
G1 X191.573 Y73.929 E.06546
G1 X191.573 Y74.404 E.01993
G1 X192.677 Y75.508 E.06546
G1 X192.677 Y75.983 E.01993
G1 X191.573 Y74.879 E.06546
G1 X191.573 Y75.355 E.01993
G1 X192.677 Y76.459 E.06546
G1 X192.677 Y76.934 E.01993
G1 X191.573 Y75.83 E.06546
G1 X191.573 Y76.305 E.01993
G1 X192.677 Y77.409 E.06546
G1 X192.677 Y77.885 E.01993
G1 X191.573 Y76.78 E.06546
G1 X191.573 Y77.256 E.01993
G1 X192.677 Y78.36 E.06546
G1 X192.677 Y78.835 E.01993
G1 X191.573 Y77.731 E.06546
G1 X191.573 Y78.206 E.01993
G1 X192.677 Y79.311 E.06546
G1 X192.677 Y79.786 E.01993
G1 X191.573 Y78.682 E.06546
G1 X191.573 Y79.157 E.01993
G1 X192.677 Y80.261 E.06546
G1 X192.677 Y80.737 E.01993
G1 X191.573 Y79.632 E.06546
G1 X191.573 Y80.108 E.01993
G1 X192.677 Y81.212 E.06546
G1 X192.677 Y81.687 E.01993
G1 X191.573 Y80.583 E.06546
G1 X191.573 Y81.058 E.01993
G1 X192.677 Y82.163 E.06546
G1 X192.677 Y82.638 E.01993
G1 X191.573 Y81.534 E.06546
G1 X191.573 Y82.009 E.01993
G1 X192.677 Y83.113 E.06546
G1 X192.677 Y83.589 E.01993
G1 X191.573 Y82.484 E.06546
G1 X191.573 Y82.96 E.01993
G1 X192.677 Y84.064 E.06546
G1 X192.677 Y84.539 E.01993
G1 X191.573 Y83.435 E.06546
G1 X191.573 Y83.91 E.01993
G1 X192.677 Y85.015 E.06546
G1 X192.677 Y85.49 E.01993
G1 X191.573 Y84.386 E.06546
G1 X191.573 Y84.861 E.01993
G1 X192.677 Y85.965 E.06546
G1 X192.677 Y86.441 E.01993
G1 X191.573 Y85.336 E.06546
G1 X191.573 Y85.812 E.01993
G1 X192.677 Y86.916 E.06546
G1 X192.677 Y87.391 E.01993
G1 X191.573 Y86.287 E.06546
G1 X191.573 Y86.762 E.01993
G1 X192.677 Y87.867 E.06546
G1 X192.677 Y88.342 E.01993
G1 X191.573 Y87.238 E.06546
G1 X191.573 Y87.713 E.01993
G1 X192.677 Y88.817 E.06546
G1 X192.677 Y89.293 E.01993
G1 X191.573 Y88.188 E.06546
G1 X191.573 Y88.664 E.01993
G1 X192.677 Y89.768 E.06546
G1 X192.677 Y90.243 E.01993
G1 X191.573 Y89.139 E.06546
G1 X191.573 Y89.614 E.01993
G1 X192.677 Y90.718 E.06546
G1 X192.677 Y91.194 E.01993
G1 X191.573 Y90.09 E.06546
G1 X191.573 Y90.565 E.01993
G1 X192.677 Y91.669 E.06546
G1 X192.677 Y92.144 E.01993
G1 X191.573 Y91.04 E.06546
G1 X191.573 Y91.516 E.01993
G1 X192.677 Y92.62 E.06546
G1 X192.677 Y93.095 E.01993
G1 X191.573 Y91.991 E.06546
G1 X191.573 Y92.466 E.01993
G1 X192.677 Y93.57 E.06546
G1 X192.677 Y94.046 E.01993
G1 X191.573 Y92.942 E.06546
G1 X191.573 Y93.417 E.01993
G1 X192.677 Y94.521 E.06546
G1 X192.677 Y94.996 E.01993
G1 X191.573 Y93.892 E.06546
G1 X191.573 Y94.368 E.01993
G1 X192.677 Y95.472 E.06546
G1 X192.677 Y95.947 E.01993
G1 X191.573 Y94.843 E.06546
G1 X191.573 Y95.318 E.01993
G1 X192.677 Y96.422 E.06546
G1 X192.677 Y96.898 E.01993
G1 X191.573 Y95.794 E.06546
G1 X191.573 Y96.269 E.01993
G1 X192.677 Y97.373 E.06546
G1 X192.677 Y97.848 E.01993
G1 X191.573 Y96.744 E.06546
G1 X191.573 Y97.22 E.01993
G1 X192.677 Y98.324 E.06546
G1 X192.677 Y98.799 E.01993
G1 X191.573 Y97.695 E.06546
G1 X191.573 Y98.17 E.01993
G1 X192.677 Y99.274 E.06546
G1 X192.677 Y99.75 E.01993
G1 X191.573 Y98.646 E.06546
G1 X191.573 Y99.121 E.01993
G1 X192.677 Y100.225 E.06546
G1 X192.677 Y100.7 E.01993
M73 P4 R53
G1 X191.573 Y99.596 E.06546
G1 X191.573 Y100.072 E.01993
G1 X192.677 Y101.176 E.06546
G1 X192.677 Y101.651 E.01993
G1 X191.573 Y100.547 E.06546
G1 X191.573 Y101.022 E.01993
G1 X192.677 Y102.126 E.06546
G1 X192.677 Y102.602 E.01993
G1 X191.573 Y101.498 E.06546
G1 X191.573 Y101.973 E.01993
G1 X192.677 Y103.077 E.06546
G1 X192.677 Y103.552 E.01993
G1 X191.573 Y102.448 E.06546
G1 X191.573 Y102.924 E.01993
G1 X192.677 Y104.028 E.06546
G1 X192.677 Y104.503 E.01993
G1 X191.573 Y103.399 E.06546
G1 X191.573 Y103.874 E.01993
G1 X192.677 Y104.978 E.06546
G1 X192.677 Y105.454 E.01993
G1 X191.573 Y104.35 E.06546
G1 X191.573 Y104.825 E.01993
G1 X192.677 Y105.929 E.06546
G1 X192.677 Y106.404 E.01993
G1 X191.573 Y105.3 E.06546
G1 X191.573 Y105.776 E.01993
