; HEADER_BLOCK_START
; generated by OrcaSlicer 2.2.0 on 2025-02-08 at 14:45:33
; total layer number: 81
; filament_density: 1.04
; filament_diameter: 1.75
; max_z_height: 16.30
; HEADER_BLOCK_END

; THUMBNAIL_BLOCK_START

;
; THUMBNAIL_BLOCK_END

; external perimeters extrusion width = 0.40mm
; perimeters extrusion width = 0.40mm
; infill extrusion width = 0.40mm
; solid infill extrusion width = 0.40mm
; top infill extrusion width = 0.40mm
; first layer extrusion width = 0.40mm

; external perimeters extrusion width = 0.40mm
; perimeters extrusion width = 0.40mm
; infill extrusion width = 0.40mm
; solid infill extrusion width = 0.40mm
; top infill extrusion width = 0.40mm
; first layer extrusion width = 0.40mm

; external perimeters extrusion width = 0.40mm
; perimeters extrusion width = 0.40mm
; infill extrusion width = 0.40mm
; solid infill extrusion width = 0.40mm
; top infill extrusion width = 0.40mm
; first layer extrusion width = 0.40mm

; EXECUTABLE_BLOCK_START
M73 P0 R60
;TYPE:Custom
G90 ; use absolute coordinates
M83 ; extruder relative mode
M140 S100 ; set final bed temp
M104 S150 ; set temporary nozzle temp to prevent oozing during homing
G4 S10 ; allow partial nozzle warmup
M104 S250 ; set final nozzle temp
M190 S100 ; wait for bed temp to stabilize
M109 S250 ; wait for nozzle temp to stabilize
G28 ; home all axis
G1 Z15 F240
G1 X-2 Y10 F3000
M73 P0 R59
M73 P0 R59
G1 Z0.28 F240
G92 E0
G1 Y140 E10 F1500 ; prime the nozzle
G1 X-1.7 F5000
G92 E0
G1 Y10 E10 F1200 ; prime the nozzle
G92 E0
M106 P3 S178
G90
G21
M83 ; use relative distances for extrusion
; Filament gcode
M106 S0
;LAYER_CHANGE
;Z:0.3
;HEIGHT:0.3
;BEFORE_LAYER_CHANGE
;0.3
G92 E0

G1 E-4 F1500
;_SET_FAN_SPEED_CHANGING_LAYER
M204 S1500
G1 Z.8 F7500
G1 X70.654 Y81.146
G1 Z.8
G1 Z.3
G1 E4 F1500
;TYPE:Skirt
;WIDTH:0.4
G1 F3000
G1 X119.153 Y62.783 E2.17084
G1 X120.005 Y62.594 E.03653
G1 X121.2 Y62.497 E.05019
G1 X141.309 Y62.499 E.84178
G1 X143.036 Y62.726 E.07291
G1 X144.271 Y63.156 E.05474
G1 X145.413 Y63.793 E.05474
G1 X146.427 Y64.619 E.05474
G1 X146.99 Y65.228 E.03474
G1 X153.36 Y73.242 E.42853
G1 X153.903 Y74.8 E.06906
G1 X153.903 Y145.2 E2.94697
G1 X153.36 Y146.758 E.06906
G1 X146.99 Y154.772 E.42853
G1 X146.427 Y155.381 E.03474
G1 X145.413 Y156.207 E.05474
G1 X144.469 Y156.752 E.04563
G1 X143.247 Y157.217 E.05474
G1 X141.963 Y157.463 E.05474
G1 X68.6 Y157.503 E3.07098
G1 X67.255 Y157.111 E.05865
G1 X66.331 Y156.058 E.05865
G1 X66.097 Y155 E.04537
G1 X66.097 Y84.6 E2.94697
G1 X66.489 Y83.255 E.05865
G1 X67.712 Y82.259 E.06604
G1 X70.616 Y81.16 E.12999
G1 X70.735 Y81.474 F7500
G1 F3000
G1 X119.254 Y63.103 E2.17172
G1 X120.049 Y62.927 E.03408
G1 X121.2 Y62.832 E.04835
G1 X141.295 Y62.834 E.84116
G1 X142.963 Y63.054 E.07046
G1 X144.143 Y63.466 E.05229
G1 X145.233 Y64.076 E.05229
G1 X146.2 Y64.866 E.05229
G1 X146.727 Y65.437 E.03253
G1 X153.097 Y73.451 E.42853
G1 X153.568 Y74.8 E.0598
G1 X153.568 Y145.2 E2.94697
G1 X153.097 Y146.549 E.0598
G1 X146.727 Y154.563 E.42853
G1 X146.2 Y155.134 E.03253
G1 X145.388 Y155.816 E.0444
G1 X144.314 Y156.454 E.05229
G1 X143.146 Y156.897 E.05229
G1 X141.919 Y157.13 E.05229
G1 X68.6 Y157.168 E3.06915
G1 X67.358 Y156.777 E.05449
G1 X66.564 Y155.746 E.05449
G1 X66.432 Y155 E.0317
G1 X66.432 Y84.6 E2.94697
G1 X66.823 Y83.358 E.05449
G1 X67.831 Y82.573 E.0535
G1 X70.698 Y81.488 E.12831
; printing object LM2596s_Buck_Converter_case_top_v3.stl id:1944671324928 copy 0
G1 E-3.5 F1500
;WIPE_START
G1 F3000
G1 X71.633 Y81.134 E-.5
;WIPE_END
G1 Z.8 F7500
G1 X106.25 Y117.25 Z.8
G1 Z.3
G1 E4 F1500
;TYPE:Outer wall
G1 F3000
G1 X94.35 Y117.25 E.49814
G1 X94.35 Y105.349 E.49817
G1 X95.678 Y105.355 E.05561
G1 X97.138 Y105.415 E.06116
G1 X97.616 Y105.412 E.02
G1 X98.59 Y105.363 E.04081
G1 X100.056 Y105.35 E.06136
G1 X106.25 Y105.35 E.2593
G1 X106.25 Y117.21 E.49646
M73 P1 R59
M73 P1 R59
G1 E-3.5 F1500
;WIPE_START
G1 F3000
G1 X105.25 Y117.213 E-.5
;WIPE_END
G1 Z.8 F7500
G1 X107.943 Y123.166 Z.8
G1 Z.3
G1 E4 F1500
G1 F3000
G1 X107.777 Y123.414 E.01249
G1 X107.418 Y123.813 E.02248
G1 X107.161 Y124.029 E.01406
G1 X106.883 Y124.215 E.01399
G1 X106.59 Y124.369 E.01387
G1 X106.281 Y124.491 E.01392
G1 X105.96 Y124.579 E.01392
G1 X105.632 Y124.633 E.01392
G1 X105.3 Y124.651 E.01392
G1 X104.968 Y124.633 E.01392
G1 X104.641 Y124.58 E.01387
G1 X104.431 Y124.523 E.00911
G1 X104.012 Y124.37 E.01865
G1 X103.717 Y124.215 E.01398
G1 X103.436 Y124.027 E.01413
G1 X103.037 Y123.668 E.02248
G1 X102.821 Y123.411 E.01406
G1 X102.635 Y123.133 E.01399
G1 X102.481 Y122.84 E.01387
G1 X102.359 Y122.531 E.01392
G1 X102.271 Y122.21 E.01392
G1 X102.217 Y121.882 E.01392
G1 X102.199 Y121.55 E.01392
G1 X102.217 Y121.218 E.01392
G1 X102.271 Y120.89 E.01392
G1 X102.359 Y120.569 E.01392
G1 X102.481 Y120.26 E.01392
G1 X102.636 Y119.964 E.01402
G1 X102.952 Y119.527 E.02254
G1 X103.184 Y119.285 E.01405
G1 X103.439 Y119.071 E.01392
G1 X103.717 Y118.885 E.01399
G1 X104.01 Y118.731 E.01387
G1 X104.319 Y118.609 E.01392
G1 X104.643 Y118.52 E.01403
G1 X105.084 Y118.461 E.01864
G1 X105.3 Y118.45 E.00907
G1 X105.632 Y118.467 E.01391
G1 X105.96 Y118.521 E.01392
G1 X106.281 Y118.609 E.01392
G1 X106.59 Y118.731 E.01392
G1 X106.886 Y118.886 E.01402
G1 X107.323 Y119.202 E.02254
G1 X107.565 Y119.434 E.01405
G1 X107.781 Y119.691 E.01402
G1 X108.02 Y120.068 E.01872
G1 X108.119 Y120.265 E.0092
G1 X108.236 Y120.576 E.01391
G1 X108.315 Y120.902 E.01405
G1 X108.349 Y121.233 E.01391
G1 X108.349 Y121.867 E.02655
G1 X108.315 Y122.196 E.01384
G1 X108.266 Y122.411 E.00924
G1 X108.12 Y122.835 E.01876
G1 X107.965 Y123.132 E.01402
G1 E-3.5 F1500
;WIPE_START
G1 F3000
G1 X107.777 Y123.414 E-.16924
G1 X107.418 Y123.813 E-.26852
G1 X107.323 Y123.893 E-.06224
;WIPE_END
G1 Z.8 F7500
G1 X80.05 Y135.65 Z.8
G1 Z.3
G1 E4 F1500
G1 F3000
G1 X86.95 Y135.65 E.28884
G1 X86.95 Y144.55 E.37256
G1 X80.05 Y144.55 E.28884
G1 X80.05 Y135.69 E.37088
G1 E-3.5 F1500
;WIPE_START
G1 F3000
G1 X81.05 Y135.684 E-.5
;WIPE_END
G1 Z.8 F7500
G1 X101.43 Y135.503 Z.8
G1 Z.3
G1 E4 F1500
;TYPE:Inner wall
G1 F3000
G1 X101.48 Y135.57 E.00349
G1 X101.724 Y135.957 E.01917
G1 X101.937 Y136.362 E.01917
G1 X102.117 Y136.784 E.01917
G1 X102.262 Y137.218 E.01917
G1 X102.371 Y137.663 E.01917
G1 X102.445 Y138.115 E.01917
G1 X102.482 Y138.571 E.01917
G1 X102.482 Y139.029 E.01917
G1 X102.445 Y139.485 E.01917
G1 X102.371 Y139.937 E.01917
G1 X102.262 Y140.382 E.01917
G1 X102.117 Y140.816 E.01917
G1 X101.937 Y141.238 E.01917
G1 X101.724 Y141.643 E.01917
G1 X101.48 Y142.03 E.01917
G1 X101.205 Y142.396 E.01917
G1 X100.901 Y142.739 E.01917
G1 X100.571 Y143.056 E.01917
G1 X100.216 Y143.346 E.01917
G1 X99.839 Y143.606 E.01917
G1 X99.466 Y143.821 E.01805
G1 X99.03 Y144.031 E.02022
G1 X98.601 Y144.194 E.01924
G1 X98.161 Y144.321 E.01917
G1 X97.712 Y144.413 E.01917
G1 X97.258 Y144.468 E.01917
G1 X96.8 Y144.486 E.01917
G1 X96.342 Y144.468 E.01917
G1 X95.888 Y144.413 E.01917
G1 X95.439 Y144.321 E.01917
G1 X94.999 Y144.194 E.01917
G1 X94.596 Y144.041 E.01805
G1 X94.159 Y143.836 E.02022
G1 X93.761 Y143.606 E.01924
G1 X93.384 Y143.346 E.01917
G1 X93.029 Y143.056 E.01917
G1 X92.699 Y142.739 E.01917
G1 X92.395 Y142.396 E.01917
G1 X92.12 Y142.03 E.01917
G1 X91.876 Y141.643 E.01917
G1 X91.663 Y141.238 E.01917
G1 X91.483 Y140.816 E.01917
G1 X91.338 Y140.382 E.01917
G1 X91.229 Y139.937 E.01917
G1 X91.155 Y139.485 E.01917
G1 X91.118 Y139.029 E.01917
G1 X91.118 Y138.571 E.01917
G1 X91.155 Y138.115 E.01917
G1 X91.229 Y137.663 E.01917
G1 X91.338 Y137.218 E.01917
G1 X91.483 Y136.784 E.01917
G1 X91.663 Y136.362 E.01917
G1 X91.876 Y135.957 E.01917
G1 X92.12 Y135.57 E.01917
G1 X92.395 Y135.204 E.01917
G1 X92.699 Y134.861 E.01917
G1 X93.029 Y134.544 E.01917
G1 X93.384 Y134.254 E.01917
G1 X93.761 Y133.994 E.01917
G1 X94.158 Y133.765 E.01917
G1 X94.571 Y133.569 E.01917
G1 X94.999 Y133.406 E.01917
G1 X95.439 Y133.279 E.01917
G1 X95.888 Y133.187 E.01917
G1 X96.342 Y133.132 E.01917
G1 X96.773 Y133.115 E.01805
G1 X97.256 Y133.132 E.02022
G1 X97.712 Y133.187 E.01924
G1 X98.161 Y133.279 E.01917
G1 X98.601 Y133.406 E.01917
G1 X99.029 Y133.569 E.01917
G1 X99.443 Y133.765 E.01917
G1 X99.839 Y133.994 E.01917
G1 X100.216 Y134.254 E.01917
G1 X100.571 Y134.544 E.01917
G1 X100.901 Y134.861 E.01917
G1 X101.205 Y135.204 E.01917
G1 X101.406 Y135.471 E.01401
G1 X101.161 Y135.705 F7500
;TYPE:Outer wall
G1 F3000
G1 X101.203 Y135.761 E.00292
G1 X101.433 Y136.125 E.01804
G1 X101.634 Y136.506 E.01804
G1 X101.803 Y136.903 E.01804
G1 X101.939 Y137.311 E.01804
G1 X102.042 Y137.73 E.01804
G1 X102.111 Y138.155 E.01804
G1 X102.146 Y138.585 E.01804
G1 X102.146 Y139.015 E.01804
G1 X102.111 Y139.445 E.01804
G1 X102.042 Y139.87 E.01804
G1 X101.939 Y140.289 E.01804
G1 X101.803 Y140.697 E.01804
G1 X101.634 Y141.094 E.01804
G1 X101.433 Y141.475 E.01804
G1 X101.203 Y141.839 E.01804
G1 X100.944 Y142.184 E.01804
G1 X100.659 Y142.506 E.01804
G1 X100.348 Y142.805 E.01804
G1 X100.014 Y143.077 E.01804
G1 X99.66 Y143.322 E.01804
G1 X99.309 Y143.524 E.01695
G1 X98.898 Y143.722 E.01909
G1 X98.494 Y143.875 E.01807
G1 X98.08 Y143.995 E.01804
G1 X97.658 Y144.081 E.01804
G1 X97.231 Y144.133 E.01804
G1 X96.8 Y144.15 E.01804
G1 X96.369 Y144.133 E.01804
G1 X95.942 Y144.081 E.01804
G1 X95.52 Y143.995 E.01804
G1 X95.106 Y143.875 E.01804
G1 X94.727 Y143.731 E.01695
G1 X94.314 Y143.538 E.01909
G1 X93.94 Y143.322 E.01807
G1 X93.586 Y143.077 E.01804
G1 X93.252 Y142.805 E.01804
G1 X92.941 Y142.506 E.01804
G1 X92.656 Y142.184 E.01804
G1 X92.397 Y141.839 E.01804
G1 X92.167 Y141.475 E.01804
G1 X91.966 Y141.094 E.01804
G1 X91.797 Y140.697 E.01804
G1 X91.661 Y140.289 E.01804
G1 X91.558 Y139.87 E.01804
G1 X91.489 Y139.445 E.01804
G1 X91.454 Y139.015 E.01804
G1 X91.454 Y138.585 E.01804
G1 X91.489 Y138.155 E.01804
G1 X91.558 Y137.73 E.01804
G1 X91.661 Y137.311 E.01804
G1 X91.797 Y136.903 E.01804
G1 X91.966 Y136.506 E.01804
G1 X92.167 Y136.125 E.01804
G1 X92.397 Y135.761 E.01804
G1 X92.656 Y135.416 E.01804
G1 X92.941 Y135.094 E.01804
G1 X93.252 Y134.795 E.01804
G1 X93.586 Y134.523 E.01804
G1 X93.94 Y134.278 E.01804
G1 X94.314 Y134.063 E.01804
G1 X94.703 Y133.878 E.01804
G1 X95.106 Y133.725 E.01804
G1 X95.52 Y133.605 E.01804
G1 X95.942 Y133.519 E.01804
G1 X96.369 Y133.467 E.01804
G1 X96.774 Y133.451 E.01695
G1 X97.23 Y133.467 E.01909
G1 X97.658 Y133.519 E.01807
G1 X98.08 Y133.605 E.01804
G1 X98.494 Y133.725 E.01804
G1 X98.897 Y133.878 E.01804
G1 X99.286 Y134.063 E.01804
G1 X99.66 Y134.278 E.01804
G1 X100.014 Y134.523 E.01804
G1 X100.348 Y134.795 E.01804
G1 X100.659 Y135.094 E.01804
G1 X100.944 Y135.416 E.01804
G1 X101.137 Y135.673 E.01344
G1 E-3.5 F1500
;WIPE_START
G1 F3000
G1 X101.203 Y135.761 E-.05487
G1 X101.433 Y136.125 E-.21544
G1 X101.634 Y136.506 E-.21543
G1 X101.645 Y136.533 E-.01427
;WIPE_END
G1 Z.8 F7500
G1 X97.814 Y147.814 Z.8
G1 Z.3
G1 E4 F1500
;TYPE:Inner wall
G1 F3000
G1 X97.814 Y145.314 E.10465
G1 X101.186 Y145.314 E.14112
G1 X101.186 Y147.814 E.10465
G1 X103.686 Y147.814 E.10465
G1 X103.686 Y151.186 E.14112
G1 X101.186 Y151.186 E.10465
G1 X101.186 Y153.686 E.10465
G1 X97.814 Y153.686 E.14112
G1 X97.814 Y151.186 E.10465
G1 X95.314 Y151.186 E.10465
G1 X95.314 Y147.814 E.14112
G1 X97.774 Y147.814 E.10298
G1 X98.15 Y148.15 F7500
;TYPE:Outer wall
G1 F3000
G1 X98.15 Y145.65 E.10465
G1 X100.85 Y145.65 E.11302
G1 X100.85 Y148.15 E.10465
G1 X103.35 Y148.15 E.10465
G1 X103.35 Y150.85 E.11302
G1 X100.85 Y150.85 E.10465
G1 X100.85 Y153.35 E.10465
G1 X98.15 Y153.35 E.11302
G1 X98.15 Y150.85 E.10465
G1 X95.65 Y150.85 E.10465
G1 X95.65 Y148.15 E.11302
G1 X98.11 Y148.15 E.10298
G1 E-3.5 F1500
;WIPE_START
G1 F3000
G1 X98.126 Y147.15 E-.5
;WIPE_END
G1 Z.8 F7500
G1 X82.286 Y150.95 Z.8
G1 Z.3
G1 E4 F1500
;TYPE:Inner wall
G1 F3000
G1 X82.286 Y151.286 E.01405
G1 X73.915 Y151.286 E.35042
G1 X73.915 Y147.914 E.14112
G1 X82.286 Y147.914 E.35042
G1 X82.286 Y150.91 E.1254
G1 X81.95 Y150.95 F7500
;TYPE:Outer wall
G1 F3000
G1 X74.25 Y150.95 E.32232
G1 X74.25 Y148.25 E.11302
G1 X81.95 Y148.25 E.32232
G1 X81.95 Y150.91 E.11135
G1 E-3.5 F1500
;WIPE_START
G1 F3000
G1 X80.95 Y150.915 E-.5
;WIPE_END
G1 Z.8 F7500
G1 X79.286 Y146.15 Z.8
G1 Z.3
G1 E4 F1500
;TYPE:Inner wall
G1 F3000
G1 X79.286 Y146.486 E.01405
G1 X70.914 Y146.486 E.35042
G1 X70.914 Y138.114 E.35042
G1 X79.286 Y138.114 E.35042
G1 X79.286 Y146.11 E.3347
G1 X78.95 Y146.15 F7500
;TYPE:Outer wall
G1 F3000
G1 X71.25 Y146.15 E.32232
G1 X71.25 Y138.45 E.32232
G1 X78.95 Y138.45 E.32232
G1 X78.95 Y146.11 E.32065
G1 E-3.5 F1500
;WIPE_START
G1 F3000
G1 X77.95 Y146.115 E-.5
;WIPE_END
G1 Z.8 F7500
G1 X71.1 Y135.06 Z.8
G1 Z.3
G1 E4 F1500
;TYPE:Inner wall
G1 F3000
G1 X70.764 Y135.06 E.01405
G1 X70.764 Y107.34 E1.16038
G1 X86.886 Y107.34 E.67484
G1 X86.886 Y125.796 E.77257
G1 X87.057 Y125.822 E.00725
G1 X87.135 Y125.57 E.01105
G1 X87.289 Y125.303 E.01287
G1 X87.478 Y125.078 E.01232
G1 X87.703 Y124.889 E.01232
G1 X87.958 Y124.741 E.01232
G1 X88.235 Y124.641 E.01233
G1 X88.526 Y124.59 E.01238
G1 X88.823 Y124.592 E.01242
G1 X89.117 Y124.647 E.01252
G1 X89.402 Y124.759 E.01283
G1 X89.655 Y124.925 E.01266
G1 X89.854 Y125.116 E.01153
G1 X89.826 Y124.82 E.01243
G1 X89.816 Y124.321 E.02089
G1 X89.814 Y119.07 E.21981
G1 X89.837 Y118.807 E.01106
G1 X89.914 Y118.523 E.01232
G1 X90.038 Y118.256 E.01232
G1 X90.207 Y118.015 E.01232
G1 X90.415 Y117.807 E.01232
G1 X90.656 Y117.638 E.01232
G1 X90.923 Y117.514 E.01232
G1 X91.207 Y117.437 E.01232
G1 X91.409 Y117.42 E.00848
G1 X91.78 Y117.434 E.01557
G1 X92.077 Y117.514 E.01287
G1 X92.344 Y117.638 E.01232
G1 X92.585 Y117.807 E.01232
G1 X92.793 Y118.015 E.01232
G1 X92.962 Y118.256 E.01232
G1 X93.086 Y118.523 E.01232
G1 X93.163 Y118.807 E.01232
G1 X93.186 Y119.07 E.01106
G1 X93.184 Y124.321 E.21981
G1 X93.174 Y124.82 E.02089
G1 X93.146 Y125.116 E.01243
G1 X93.345 Y124.925 E.01153
G1 X93.598 Y124.759 E.01266
G1 X93.883 Y124.647 E.01283
G1 X94.177 Y124.592 E.01252
G1 X94.474 Y124.59 E.01242
G1 X94.765 Y124.641 E.01238
G1 X95.042 Y124.741 E.01233
G1 X95.297 Y124.889 E.01232
G1 X95.522 Y125.078 E.01232
G1 X95.711 Y125.303 E.01232
G1 X95.858 Y125.558 E.01232
G1 X95.959 Y125.835 E.01232
G1 X96.01 Y126.124 E.01232
G1 X96.01 Y126.419 E.01232
G1 X95.959 Y126.709 E.01232
G1 X95.858 Y126.985 E.01232
G1 X95.711 Y127.24 E.01232
G1 X95.542 Y127.442 E.01106
G1 X92.671 Y130.313 E.16995
G1 X92.468 Y130.483 E.01106
G1 X92.213 Y130.63 E.01232
G1 X91.937 Y130.731 E.01232
G1 X91.647 Y130.782 E.01232
G1 X91.353 Y130.782 E.01232
G1 X91.063 Y130.731 E.01232
G1 X90.787 Y130.63 E.01232
G1 X90.532 Y130.483 E.01232
G1 X90.329 Y130.313 E.01106
G1 X87.458 Y127.442 E.16995
G1 X87.289 Y127.24 E.01106
G1 X87.142 Y126.985 E.01232
G1 X87.052 Y126.739 E.01095
G1 X86.886 Y126.769 E.00707
G1 X86.886 Y135.06 E.34709
G1 X71.14 Y135.06 E.65912
G1 E-3.5 F1500
;WIPE_START
G1 F3000
G1 X70.764 Y135.06 E-.18781
G1 X70.764 Y134.436 E-.31219
;WIPE_END
G1 Z.8 F7500
G1 X90.3 Y126.203 Z.8
G1 Z.3
G1 E4 F1500
;TYPE:Outer wall
G1 F3000
G1 X90.3 Y125.757 E.01865
G1 X90.207 Y125.292 E.01985
G1 X90.162 Y124.801 E.02066
G1 X90.151 Y124.317 E.02024
G1 X90.15 Y119.085 E.21904
G1 X90.169 Y118.865 E.00922
G1 X90.23 Y118.638 E.00986
G1 X90.33 Y118.424 E.00986
G1 X90.465 Y118.231 E.00986
G1 X90.631 Y118.065 E.00986
G1 X90.824 Y117.93 E.00986
G1 X91.038 Y117.83 E.00986
G1 X91.265 Y117.769 E.00986
G1 X91.417 Y117.756 E.00637
G1 X91.73 Y117.768 E.01311
G1 X91.962 Y117.83 E.01007
G1 X92.176 Y117.93 E.00986
G1 X92.369 Y118.065 E.00986
G1 X92.535 Y118.231 E.00986
G1 X92.67 Y118.424 E.00986
G1 X92.77 Y118.638 E.00986
G1 X92.831 Y118.865 E.00986
G1 X92.85 Y119.085 E.00922
G1 X92.849 Y124.317 E.21904
G1 X92.838 Y124.801 E.02024
G1 X92.793 Y125.292 E.02066
G1 X92.7 Y125.757 E.01985
G1 X92.7 Y126.203 E.01865
G1 X92.909 Y125.994 E.01236
G1 X93.392 Y125.345 E.03386
G1 X93.555 Y125.189 E.00946
G1 X93.753 Y125.058 E.00993
G1 X93.976 Y124.971 E.01002
G1 X94.209 Y124.927 E.00992
G1 X94.445 Y124.926 E.00989
G1 X94.678 Y124.966 E.00988
G1 X94.899 Y125.047 E.00987
G1 X95.104 Y125.165 E.00986
G1 X95.284 Y125.316 E.00986
G1 X95.435 Y125.496 E.00986
G1 X95.553 Y125.7 E.00986
G1 X95.634 Y125.922 E.00986
G1 X95.675 Y126.154 E.00986
