; HEADER_BLOCK_START
; generated by OrcaSlicer 2.2.0 on 2025-02-23 at 18:24:25
; total layer number: 182
; filament_density: 1.27
; filament_diameter: 1.75
; max_z_height: 36.50
; HEADER_BLOCK_END

; THUMBNAIL_BLOCK_START

;
; THUMBNAIL_BLOCK_END

; external perimeters extrusion width = 0.40mm
; perimeters extrusion width = 0.40mm
; infill extrusion width = 0.40mm
; solid infill extrusion width = 0.40mm
; top infill extrusion width = 0.40mm
; first layer extrusion width = 0.40mm

; EXECUTABLE_BLOCK_START
M73 P0 R114
;TYPE:Custom
G90 ; use absolute coordinates
M83 ; extruder relative mode
M140 S80 ; set final bed temp
M104 S150 ; set temporary nozzle temp to prevent oozing during homing
G4 S10 ; allow partial nozzle warmup
M104 S250 ; set final nozzle temp
M190 S80 ; wait for bed temp to stabilize
M109 S250 ; wait for nozzle temp to stabilize
G28 ; home all axis
G1 Z15 F240
G1 X-2 Y10 F3000
G1 Z0.28 F240
G92 E0
G1 Y140 E10 F1500 ; prime the nozzle
G1 X-1.7 F5000
G92 E0
G1 Y10 E10 F1200 ; prime the nozzle
G92 E0
G90
G21
M83 ; use relative distances for extrusion
; filament start gcode
M106 P3 S180
;Prevent PLA from jamming

M106 S0
;LAYER_CHANGE
;Z:0.3
;HEIGHT:0.3
;BEFORE_LAYER_CHANGE
;0.3
G92 E0

G1 E-4 F1500
;_SET_FAN_SPEED_CHANGING_LAYER
M204 S2500
G1 Z.8 F9000
G1 X77.497 Y66.336
G1 Z.8
G1 Z.3
G1 E4 F1500
;TYPE:Skirt
;WIDTH:0.4
G1 F3000
G1 X77.497 Y65 E.05593
G1 X77.544 Y64.187 E.03409
G1 X77.715 Y63.217 E.04125
G1 X78.009 Y62.283 E.04097
G1 X78.426 Y61.39 E.04128
G1 X78.953 Y60.564 E.04101
G1 X79.579 Y59.816 E.04081
G1 X80.309 Y59.149 E.04139
G1 X81.108 Y58.589 E.04084
G1 X82.283 Y58.009 E.05487
G1 X83.217 Y57.715 E.04097
G1 X84.187 Y57.544 E.04125
G1 X135.003 Y57.497 E2.12719
G1 X136.141 Y57.587 E.04779
G1 X137.717 Y58.009 E.06828
G1 X138.892 Y58.589 E.05486
G1 X140.185 Y59.582 E.06825
G1 X141.047 Y60.564 E.05466
G1 X141.577 Y61.396 E.0413
G1 X142.199 Y62.896 E.06798
G1 X142.456 Y64.187 E.05511
G1 X142.503 Y155 E3.80146
G1 X142.456 Y155.813 E.03409
G1 X142.285 Y156.783 E.04125
G1 X141.987 Y157.724 E.0413
G1 X141.577 Y158.604 E.04065
G1 X141.047 Y159.436 E.0413
G1 X140.415 Y160.188 E.04109
G1 X139.695 Y160.848 E.04089
G1 X138.892 Y161.411 E.04105
G1 X138.024 Y161.864 E.04098
G1 X137.097 Y162.201 E.04131
G1 X136.141 Y162.413 E.04098
G1 X135.161 Y162.498 E.0412
G1 X85 Y162.503 E2.09975
G1 X84.187 Y162.456 E.03408
G1 X83.217 Y162.285 E.04125
G1 X82.283 Y161.991 E.04097
G1 X81.39 Y161.574 E.04128
G1 X80.564 Y161.047 E.04101
G1 X79.817 Y160.421 E.04079
G1 X79.149 Y159.691 E.04139
G1 X78.589 Y158.892 E.04085
G1 X78.136 Y158.024 E.04098
G1 X77.799 Y157.097 E.04131
G1 X77.587 Y156.141 E.04098
G1 X77.497 Y155 E.04793
G1 X77.497 Y66.376 E3.70982
G1 X77.832 Y66.376 F9000
G1 F3000
G1 X77.832 Y65 E.05761
G1 X77.879 Y64.209 E.03319
G1 X78.044 Y63.282 E.03939
G1 X78.327 Y62.391 E.03915
G1 X78.727 Y61.538 E.03941
G1 X79.232 Y60.751 E.03918
G1 X79.832 Y60.037 E.039
G1 X80.529 Y59.402 E.0395
G1 X81.294 Y58.868 E.03904
G1 X82.391 Y58.327 E.05118
G1 X83.282 Y58.044 E.03915
G1 X84.209 Y57.879 E.03939
G1 X135.003 Y57.832 E2.12628
G1 X136.076 Y57.916 E.04503
G1 X137.609 Y58.327 E.06646
G1 X138.705 Y58.868 E.05118
G1 X139.964 Y59.835 E.06642
G1 X140.768 Y60.75 E.05101
G1 X141.564 Y62.13 E.06666
G1 X141.956 Y63.282 E.05096
G1 X142.163 Y64.861 E.06664
G1 X142.168 Y155 E3.77326
G1 X142.121 Y155.791 E.03318
G1 X141.956 Y156.718 E.0394
G1 X141.669 Y157.615 E.03944
G1 X141.276 Y158.456 E.03886
G1 X140.768 Y159.25 E.03943
G1 X140.163 Y159.966 E.03925
G1 X139.474 Y160.595 E.03906
G1 X138.706 Y161.132 E.03922
G1 X137.876 Y161.563 E.03915
G1 X136.989 Y161.883 E.03944
G1 X136.076 Y162.084 E.03916
G1 X135.139 Y162.163 E.03934
G1 X85 Y162.168 E2.09885
G1 X84.209 Y162.121 E.03318
G1 X83.282 Y161.956 E.0394
G1 X82.391 Y161.673 E.03915
G1 X81.538 Y161.273 E.03941
G1 X80.75 Y160.768 E.03919
G1 X80.037 Y160.168 E.03899
G1 X79.402 Y159.471 E.03951
G1 X78.868 Y158.705 E.03904
G1 X78.437 Y157.876 E.03915
G1 X78.117 Y156.989 E.03944
G1 X77.916 Y156.076 E.03916
G1 X77.832 Y155 E.04517
G1 X77.832 Y66.416 E3.70814
; printing object parts-box-4x-v4_fixed.stl id:7811887588677804288 copy 0
G1 E-3.5 F1500
;WIPE_START
G1 F3000
G1 X77.832 Y65.416 E-.5
;WIPE_END
G1 Z.8 F9000
G1 X84.437 Y159.277 Z.8
G1 Z.3
G1 E4 F1500
;TYPE:Inner wall
G1 F3600
G1 X83.884 Y159.166 E.02363
G1 X83.349 Y158.985 E.02363
G1 X82.844 Y158.735 E.02359
G1 X82.374 Y158.421 E.02368
G1 X81.95 Y158.05 E.02358
G1 X81.579 Y157.626 E.02358
G1 X81.265 Y157.156 E.02368
G1 X81.015 Y156.651 E.02359
G1 X80.834 Y156.116 E.02363
G1 X80.723 Y155.563 E.02363
G1 X80.686 Y154.978 E.02452
G1 X80.686 Y65.022 E3.76558
G1 X80.723 Y64.437 E.02452
G1 X80.834 Y63.884 E.02364
G1 X81.015 Y63.349 E.02362
G1 X81.265 Y62.844 E.02359
G1 X81.579 Y62.374 E.02368
G1 X81.95 Y61.95 E.02358
G1 X82.374 Y61.579 E.02358
G1 X82.844 Y61.265 E.02368
G1 X83.349 Y61.015 E.02359
G1 X83.884 Y60.834 E.02363
G1 X84.437 Y60.723 E.02364
G1 X85.022 Y60.686 E.02452
G1 X85.495 Y60.686 E.0198
G1 X134.981 Y60.686 E2.07151
G1 X135.563 Y60.723 E.02438
G1 X136.116 Y60.834 E.02363
G1 X136.651 Y61.015 E.02363
G1 X137.156 Y61.265 E.02359
G1 X137.625 Y61.579 E.02365
G1 X138.048 Y61.95 E.02355
G1 X138.421 Y62.375 E.02366
G1 X138.735 Y62.843 E.02361
G1 X138.983 Y63.349 E.02359
G1 X139.167 Y63.885 E.02369
G1 X139.277 Y64.437 E.02359
G1 X139.314 Y65.022 E.02452
G1 X139.314 Y154.978 E3.76558
G1 X139.277 Y155.563 E.02452
G1 X139.167 Y156.115 E.02359
G1 X138.983 Y156.651 E.02369
G1 X138.735 Y157.157 E.02359
G1 X138.421 Y157.625 E.02361
G1 X138.048 Y158.05 E.02366
G1 X137.625 Y158.421 E.02355
G1 X137.156 Y158.735 E.02365
G1 X136.651 Y158.985 E.02359
G1 X136.116 Y159.166 E.02363
G1 X135.563 Y159.277 E.02363
G1 X134.978 Y159.314 E.02452
G1 X85.022 Y159.314 E2.09117
G1 X84.477 Y159.279 E.02285
G1 X84.394 Y159.61 F9000
;TYPE:Outer wall
G1 F3600
G1 X83.797 Y159.491 E.02548
G1 X83.22 Y159.296 E.02548
G1 X82.676 Y159.026 E.02544
G1 X82.169 Y158.688 E.0255
G1 X81.712 Y158.288 E.02542
G1 X81.312 Y157.831 E.02542
G1 X80.974 Y157.324 E.0255
G1 X80.704 Y156.78 E.02544
G1 X80.509 Y156.203 E.02547
G1 X80.39 Y155.606 E.02548
G1 X80.35 Y154.989 E.02591
G1 X80.35 Y65.011 E3.76648
G1 X80.39 Y64.394 E.02591
G1 X80.509 Y63.797 E.02548
G1 X80.704 Y63.22 E.02547
G1 X80.974 Y62.676 E.02544
G1 X81.312 Y62.169 E.0255
G1 X81.712 Y61.712 E.02542
G1 X82.169 Y61.312 E.02543
G1 X82.676 Y60.974 E.0255
G1 X83.22 Y60.704 E.02544
G1 X83.797 Y60.509 E.02547
G1 X84.394 Y60.39 E.02548
G1 X85.011 Y60.35 E.02591
G1 X85.495 Y60.35 E.02025
G1 X134.992 Y60.35 E2.07196
G1 X135.606 Y60.39 E.02577
G1 X136.203 Y60.509 E.02548
G1 X136.78 Y60.704 E.02547
G1 X137.324 Y60.974 E.02544
G1 X137.83 Y61.312 E.02549
G1 X138.286 Y61.712 E.02538
G1 X138.688 Y62.17 E.02549
G1 X139.026 Y62.675 E.02547
G1 X139.294 Y63.22 E.02542
G1 X139.491 Y63.797 E.02552
G1 X139.61 Y64.394 E.02546
G1 X139.65 Y65.011 E.0259
G1 X139.65 Y154.989 E3.76649
G1 X139.61 Y155.606 E.02591
M73 P0 R113
M73 P0 R113
G1 X139.491 Y156.203 E.02546
G1 X139.294 Y156.78 E.02552
G1 X139.026 Y157.325 E.02542
G1 X138.688 Y157.83 E.02547
G1 X138.286 Y158.288 E.02549
G1 X137.83 Y158.688 E.02538
G1 X137.324 Y159.026 E.02549
G1 X136.78 Y159.296 E.02544
G1 X136.203 Y159.491 E.02547
G1 X135.606 Y159.61 E.02548
G1 X134.989 Y159.65 E.02591
G1 X85.011 Y159.65 E2.09207
G1 X84.434 Y159.613 E.02423
G1 E-3.58333 F1500
;WIPE_START
G1 F3600
G1 X83.797 Y159.491 E-.27014
G1 X83.464 Y159.378 E-.14653
;WIPE_END
G1 Z.8 F9000
G1 X139.013 Y63.745
G1 Z.8
G1 Z.3
G1 E4 F1500
;TYPE:Bottom surface
;WIDTH:0.400169
G1 F3600
G1 X136.495 Y61.228 E.14913
G1 X136.051 Y61.077 E.01962
G1 X135.824 Y61.032 E.00968
G1 X138.968 Y64.176 E.18619
G1 X139.027 Y64.47 E.01258
G1 X139.043 Y64.726 E.01072
G1 X135.274 Y60.957 E.22322
G1 X134.78 Y60.938 E.02072
G1 X139.063 Y65.22 E.25366
G1 X139.063 Y65.695 E.01989
G1 X134.305 Y60.938 E.28179
G1 X133.83 Y60.938 E.01989
G1 X139.063 Y66.17 E.30991
G1 X139.063 Y66.645 E.01989
G1 X133.355 Y60.938 E.33804
G1 X132.88 Y60.938 E.01989
G1 X139.063 Y67.12 E.36617
G1 X139.063 Y67.595 E.01989
G1 X132.406 Y60.938 E.39429
G1 X131.931 Y60.938 E.01989
G1 X139.063 Y68.07 E.42242
G1 X139.063 Y68.544 E.01989
G1 X131.456 Y60.938 E.45055
G1 X130.981 Y60.938 E.01989
G1 X139.063 Y69.019 E.47867
G1 X139.063 Y69.494 E.01989
G1 X130.506 Y60.938 E.5068
G1 X130.031 Y60.938 E.01989
G1 X139.063 Y69.969 E.53493
G1 X139.063 Y70.444 E.01989
G1 X129.556 Y60.938 E.56305
G1 X129.081 Y60.938 E.01989
G1 X139.063 Y70.919 E.59118
G1 X139.063 Y71.394 E.01989
G1 X128.607 Y60.938 E.61931
G1 X128.132 Y60.938 E.01989
G1 X139.063 Y71.869 E.64743
G1 X139.063 Y72.343 E.01989
G1 X127.657 Y60.938 E.67556
G1 X127.182 Y60.938 E.01989
G1 X139.063 Y72.818 E.70369
G1 X139.063 Y73.293 E.01989
G1 X126.707 Y60.938 E.73181
G1 X126.232 Y60.938 E.01989
G1 X139.063 Y73.768 E.75994
G1 X139.063 Y74.243 E.01989
G1 X125.757 Y60.938 E.78807
G1 X125.282 Y60.938 E.01989
G1 X139.063 Y74.718 E.81619
G1 X139.063 Y75.193 E.01989
G1 X124.808 Y60.938 E.84432
G1 X124.333 Y60.938 E.01989
G1 X139.063 Y75.668 E.87245
G1 X139.063 Y76.142 E.01989
G1 X123.858 Y60.937 E.90057
G1 X123.383 Y60.937 E.01989
G1 X139.063 Y76.617 E.9287
G1 X139.063 Y77.092 E.01989
G1 X122.908 Y60.937 E.95683
G1 X122.433 Y60.937 E.01989
G1 X139.063 Y77.567 E.98495
G1 X139.063 Y78.042 E.01989
G1 X121.958 Y60.937 E1.01308
G1 X121.483 Y60.937 E.01989
G1 X139.063 Y78.517 E1.04121
G1 X139.063 Y78.992 E.01989
G1 X121.009 Y60.937 E1.06933
G1 X120.534 Y60.937 E.01989
G1 X139.063 Y79.467 E1.09746
G1 X139.063 Y79.941 E.01989
G1 X120.059 Y60.937 E1.12559
G1 X119.584 Y60.937 E.01989
G1 X139.063 Y80.416 E1.15371
G1 X139.063 Y80.891 E.01989
G1 X119.109 Y60.937 E1.18184
G1 X118.634 Y60.937 E.01989
G1 X139.063 Y81.366 E1.20997
G1 X139.063 Y81.841 E.01989
G1 X118.159 Y60.937 E1.23809
G1 X117.684 Y60.937 E.01989
G1 X139.063 Y82.316 E1.26622
G1 X139.063 Y82.791 E.01989
G1 X117.209 Y60.937 E1.29435
G1 X116.735 Y60.937 E.01989
G1 X139.063 Y83.266 E1.32247
G1 X139.063 Y83.74 E.01989
G1 X116.26 Y60.937 E1.3506
G1 X115.785 Y60.937 E.01989
G1 X139.063 Y84.215 E1.37873
G1 X139.063 Y84.69 E.01989
G1 X115.31 Y60.937 E1.40685
G1 X114.835 Y60.937 E.01989
G1 X139.063 Y85.165 E1.43498
G1 X139.063 Y85.64 E.01989
G1 X114.36 Y60.937 E1.46311
G1 X113.885 Y60.937 E.01989
G1 X139.063 Y86.115 E1.49123
G1 X139.063 Y86.59 E.01989
G1 X113.41 Y60.937 E1.51936
G1 X112.936 Y60.937 E.01989
G1 X139.063 Y87.065 E1.54749
G1 X139.063 Y87.539 E.01989
G1 X112.461 Y60.937 E1.57561
G1 X111.986 Y60.937 E.01989
G1 X139.063 Y88.014 E1.60374
G1 X139.063 Y88.489 E.01989
G1 X111.511 Y60.937 E1.63187
G1 X111.036 Y60.937 E.01989
G1 X139.063 Y88.964 E1.65999
G1 X139.063 Y89.439 E.01989
G1 X110.561 Y60.937 E1.68812
G1 X110.086 Y60.937 E.01989
G1 X139.063 Y89.914 E1.71624
G1 X139.063 Y90.389 E.01989
M73 P1 R113
M73 P1 R113
G1 X109.611 Y60.937 E1.74437
G1 X109.137 Y60.937 E.01989
G1 X139.063 Y90.864 E1.7725
G1 X139.063 Y91.338 E.01989
G1 X108.662 Y60.937 E1.80062
G1 X108.187 Y60.937 E.01989
G1 X139.063 Y91.813 E1.82875
G1 X139.063 Y92.288 E.01989
G1 X107.712 Y60.937 E1.85688
G1 X107.237 Y60.937 E.01989
G1 X139.063 Y92.763 E1.885
G1 X139.063 Y93.238 E.01989
G1 X106.762 Y60.937 E1.91313
G1 X106.287 Y60.937 E.01989
G1 X139.063 Y93.713 E1.94126
G1 X139.063 Y94.188 E.01989
G1 X105.812 Y60.937 E1.96938
G1 X105.338 Y60.937 E.01989
G1 X139.063 Y94.663 E1.99751
G1 X139.063 Y95.137 E.01989
G1 X104.863 Y60.937 E2.02564
G1 X104.388 Y60.937 E.01989
G1 X139.063 Y95.612 E2.05376
G1 X139.063 Y96.087 E.01989
G1 X103.913 Y60.937 E2.08189
G1 X103.438 Y60.937 E.01989
G1 X139.063 Y96.562 E2.11002
G1 X139.063 Y97.037 E.01989
G1 X102.963 Y60.937 E2.13814
G1 X102.488 Y60.937 E.01989
G1 X139.063 Y97.512 E2.16627
G1 X139.063 Y97.987 E.01989
G1 X102.013 Y60.937 E2.1944
G1 X101.539 Y60.937 E.01989
G1 X139.063 Y98.462 E2.22252
G1 X139.063 Y98.936 E.01989
G1 X101.064 Y60.937 E2.25065
G1 X100.589 Y60.937 E.01989
G1 X139.063 Y99.411 E2.27878
G1 X139.063 Y99.886 E.01989
G1 X100.114 Y60.937 E2.3069
G1 X99.639 Y60.937 E.01989
G1 X139.063 Y100.361 E2.33503
G1 X139.063 Y100.836 E.01989
G1 X99.164 Y60.937 E2.36316
G1 X98.689 Y60.937 E.01989
G1 X139.063 Y101.311 E2.39128
G1 X139.063 Y101.786 E.01989
G1 X98.214 Y60.937 E2.41941
G1 X97.739 Y60.937 E.01989
G1 X139.063 Y102.261 E2.44754
G1 X139.063 Y102.735 E.01989
G1 X97.265 Y60.937 E2.47566
G1 X96.79 Y60.937 E.01989
G1 X139.063 Y103.21 E2.50379
G1 X139.063 Y103.685 E.01989
G1 X96.315 Y60.937 E2.53192
G1 X95.84 Y60.937 E.01989
G1 X139.063 Y104.16 E2.56004
G1 X139.063 Y104.635 E.01989
G1 X95.365 Y60.937 E2.58817
G1 X94.89 Y60.937 E.01989
G1 X139.063 Y105.11 E2.6163
G1 X139.063 Y105.585 E.01989
G1 X94.415 Y60.937 E2.64442
G1 X93.94 Y60.937 E.01989
G1 X139.063 Y106.06 E2.67255
G1 X139.063 Y106.534 E.01989
G1 X93.466 Y60.937 E2.70068
G1 X92.991 Y60.937 E.01989
G1 X139.063 Y107.009 E2.7288
G1 X139.063 Y107.484 E.01989
G1 X92.516 Y60.937 E2.75693
G1 X92.041 Y60.937 E.01989
M73 P1 R112
M73 P1 R112
G1 X139.063 Y107.959 E2.78506
G1 X139.063 Y108.434 E.01989
G1 X91.566 Y60.937 E2.81318
G1 X91.091 Y60.937 E.01989
G1 X139.063 Y108.909 E2.84131
G1 X139.063 Y109.384 E.01989
G1 X90.616 Y60.937 E2.86944
G1 X90.141 Y60.937 E.01989
G1 X139.063 Y109.859 E2.89756
G1 X139.063 Y110.333 E.01989
G1 X89.667 Y60.937 E2.92569
G1 X89.192 Y60.937 E.01989
G1 X139.063 Y110.808 E2.95382
G1 X139.063 Y111.283 E.01989
G1 X88.717 Y60.937 E2.98194
G1 X88.242 Y60.937 E.01989
G1 X139.063 Y111.758 E3.01007
G1 X139.063 Y112.233 E.01989
G1 X87.767 Y60.937 E3.0382
G1 X87.292 Y60.937 E.01989
G1 X139.063 Y112.708 E3.06632
G1 X139.063 Y113.183 E.01989
G1 X86.817 Y60.937 E3.09445
G1 X86.342 Y60.937 E.01989
G1 X139.063 Y113.658 E3.12258
G1 X139.063 Y114.132 E.01989
G1 X85.868 Y60.937 E3.1507
G1 X85.393 Y60.937 E.01989
G1 X139.063 Y114.607 E3.17883
G1 X139.063 Y115.082 E.01989
G1 X84.925 Y60.944 E3.20655
G1 X84.478 Y60.973 E.01872
G1 X139.063 Y115.557 E3.23298
G1 X139.063 Y116.032 E.01989
G1 X84.082 Y61.051 E3.25648
G1 X83.713 Y61.157 E.01606
G1 X139.063 Y116.507 E3.27831
G1 X139.063 Y116.982 E.01989
G1 X83.367 Y61.287 E3.29878
G1 X83.05 Y61.444 E.01484
G1 X139.063 Y117.457 E3.31759
G1 X139.063 Y117.931 E.01989
G1 X82.757 Y61.626 E3.33494
G1 X82.479 Y61.822 E.01427
G1 X139.063 Y118.406 E3.35143
G1 X139.063 Y118.881 E.01989
G1 X82.225 Y62.044 E3.36644
G1 X81.991 Y62.285 E.01406
G1 X139.063 Y119.356 E3.38028
G1 X139.063 Y119.831 E.01989
G1 X81.771 Y62.54 E3.39332
G1 X81.581 Y62.824 E.01434
G1 X139.063 Y120.306 E3.40459
G1 X139.063 Y120.781 E.01989
M73 P2 R112
M73 P2 R112
G1 X81.407 Y63.125 E3.41492
G1 X81.249 Y63.442 E.01484
G1 X139.063 Y121.256 E3.42423
G1 X139.063 Y121.73 E.01989
G1 X81.129 Y63.797 E3.43137
G1 X81.077 Y63.949 E.00673
G1 X81.032 Y64.175 E.00965
G1 X139.063 Y122.205 E3.43709
G1 X139.063 Y122.68 E.01989
G1 X80.966 Y64.584 E3.44101
G1 X80.937 Y65.03 E.01872
G1 X139.063 Y123.155 E3.44271
G1 X139.063 Y123.63 E.01989
G1 X80.937 Y65.505 E3.44271
G1 X80.937 Y65.98 E.01989
G1 X139.063 Y124.105 E3.44271
G1 X139.063 Y124.58 E.01989
G1 X80.937 Y66.454 E3.44271
G1 X80.937 Y66.929 E.01989
G1 X139.063 Y125.055 E3.44271
G1 X139.063 Y125.529 E.01989
G1 X80.937 Y67.404 E3.44271
G1 X80.937 Y67.879 E.01989
G1 X139.063 Y126.004 E3.44271
G1 X139.063 Y126.479 E.01989
G1 X80.937 Y68.354 E3.44271
G1 X80.937 Y68.829 E.01989
G1 X139.063 Y126.954 E3.44271
G1 X139.063 Y127.429 E.01989
G1 X80.937 Y69.304 E3.44271
G1 X80.937 Y69.779 E.01989
G1 X139.063 Y127.904 E3.44271
G1 X139.063 Y128.379 E.01989
G1 X80.937 Y70.253 E3.44271
G1 X80.937 Y70.728 E.01989
G1 X139.063 Y128.854 E3.44271
G1 X139.063 Y129.328 E.01989
M73 P2 R111
M73 P2 R111
G1 X80.937 Y71.203 E3.44271
G1 X80.937 Y71.678 E.01989
G1 X139.063 Y129.803 E3.44271
G1 X139.063 Y130.278 E.01989
G1 X80.937 Y72.153 E3.44271
G1 X80.937 Y72.628 E.01989
G1 X139.063 Y130.753 E3.44271
G1 X139.063 Y131.228 E.01989
G1 X80.937 Y73.103 E3.44271
G1 X80.937 Y73.578 E.01989
G1 X139.063 Y131.703 E3.44271
G1 X139.063 Y132.178 E.01989
G1 X80.937 Y74.052 E3.44271
G1 X80.937 Y74.527 E.01989
G1 X139.063 Y132.653 E3.44271
G1 X139.063 Y133.128 E.01989
G1 X80.937 Y75.002 E3.44271
G1 X80.937 Y75.477 E.01989
