; HEADER_BLOCK_START
; generated by OrcaSlicer 2.2.0 on 2025-02-20 at 22:20:54
; total layer number: 60
; filament_density: 1.27
; filament_diameter: 1.75
; max_z_height: 12.10
; HEADER_BLOCK_END

; THUMBNAIL_BLOCK_START

;
; THUMBNAIL_BLOCK_END

; external perimeters extrusion width = 0.40mm
; perimeters extrusion width = 0.40mm
; infill extrusion width = 0.40mm
; solid infill extrusion width = 0.40mm
; top infill extrusion width = 0.40mm
; first layer extrusion width = 0.40mm

; EXECUTABLE_BLOCK_START
M73 P0 R58
;TYPE:Custom
G90 ; use absolute coordinates
M83 ; extruder relative mode
M140 S80 ; set final bed temp
M104 S150 ; set temporary nozzle temp to prevent oozing during homing
G4 S10 ; allow partial nozzle warmup
M104 S235 ; set final nozzle temp
M190 S80 ; wait for bed temp to stabilize
M109 S235 ; wait for nozzle temp to stabilize
G28 ; home all axis
G1 Z15 F240
G1 X-2 Y10 F3000
G1 Z0.28 F240
G92 E0
G1 Y140 E10 F1500 ; prime the nozzle
G1 X-1.7 F5000
G92 E0
G1 Y10 E10 F1200 ; prime the nozzle
G92 E0
G90
G21
M83 ; use relative distances for extrusion
; filament start gcode
M106 P3 S180
;Prevent PLA from jamming

M106 S0
;LAYER_CHANGE
;Z:0.3
;HEIGHT:0.3
;BEFORE_LAYER_CHANGE
;0.3
G92 E0

G1 E-4 F1500
;_SET_FAN_SPEED_CHANGING_LAYER
M204 S3000
G1 Z.8 F9000
G1 X34.816 Y36.048
G1 Z.8
G1 Z.3
G1 E4 F1500
;TYPE:Skirt
;WIDTH:0.4
G1 F3000
G1 X38.861 Y32.004 E.23944
G1 X40.282 Y30.861 E.07636
G1 X41.834 Y30.076 E.07279
G1 X43.513 Y29.624 E.07279
G1 X45.249 Y29.522 E.0728
G1 X46.97 Y29.777 E.07279
G1 X48.448 Y30.302 E.06567
G1 X49.608 Y30.954 E.05571
G1 X50.886 Y32.004 E.06924
G1 X191.345 Y172.501 E8.3162
G1 X192.037 Y173.432 E.04858
G1 X192.757 Y174.821 E.0655
G1 X193.121 Y175.928 E.04875
G1 X193.329 Y177.069 E.04858
G1 X193.381 Y178.229 E.04858
G1 X193.244 Y179.552 E.05571
G1 X192.958 Y180.677 E.04858
G1 X192.522 Y181.752 E.04858
G1 X191.707 Y183.093 E.06567
G1 X190.953 Y183.975 E.04858
G1 X180.994 Y193.936 E.58962
G1 X179.766 Y194.61 E.05865
G1 X178.368 Y194.518 E.05865
G1 X177.454 Y193.936 E.04537
G1 X28.961 Y45.444 E8.79066
G1 X28.287 Y44.215 E.05865
G1 X28.379 Y42.817 E.05865
G1 X28.961 Y41.903 E.04537
G1 X34.788 Y36.077 E.34493
G1 X35.026 Y36.314 F9000
G1 F3000
G1 X39.151 Y32.19 E.24421
G1 X40.456 Y31.147 E.06992
G1 X41.946 Y30.392 E.06992
G1 X43.559 Y29.956 E.06992
G1 X45.226 Y29.857 E.06993
G1 X46.879 Y30.1 E.06992
G1 X48.314 Y30.61 E.06375
G1 X49.414 Y31.228 E.05284
G1 X50.649 Y32.241 E.06685
G1 X191.084 Y172.712 E8.31476
G1 X191.75 Y173.607 E.04666
M73 P0 R57
M73 P0 R57
G1 X192.449 Y174.956 E.06361
G1 X192.797 Y176.018 E.04681
G1 X192.997 Y177.115 E.04666
G1 X193.045 Y178.229 E.04666
G1 X192.916 Y179.484 E.05283
G1 X192.642 Y180.565 E.04666
G1 X192.224 Y181.598 E.04666
G1 X191.433 Y182.899 E.06375
G1 X190.708 Y183.746 E.04666
G1 X180.757 Y193.699 E.58914
G1 X179.602 Y194.3 E.05449
G1 X178.312 Y194.132 E.05449
G1 X177.691 Y193.699 E.0317
G1 X29.199 Y45.206 E8.79066
G1 X28.597 Y44.052 E.05449
M73 P1 R57
M73 P1 R57
G1 X28.765 Y42.761 E.05449
G1 X29.199 Y42.141 E.0317
G1 X34.997 Y36.343 E.34326
; printing object USB_Cable_Holder_10w_Screws.stl id:420811506961352150 copy 0
G1 E-3.5 F1500
;WIPE_START
G1 F3000
G1 X35.704 Y35.636 E-.5
;WIPE_END
G1 Z.8 F9000
G1 X168.748 Y170.774 Z.8
G1 Z.3
G1 E4 F1500
;TYPE:Inner wall
G1 F4800
G1 X168.701 Y170.819 E.00273
G1 X168.255 Y171.087 E.02178
G1 X167.772 Y171.253 E.02138
G1 X167.41 Y171.31 E.01531
G1 X166.9 Y171.301 E.02138
G1 X166.393 Y171.184 E.02178
G1 X165.921 Y170.964 E.02178
G1 X165.513 Y170.657 E.02138
G1 X165.264 Y170.389 E.01532
G1 X164.985 Y169.961 E.02138
G1 X164.799 Y169.475 E.02178
G1 X164.718 Y168.961 E.02178
G1 X164.744 Y168.451 E.02138
G1 X164.827 Y168.095 E.01531
G1 X165.026 Y167.625 E.02138
G1 X165.325 Y167.199 E.02178
G1 X165.705 Y166.844 E.02178
G1 X166.151 Y166.576 E.02178
G1 X166.634 Y166.409 E.02138
G1 X166.996 Y166.352 E.01531
G1 X167.506 Y166.361 E.02138
G1 X168.013 Y166.478 E.02178
G1 X168.485 Y166.698 E.02178
G1 X168.893 Y167.006 E.02138
G1 X169.142 Y167.273 E.01532
G1 X169.42 Y167.702 E.02138
G1 X169.607 Y168.187 E.02178
G1 X169.688 Y168.701 E.02178
G1 X169.661 Y169.211 E.02138
G1 X169.579 Y169.568 E.01531
G1 X169.38 Y170.038 E.02138
G1 X169.081 Y170.464 E.02178
G1 X168.778 Y170.747 E.01737
G1 X168.519 Y170.529 F9000
;TYPE:Outer wall
G1 F4800
G1 X168.497 Y170.549 E.00125
G1 X168.112 Y170.781 E.01883
G1 X167.69 Y170.926 E.01868
G1 X167.387 Y170.974 E.01285
G1 X166.941 Y170.966 E.01868
G1 X166.502 Y170.865 E.01883
G1 X166.095 Y170.675 E.01883
G1 X165.739 Y170.407 E.01867
G1 X165.529 Y170.182 E.01286
G1 X165.286 Y169.808 E.01868
G1 X165.125 Y169.388 E.01883
G1 X165.055 Y168.944 E.01882
G1 X165.078 Y168.498 E.01868
G1 X165.147 Y168.199 E.01285
G1 X165.322 Y167.788 E.01868
G1 X165.58 Y167.42 E.01883
G1 X165.908 Y167.113 E.01882
G1 X166.294 Y166.882 E.01883
G1 X166.716 Y166.736 E.01868
G1 X167.019 Y166.688 E.01285
G1 X167.465 Y166.696 E.01868
G1 X167.903 Y166.797 E.01883
G1 X168.311 Y166.987 E.01883
G1 X168.667 Y167.256 E.01867
G1 X168.877 Y167.481 E.01286
G1 X169.12 Y167.855 E.01868
G1 X169.281 Y168.275 E.01883
G1 X169.351 Y168.719 E.01883
G1 X169.328 Y169.164 E.01868
G1 X169.259 Y169.464 E.01285
G1 X169.084 Y169.874 E.01868
G1 X168.826 Y170.243 E.01883
G1 X168.549 Y170.502 E.0159
G1 E-3.6875 F1500
;WIPE_START
G1 F4800
G1 X168.497 Y170.549 E-.02186
G1 X168.112 Y170.781 E-.14054
G1 X167.69 Y170.926 E-.13944
G1 X167.656 Y170.932 E-.01066
;WIPE_END
G1 Z.8 F9000
G1 X53.241 Y58.029 Z.8
G1 Z.3
G1 E4 F1500
;TYPE:Inner wall
G1 F4800
G1 X52.936 Y57.912 E.0137
G1 X52.508 Y57.633 E.02138
G1 X52.24 Y57.384 E.01531
G1 X51.933 Y56.976 E.02138
G1 X51.713 Y56.504 E.02178
G1 X51.596 Y55.997 E.02178
G1 X51.587 Y55.487 E.02138
G1 X51.644 Y55.125 E.01531
G1 X51.81 Y54.642 E.02138
G1 X52.078 Y54.196 E.02178
G1 X52.433 Y53.816 E.02178
G1 X52.86 Y53.518 E.02178
G1 X53.338 Y53.314 E.02178
G1 X53.849 Y53.215 E.02178
G1 X54.36 Y53.224 E.02138
G1 X54.719 Y53.294 E.01531
G1 X55.196 Y53.477 E.02138
G1 X55.624 Y53.755 E.02138
G1 X55.892 Y54.005 E.01531
G1 X56.199 Y54.413 E.02138
G1 X56.419 Y54.884 E.02178
G1 X56.536 Y55.391 E.02178
G1 X56.545 Y55.911 E.02178
G1 X56.446 Y56.422 E.02178
G1 X56.242 Y56.901 E.02178
G1 X55.944 Y57.327 E.02177
G1 X55.563 Y57.682 E.02178
G1 X55.117 Y57.95 E.02178
G1 X54.634 Y58.116 E.02138
G1 X54.273 Y58.173 E.01531
G1 X53.772 Y58.165 E.02099
G1 X53.413 Y58.095 E.01531
G1 X53.279 Y58.043 E.00601
G1 X53.362 Y57.716 F9000
;TYPE:Outer wall
G1 F4800
G1 X53.089 Y57.611 E.01222
G1 X52.715 Y57.368 E.01868
G1 X52.49 Y57.158 E.01285
G1 X52.222 Y56.802 E.01868
G1 X52.032 Y56.394 E.01883
G1 X51.931 Y55.956 E.01883
G1 X51.923 Y55.51 E.01868
G1 X51.971 Y55.207 E.01285
G1 X52.116 Y54.785 E.01868
G1 X52.348 Y54.4 E.01883
G1 X52.655 Y54.071 E.01883
G1 X53.023 Y53.813 E.01883
G1 X53.437 Y53.637 E.01883
G1 X53.879 Y53.551 E.01883
G1 X54.325 Y53.559 E.01868
G1 X54.626 Y53.618 E.01285
G1 X55.043 Y53.778 E.01868
G1 X55.417 Y54.021 E.01868
G1 X55.641 Y54.23 E.01285
G1 X55.91 Y54.586 E.01868
G1 X56.1 Y54.994 E.01883
G1 X56.201 Y55.432 E.01883
G1 X56.209 Y55.882 E.01883
G1 X56.123 Y56.323 E.01883
G1 X55.947 Y56.737 E.01883
G1 X55.689 Y57.106 E.01882
G1 X55.36 Y57.412 E.01883
G1 X54.975 Y57.644 E.01883
G1 X54.553 Y57.789 E.01868
G1 X54.25 Y57.837 E.01285
G1 X53.807 Y57.829 E.01853
G1 X53.506 Y57.771 E.01285
G1 X53.399 Y57.73 E.00478
G1 E-3.6875 F1500
;WIPE_START
G1 F4800
G1 X53.089 Y57.611 E-.10375
G1 X52.715 Y57.368 E-.13943
G1 X52.553 Y57.217 E-.06932
;WIPE_END
G1 Z.8 F9000
G1 X179.224 Y191.196 Z.8
G1 Z.3
G1 E4 F1500
;TYPE:Inner wall
G1 F4800
G1 X31.701 Y43.673 E8.73326
G1 X41.107 Y34.267 E.55685
G1 X41.381 Y34.011 E.01568
G1 X41.663 Y33.782 E.01519
G1 X41.959 Y33.573 E.01519
G1 X42.269 Y33.385 E.01519
G1 X42.591 Y33.218 E.01519
G1 X42.924 Y33.073 E.01519
G1 X43.266 Y32.952 E.01519
G1 X43.615 Y32.854 E.01519
G1 X43.971 Y32.78 E.01519
G1 X44.33 Y32.73 E.01519
G1 X44.692 Y32.706 E.01519
G1 X45.055 Y32.706 E.01519
G1 X45.407 Y32.73 E.01479
G1 X45.777 Y32.78 E.01561
G1 X46.132 Y32.854 E.01517
G1 X46.481 Y32.952 E.01519
G1 X46.823 Y33.073 E.01519
G1 X47.156 Y33.218 E.01519
G1 X47.478 Y33.385 E.01519
G1 X47.788 Y33.573 E.01519
G1 X48.084 Y33.782 E.01519
G1 X48.366 Y34.011 E.01519
G1 X48.64 Y34.267 E.01568
G1 X188.63 Y174.258 E8.28736
G1 X188.886 Y174.531 E.01568
G1 X189.115 Y174.813 E.01519
G1 X189.324 Y175.109 E.01519
G1 X189.513 Y175.419 E.01519
G1 X189.675 Y175.733 E.01479
G1 X189.824 Y176.075 E.01561
G1 X189.946 Y176.416 E.01516
G1 X190.044 Y176.766 E.01519
G1 X190.117 Y177.121 E.01519
G1 X190.167 Y177.48 E.01519
G1 X190.192 Y177.842 E.01519
G1 X190.192 Y178.205 E.01519
G1 X190.167 Y178.567 E.01519
G1 X190.117 Y178.927 E.01519
G1 X190.044 Y179.282 E.01519
G1 X189.946 Y179.631 E.01519
G1 X189.824 Y179.973 E.01519
G1 X189.68 Y180.306 E.01519
G1 X189.513 Y180.628 E.01519
G1 X189.324 Y180.938 E.01519
G1 X189.115 Y181.235 E.01519
G1 X188.886 Y181.516 E.01519
G1 X188.63 Y181.79 E.01568
G1 X179.252 Y191.168 E.55518
G1 X179.224 Y191.671 F9000
;TYPE:Outer wall
G1 F4800
G1 X31.226 Y43.673 E8.76136
G1 X40.874 Y34.026 E.57114
G1 X41.16 Y33.758 E.0164
G1 X41.46 Y33.515 E.01615
G1 X41.775 Y33.292 E.01615
G1 X42.104 Y33.092 E.01615
G1 X42.447 Y32.914 E.01615
G1 X42.801 Y32.761 E.01615
G1 X43.164 Y32.632 E.01615
G1 X43.536 Y32.527 E.01615
G1 X43.914 Y32.449 E.01615
G1 X44.296 Y32.396 E.01615
G1 X44.681 Y32.37 E.01615
G1 X45.066 Y32.37 E.01615
G1 X45.442 Y32.396 E.01574
G1 X45.834 Y32.449 E.01657
G1 X46.211 Y32.527 E.01614
G1 X46.583 Y32.632 E.01615
G1 X46.946 Y32.761 E.01615
G1 X47.3 Y32.914 E.01615
G1 X47.643 Y33.092 E.01615
G1 X47.972 Y33.292 E.01615
G1 X48.287 Y33.515 E.01615
G1 X48.587 Y33.758 E.01615
G1 X48.873 Y34.026 E.0164
G1 X188.872 Y174.024 E8.28784
G1 X189.139 Y174.311 E.0164
G1 X189.382 Y174.61 E.01615
G1 X189.605 Y174.925 E.01615
G1 X189.805 Y175.255 E.01615
G1 X189.978 Y175.589 E.01574
G1 X190.137 Y175.951 E.01657
G1 X190.266 Y176.315 E.01614
G1 X190.37 Y176.686 E.01615
G1 X190.448 Y177.064 E.01615
G1 X190.501 Y177.446 E.01615
G1 X190.527 Y177.831 E.01615
G1 X190.527 Y178.217 E.01615
G1 X190.501 Y178.601 E.01615
G1 X190.448 Y178.984 E.01615
G1 X190.37 Y179.361 E.01615
G1 X190.266 Y179.733 E.01615
G1 X190.137 Y180.096 E.01615
G1 X189.983 Y180.45 E.01615
G1 X189.805 Y180.793 E.01615
G1 X189.605 Y181.122 E.01615
G1 X189.382 Y181.438 E.01615
G1 X189.139 Y181.737 E.01615
G1 X188.872 Y182.023 E.0164
G1 X179.252 Y191.643 E.56947
G1 E-3.6875 F1500
;WIPE_START
G1 F4800
G1 X178.545 Y190.936 E-.3125
;WIPE_END
G1 Z.8 F9000
G1 X47.583 Y33.566
G1 Z.8
G1 Z.3
G1 E4 F1500
;TYPE:Bottom surface
;WIDTH:0.400034
G1 F4800
G1 X188.45 Y174.434 E8.34013
G1 X188.696 Y174.697 E.01506
G1 X189.113 Y175.247 E.02892
G1 X189.293 Y175.543 E.01447
G1 X189.498 Y175.956 E.01931
G1 X46.94 Y33.399 E8.44016
G1 X46.731 Y33.307 E.00958
G1 X46.202 Y33.135 E.02328
G1 X189.762 Y176.695 E8.49955
G1 X189.887 Y177.295 E.02563
G1 X45.603 Y33.01 E8.5424
G1 X45.077 Y32.96 E.0221
G1 X189.938 Y177.82 E8.57651
G1 X189.933 Y178.29 E.01969
M73 P2 R57
M73 P2 R57
G1 X44.607 Y32.964 E8.6041
G1 X44.174 Y33.006 E.01819
G1 X189.891 Y178.723 E8.62722
G1 X189.819 Y179.125 E.01712
G1 X43.772 Y33.078 E8.64676
G1 X43.396 Y33.177 E.01628
G1 X189.721 Y179.502 E8.66321
G1 X189.599 Y179.855 E.01564
G1 X43.042 Y33.298 E8.67693
G1 X42.71 Y33.44 E.01514
G1 X189.457 Y180.187 E8.68818
G1 X189.295 Y180.5 E.01475
G1 X42.397 Y33.602 E8.69717
G1 X42.101 Y33.781 E.01447
G1 X189.116 Y180.796 E8.70405
G1 X188.92 Y181.074 E.01426
G1 X41.823 Y33.977 E8.70893
G1 X41.561 Y34.19 E.01413
M73 P2 R56
M73 P2 R56
G1 X188.707 Y181.337 E8.71187
G1 X188.696 Y181.351 E.00076
G1 X188.479 Y181.583 E.01331
G1 X41.314 Y34.418 E8.71294
G1 X41.076 Y34.654 E.01405
G1 X188.243 Y181.821 E8.71306
G1 X188.005 Y182.059 E.01405
G1 X40.839 Y34.892 E8.71306
G1 X40.601 Y35.129 E.01405
M73 P3 R56
M73 P3 R56
G1 X187.768 Y182.296 E8.71306
G1 X187.531 Y182.533 E.01405
G1 X40.364 Y35.366 E8.71306
G1 X40.127 Y35.604 E.01405
G1 X187.293 Y182.771 E8.71306
G1 X187.056 Y183.008 E.01405
G1 X39.889 Y35.841 E8.71306
G1 X39.652 Y36.078 E.01405
G1 X186.819 Y183.245 E8.71306
G1 X186.581 Y183.483 E.01405
G1 X39.415 Y36.316 E8.71306
G1 X39.177 Y36.553 E.01405
G1 X186.344 Y183.72 E8.71306
G1 X186.107 Y183.957 E.01405
G1 X38.94 Y36.79 E8.71306
G1 X38.703 Y37.028 E.01405
G1 X54.71 Y53.036 E.94775
G1 X54.386 Y52.973 E.01382
G1 X54.169 Y52.969 E.0091
G1 X38.465 Y37.265 E.92974
G1 X38.228 Y37.503 E.01405
G1 X53.711 Y52.986 E.91668
G1 X53.313 Y53.063 E.01695
G1 X37.991 Y37.74 E.9072
G1 X37.753 Y37.977 E.01405
G1 X52.972 Y53.196 E.90105
G1 X52.737 Y53.296 E.01071
G1 X52.655 Y53.354 E.00419
G1 X37.516 Y38.215 E.89631
G1 X37.278 Y38.452 E.01405
G1 X52.376 Y53.549 E.89383
G1 X52.267 Y53.625 E.00554
G1 X52.127 Y53.775 E.0086
G1 X37.041 Y38.689 E.89317
G1 X36.804 Y38.927 E.01405
G1 X51.898 Y54.021 E.89366
G1 X51.715 Y54.312 E.01442
G1 X36.566 Y39.164 E.89688
G1 X36.329 Y39.401 E.01405
G1 X51.551 Y54.623 E.90121
G1 X51.429 Y54.976 E.01563
G1 X36.092 Y39.639 E.90806
G1 X35.854 Y39.876 E.01405
G1 X51.35 Y55.372 E.91743
G1 X51.335 Y55.469 E.00412
G1 X51.341 Y55.837 E.01543
G1 X35.617 Y40.113 E.93095
G1 X35.38 Y40.351 E.01405
G1 X51.661 Y56.632 E.96395
G1 E-3.6875 F1500
;WIPE_START
G1 F4800
G1 X50.954 Y55.925 E-.3125
;WIPE_END
G1 Z.8 F9000
G1 X56.505 Y54.83 Z.8
G1 Z.3
G1 E4 F1500
G1 F4800
G1 X167.859 Y166.184 E6.59276
G1 X167.537 Y166.11 E.01383
G1 X167.306 Y166.106 E.00968
G1 X56.791 Y55.591 E6.54306
G1 X56.797 Y55.933 E.01433
G1 X56.775 Y56.049 E.00494
G1 X166.846 Y166.121 E6.51684
G1 X166.573 Y166.164 E.01158
G1 X166.456 Y166.205 E.00521
G1 X56.697 Y56.447 E6.49827
G1 X56.564 Y56.788 E.01534
G1 X166.102 Y166.326 E6.48526
G1 X165.797 Y166.495 E.01463
M73 P4 R56
M73 P4 R56
G1 X56.407 Y57.105 E6.47647
G1 X56.211 Y57.384 E.01427
G1 X165.509 Y166.683 E6.47103
G1 X165.263 Y166.912 E.01406
G1 X55.985 Y57.633 E6.46987
G1 X55.739 Y57.862 E.01406
G1 X165.042 Y167.164 E6.47127
G1 X164.846 Y167.443 E.01427
G1 X55.448 Y58.045 E6.47697
G1 X55.224 Y58.179 E.0109
G1 X55.137 Y58.209 E.00387
G1 X164.693 Y167.765 E6.48631
G1 X164.586 Y168.017 E.01143
M73 P4 R55
M73 P4 R55
G1 X164.565 Y168.111 E.00407
G1 X54.784 Y58.331 E6.4996
G1 X54.696 Y58.361 E.00391
G1 X54.388 Y58.41 E.01302
G1 X164.489 Y168.511 E6.51856
G1 X164.466 Y168.962 E.01891
G1 X53.923 Y58.419 E6.54473
G1 X53.745 Y58.416 E.00742
G1 X53.372 Y58.343 E.01591
G1 X164.808 Y169.778 E6.59756
G1 E-3.6875 F1500
;WIPE_START
G1 F4800
G1 X164.1 Y169.071 E-.3125
;WIPE_END
G1 Z.8 F9000
G1 X169.623 Y167.948 Z.8
G1 Z.3
G1 E4 F1500
G1 F4800
G1 X185.869 Y184.195 E.96188
G1 X185.632 Y184.432 E.01405
G1 X169.938 Y168.738 E.92915
G1 X169.915 Y169.189 E.01891
G1 X185.395 Y184.669 E.9165
G1 X185.157 Y184.907 E.01405
G1 X169.834 Y169.583 E.90723
G1 X169.701 Y169.925 E.01535
G1 X184.92 Y185.144 E.90105
G1 X184.683 Y185.381 E.01405
G1 X169.544 Y170.242 E.89631
G1 X169.348 Y170.522 E.01427
G1 X184.445 Y185.619 E.89383
G1 X184.208 Y185.856 E.01405
G1 X169.122 Y170.77 E.89317
G1 X168.876 Y170.999 E.01406
G1 X183.971 Y186.093 E.89366
G1 X183.733 Y186.331 E.01405
G1 X168.585 Y171.182 E.89688
G1 X168.362 Y171.316 E.0109
G1 X168.274 Y171.346 E.00387
G1 X183.496 Y186.568 E.90121
G1 X183.259 Y186.805 E.01405
G1 X167.921 Y171.468 E.90806
G1 X167.833 Y171.498 E.00391
G1 X167.525 Y171.547 E.01302
G1 X183.021 Y187.043 E.91743
G1 X182.784 Y187.28 E.01405
G1 X167.06 Y171.556 E.93095
G1 X166.869 Y171.553 E.008
G1 X166.496 Y171.466 E.01603
G1 X182.547 Y187.517 E.9503
G1 X182.309 Y187.755 E.01405
G1 X35.142 Y40.588 E8.71306
G1 X34.905 Y40.825 E.01405
G1 X182.072 Y187.992 E8.71306
G1 X181.835 Y188.229 E.01405
G1 X34.668 Y41.063 E8.71306
G1 X34.43 Y41.3 E.01405
G1 X181.597 Y188.467 E8.71306
G1 X181.36 Y188.704 E.01405
M73 P5 R55
M73 P5 R55
G1 X34.193 Y41.537 E8.71306
G1 X33.956 Y41.775 E.01405
G1 X181.123 Y188.942 E8.71306
G1 X180.885 Y189.179 E.01405
G1 X33.718 Y42.012 E8.71306
G1 X33.481 Y42.249 E.01405
G1 X180.648 Y189.416 E8.71306
G1 X180.411 Y189.654 E.01405
G1 X33.244 Y42.487 E8.71306
G1 X33.006 Y42.724 E.01405
G1 X180.173 Y189.891 E8.71306
G1 X179.936 Y190.128 E.01405
G1 X32.769 Y42.961 E8.71306
