; HEADER_BLOCK_START
; generated by OrcaSlicer 2.2.0 on 2025-02-20 at 21:14:57
; total layer number: 150
; filament_density: 1.27
; filament_diameter: 1.75
; max_z_height: 30.10
; HEADER_BLOCK_END

; THUMBNAIL_BLOCK_START

;
; THUMBNAIL_BLOCK_END

; external perimeters extrusion width = 0.40mm
; perimeters extrusion width = 0.40mm
; infill extrusion width = 0.40mm
; solid infill extrusion width = 0.40mm
; top infill extrusion width = 0.40mm
; first layer extrusion width = 0.40mm

; EXECUTABLE_BLOCK_START
M73 P0 R38
;TYPE:Custom
G90 ; use absolute coordinates
M83 ; extruder relative mode
M140 S80 ; set final bed temp
M104 S150 ; set temporary nozzle temp to prevent oozing during homing
G4 S10 ; allow partial nozzle warmup
M104 S235 ; set final nozzle temp
M190 S80 ; wait for bed temp to stabilize
M109 S235 ; wait for nozzle temp to stabilize
G28 ; home all axis
G1 Z15 F240
G1 X-2 Y10 F3000
G1 Z0.28 F240
G92 E0
G1 Y140 E10 F1500 ; prime the nozzle
G1 X-1.7 F5000
G92 E0
G1 Y10 E10 F1200 ; prime the nozzle
G92 E0
G90
G21
M83 ; use relative distances for extrusion
; filament start gcode
M106 P3 S180
;Prevent PLA from jamming

M106 S0
;LAYER_CHANGE
;Z:0.3
;HEIGHT:0.3
;BEFORE_LAYER_CHANGE
;0.3
G92 E0

G1 E-4 F1500
;_SET_FAN_SPEED_CHANGING_LAYER
M204 S3000
G1 Z.8 F9000
G1 X96.166 Y96.166
G1 Z.8
G1 Z.3
G1 E4 F1500
;TYPE:Skirt
;WIDTH:0.4
G1 F3000
G1 X99.053 Y93.28 E.17088
G1 X100.823 Y92.547 E.08021
G1 X119.177 Y92.547 E.7683
G1 X120.947 Y93.28 E.08021
G1 X126.72 Y99.053 E.34176
G1 X127.453 Y100.823 E.08021
G1 X127.453 Y119.177 E.7683
G1 X126.72 Y120.947 E.08021
G1 X120.947 Y126.72 E.34176
G1 X119.177 Y127.453 E.08021
G1 X100.823 Y127.453 E.7683
G1 X99.053 Y126.72 E.08021
G1 X93.28 Y120.947 E.34176
G1 X92.547 Y119.177 E.08021
G1 X92.547 Y100.823 E.7683
G1 X93.28 Y99.053 E.08021
G1 X96.138 Y96.195 E.16921
G1 X96.375 Y96.432 F9000
M73 P1 R38
M73 P1 R38
G1 F3000
G1 X99.29 Y93.517 E.17255
G1 X100.823 Y92.882 E.06945
G1 X119.177 Y92.882 E.7683
G1 X120.71 Y93.517 E.06945
G1 X126.483 Y99.29 E.34176
G1 X127.118 Y100.823 E.06945
G1 X127.118 Y119.177 E.7683
G1 X126.483 Y120.71 E.06945
G1 X120.71 Y126.483 E.34176
G1 X119.177 Y127.118 E.06945
G1 X100.823 Y127.118 E.7683
G1 X99.29 Y126.483 E.06945
G1 X93.517 Y120.71 E.34176
G1 X92.882 Y119.177 E.06945
G1 X92.882 Y100.823 E.7683
G1 X93.517 Y99.29 E.06945
G1 X96.347 Y96.46 E.16753
; printing object Voron_Design_Cube_v7.stl id:0 copy 0
G1 E-3.5 F1500
;WIPE_START
G1 F3000
G1 X97.054 Y95.753 E-.5
;WIPE_END
G1 Z.8 F9000
G1 X113.449 Y102.365 Z.8
G1 Z.3
G1 E4 F1500
;TYPE:Inner wall
G1 F3600
G1 X114.035 Y102.648 E.02723
G1 X114.774 Y103.105 E.03637
G1 X115.456 Y103.632 E.03607
G1 X115.789 Y103.933 E.01877
G1 X116.381 Y104.558 E.03607
G1 X116.91 Y105.248 E.03637
G1 X117.364 Y105.988 E.03637
G1 X117.74 Y106.772 E.03638
G1 X118.032 Y107.589 E.03635
G1 X118.238 Y108.433 E.03636
G1 X118.356 Y109.294 E.03636
G1 X118.384 Y110.155 E.03608
G1 X118.355 Y110.711 E.02329
G1 X118.238 Y111.567 E.03615
G1 X118.032 Y112.411 E.03636
G1 X117.74 Y113.229 E.03637
G1 X117.364 Y114.012 E.03636
G1 X116.91 Y114.752 E.03636
G1 X116.381 Y115.442 E.03637
G1 X115.789 Y116.067 E.03607
G1 X115.456 Y116.368 E.01877
G1 X114.774 Y116.895 E.03607
G1 X114.035 Y117.352 E.03637
G1 X113.252 Y117.73 E.0364
G1 X112.436 Y118.025 E.03633
G1 X111.592 Y118.234 E.03636
G1 X110.732 Y118.354 E.03637
G1 X109.864 Y118.385 E.03637
G1 X108.997 Y118.326 E.03637
G1 X108.141 Y118.178 E.03637
G1 X107.305 Y117.942 E.03636
G1 X106.498 Y117.62 E.03637
G1 X105.728 Y117.217 E.03637
G1 X105.005 Y116.736 E.03637
G1 X104.335 Y116.183 E.03637
G1 X103.725 Y115.564 E.03637
G1 X103.188 Y114.891 E.03607
G1 X102.936 Y114.52 E.01877
G1 X102.509 Y113.771 E.03607
G1 X102.159 Y112.976 E.03637
G1 X101.894 Y112.149 E.03637
G1 X101.715 Y111.298 E.03637
G1 X101.625 Y110.434 E.03637
G1 X101.625 Y109.566 E.03637
G1 X101.715 Y108.702 E.03637
G1 X101.894 Y107.851 E.03637
G1 X102.159 Y107.024 E.03637
G1 X102.506 Y106.235 E.03608
G1 X102.718 Y105.84 E.01877
G1 X103.183 Y105.115 E.03608
G1 X103.725 Y104.436 E.03637
G1 X104.335 Y103.817 E.03637
G1 X105.005 Y103.264 E.03637
G1 X105.723 Y102.787 E.03607
G1 X106.114 Y102.569 E.01877
G1 X106.898 Y102.209 E.03608
G1 X107.72 Y101.93 E.03636
G1 X108.567 Y101.737 E.03637
G1 X109.423 Y101.634 E.03607
G1 X109.871 Y101.615 E.01877
G1 X110.732 Y101.646 E.03608
G1 X111.592 Y101.766 E.03637
G1 X112.436 Y101.975 E.03637
G1 X113.253 Y102.27 E.03638
G1 X113.413 Y102.348 E.00745
G1 X113.303 Y102.667 F9000
;TYPE:Outer wall
G1 F3600
G1 X113.873 Y102.943 E.0265
G1 X114.582 Y103.381 E.03491
G1 X115.241 Y103.889 E.0348
G1 X115.554 Y104.173 E.01768
G1 X116.125 Y104.776 E.0348
G1 X116.633 Y105.438 E.03491
G1 X117.069 Y106.149 E.03491
G1 X117.43 Y106.901 E.03492
G1 X117.71 Y107.686 E.03489
G1 X117.908 Y108.496 E.03491
G1 X118.021 Y109.322 E.03491
G1 X118.048 Y110.152 E.03476
G1 X118.021 Y110.68 E.0221
G1 X117.908 Y111.504 E.03483
G1 X117.71 Y112.314 E.03491
G1 X117.429 Y113.099 E.03491
G1 X117.069 Y113.851 E.03491
G1 X116.633 Y114.562 E.03491
G1 X116.125 Y115.224 E.03491
G1 X115.554 Y115.827 E.0348
G1 X115.241 Y116.111 E.01768
G1 X114.582 Y116.619 E.0348
G1 X113.873 Y117.057 E.03491
G1 X113.121 Y117.42 E.03495
G1 X112.338 Y117.703 E.03487
G1 X111.529 Y117.904 E.03491
G1 X110.703 Y118.019 E.03491
G1 X109.869 Y118.049 E.03491
G1 X109.037 Y117.992 E.03491
G1 X108.216 Y117.85 E.03491
G1 X107.413 Y117.623 E.0349
G1 X106.638 Y117.315 E.03492
G1 X105.9 Y116.928 E.03491
G1 X105.205 Y116.466 E.03491
G1 X104.562 Y115.936 E.03491
G1 X103.977 Y115.341 E.03491
G1 X103.458 Y114.691 E.0348
G1 X103.221 Y114.342 E.01768
G1 X102.809 Y113.62 E.0348
G1 X102.474 Y112.856 E.03491
G1 X102.218 Y112.063 E.03491
G1 X102.047 Y111.246 E.03491
G1 X101.96 Y110.417 E.03491
G1 X101.96 Y109.583 E.03491
G1 X102.047 Y108.754 E.03491
G1 X102.218 Y107.937 E.03491
G1 X102.474 Y107.144 E.03491
G1 X102.808 Y106.383 E.0348
G1 X103.008 Y106.01 E.01768
G1 X103.457 Y105.311 E.0348
G1 X103.977 Y104.659 E.03491
G1 X104.562 Y104.064 E.03491
G1 X105.205 Y103.534 E.03491
G1 X105.897 Y103.074 E.0348
G1 X106.266 Y102.868 E.01768
G1 X107.022 Y102.521 E.03481
G1 X107.811 Y102.253 E.0349
G1 X108.625 Y102.068 E.03491
G1 X109.45 Y101.969 E.0348
G1 X109.872 Y101.951 E.01768
G1 X110.703 Y101.981 E.0348
G1 X111.529 Y102.096 E.03491
G1 X112.338 Y102.297 E.03491
G1 X113.123 Y102.58 E.03492
G1 X113.267 Y102.65 E.00672
G1 E-3.58333 F1500
;WIPE_START
G1 F3600
G1 X113.873 Y102.943 E-.28043
G1 X114.151 Y103.115 E-.13624
;WIPE_END
G1 Z.8 F9000
G1 X124.264 Y101.107 Z.8
G1 Z.3
G1 E4 F1500
;TYPE:Inner wall
G1 F3600
G1 X124.264 Y118.893 E.74453
G1 X118.893 Y124.264 E.31798
G1 X101.107 Y124.264 E.74453
G1 X95.736 Y118.893 E.31798
G1 X95.736 Y101.107 E.74453
G1 X101.107 Y95.736 E.31798
G1 X118.893 Y95.736 E.74453
G1 X119.171 Y96.014 E.01648
G1 X124.236 Y101.079 E.29983
G1 X124.6 Y100.968 F9000
;TYPE:Outer wall
G1 F3600
G1 X124.6 Y119.032 E.75616
G1 X119.032 Y124.6 E.32962
G1 X100.968 Y124.6 E.75616
G1 X95.4 Y119.032 E.32962
G1 X95.4 Y100.968 E.75616
G1 X100.968 Y95.4 E.32962
G1 X119.032 Y95.4 E.75616
G1 X119.409 Y95.777 E.02229
G1 X124.572 Y100.94 E.30565
G1 E-3.58333 F1500
;WIPE_START
G1 F3600
G1 X124.573 Y101.94 E-.41667
;WIPE_END
G1 Z.8 F9000
G1 X118.637 Y95.836
G1 Z.8
G1 Z.3
G1 E4 F1500
;TYPE:Bottom surface
;WIDTH:0.400274
G1 F3600
G1 X124.013 Y101.212 E.31847
G1 X124.013 Y101.687 E.0199
G1 X118.313 Y95.987 E.33767
G1 X117.838 Y95.987 E.0199
G1 X124.013 Y102.162 E.36581
G1 X124.013 Y102.637 E.0199
G1 X117.363 Y95.987 E.39396
G1 X116.888 Y95.987 E.0199
G1 X124.013 Y103.112 E.4221
G1 X124.013 Y103.587 E.0199
G1 X116.413 Y95.987 E.45024
G1 X115.938 Y95.987 E.0199
G1 X124.013 Y104.062 E.47839
G1 X124.013 Y104.537 E.0199
G1 X115.463 Y95.987 E.50653
G1 X114.988 Y95.987 E.0199
G1 X124.013 Y105.012 E.53468
G1 X124.013 Y105.487 E.0199
G1 X114.513 Y95.987 E.56282
G1 X114.038 Y95.987 E.0199
G1 X124.013 Y105.962 E.59096
G1 X124.013 Y106.437 E.0199
G1 X113.563 Y95.987 E.61911
G1 X113.088 Y95.987 E.0199
G1 X124.013 Y106.912 E.64725
G1 X124.013 Y107.387 E.0199
G1 X112.613 Y95.987 E.6754
G1 X112.138 Y95.987 E.0199
G1 X124.013 Y107.862 E.70354
G1 X124.013 Y108.337 E.0199
G1 X111.663 Y95.987 E.73168
G1 X111.188 Y95.987 E.0199
G1 X124.013 Y108.812 E.75983
G1 X124.013 Y109.287 E.0199
G1 X110.713 Y95.987 E.78797
G1 X110.238 Y95.987 E.0199
G1 X124.013 Y109.762 E.81612
G1 X124.013 Y110.237 E.0199
G1 X109.763 Y95.987 E.84426
G1 X109.288 Y95.987 E.0199
G1 X124.013 Y110.712 E.8724
G1 X124.013 Y111.187 E.0199
G1 X108.813 Y95.987 E.90055
G1 X108.338 Y95.987 E.0199
G1 X124.013 Y111.662 E.92869
G1 X124.013 Y112.137 E.0199
G1 X117.335 Y105.459 E.39565
G1 X117.117 Y105.105 E.01742
G1 X116.573 Y104.395 E.03749
G1 X115.965 Y103.752 E.03706
G1 X115.618 Y103.439 E.01961
G1 X114.917 Y102.898 E.03706
G1 X114.541 Y102.665 E.01855
G1 X107.863 Y95.987 E.39564
G1 X107.388 Y95.987 E.0199
G1 X113.521 Y102.12 E.36336
G1 X113.351 Y102.038 E.00791
M73 P1 R37
M73 P1 R37
G1 X112.745 Y101.819 E.02699
G1 X106.913 Y95.987 E.34553
G1 X106.438 Y95.987 E.0199
G1 X112.078 Y101.627 E.33415
G1 X111.64 Y101.519 E.01888
G1 X111.471 Y101.495 E.00718
G1 X105.963 Y95.987 E.32632
G1 X105.488 Y95.987 E.0199
G1 X110.918 Y101.418 E.32173
G1 X110.408 Y101.382 E.02143
G1 X105.013 Y95.987 E.31964
G1 X104.538 Y95.987 E.0199
G1 X109.915 Y101.365 E.3186
G1 X109.456 Y101.381 E.01925
G1 X104.063 Y95.987 E.31954
G1 X103.588 Y95.987 E.0199
G1 X109.028 Y101.428 E.32234
G1 X108.604 Y101.479 E.01789
G1 X103.113 Y95.987 E.32537
G1 X102.638 Y95.987 E.0199
G1 X108.21 Y101.56 E.33017
G1 X107.823 Y101.648 E.01663
G1 X102.163 Y95.987 E.33538
G1 X101.688 Y95.987 E.0199
G1 X107.454 Y101.754 E.34166
G1 X107.1 Y101.874 E.01569
G1 X101.211 Y95.987 E.34883
G1 X100.974 Y96.224 E.01403
G1 X106.75 Y102 E.34218
G1 X106.424 Y102.149 E.01501
G1 X100.737 Y96.462 E.33696
G1 X100.499 Y96.699 E.01407
G1 X106.099 Y102.299 E.33175
G1 X105.788 Y102.463 E.01473
G1 X100.262 Y96.937 E.32739
G1 X100.024 Y97.174 E.01407
G1 X105.49 Y102.64 E.3238
G1 X105.204 Y102.829 E.01436
G1 X99.787 Y97.412 E.32096
G1 X99.549 Y97.649 E.01407
G1 X104.919 Y103.019 E.31812
G1 X104.653 Y103.228 E.01417
G1 X99.312 Y97.887 E.31644
G1 X99.074 Y98.124 E.01407
G1 X104.392 Y103.443 E.31509
G1 X104.135 Y103.66 E.01412
G1 X98.837 Y98.362 E.31392
G1 X98.599 Y98.599 E.01407
G1 X103.9 Y103.9 E.31404
G1 X103.664 Y104.139 E.01407
G1 X98.362 Y98.837 E.31415
G1 X98.124 Y99.074 E.01407
G1 X103.44 Y104.39 E.31494
G1 X103.229 Y104.654 E.01416
G1 X97.887 Y99.312 E.31652
G1 X97.649 Y99.549 E.01407
G1 X103.018 Y104.918 E.3181
G1 X102.828 Y105.203 E.01435
G1 X97.412 Y99.787 E.32089
G1 X97.174 Y100.024 E.01407
G1 X102.642 Y105.493 E.32397
G1 X102.461 Y105.787 E.01447
G1 X96.937 Y100.262 E.32733
G1 X96.699 Y100.499 E.01407
G1 X102.296 Y106.096 E.33158
G1 X102.149 Y106.424 E.01506
G1 X96.462 Y100.737 E.33693
G1 X96.224 Y100.974 E.01407
G1 X102.003 Y106.754 E.34241
G1 X101.872 Y107.097 E.0154
G1 X95.987 Y101.213 E.34863
G1 X95.987 Y101.688 E.0199
G1 X101.756 Y107.456 E.34178
G1 X101.643 Y107.819 E.01589
G1 X95.987 Y102.163 E.3351
G1 X95.987 Y102.638 E.0199
G1 X101.561 Y108.211 E.33021
G1 X101.478 Y108.604 E.0168
G1 X95.987 Y103.113 E.32532
G1 X95.987 Y103.588 E.0199
G1 X101.428 Y109.028 E.32233
G1 X101.383 Y109.458 E.01812
M73 P2 R37
M73 P2 R37
G1 X95.987 Y104.063 E.31968
G1 X95.987 Y104.538 E.0199
G1 X101.373 Y109.924 E.3191
G1 X101.373 Y110.399 E.0199
G1 X95.987 Y105.013 E.3191
G1 X95.987 Y105.488 E.0199
G1 X101.423 Y110.923 E.32203
G1 X101.493 Y111.469 E.02306
G1 X95.987 Y105.963 E.32622
G1 X95.987 Y106.438 E.0199
G1 X101.62 Y112.07 E.33371
G1 X101.821 Y112.747 E.02958
G1 X95.987 Y106.913 E.34566
G1 X95.987 Y107.388 E.0199
G1 X102.424 Y113.825 E.38135
G1 E-3.58333 F1500
;WIPE_START
G1 F3600
G1 X101.717 Y113.117 E-.41667
;WIPE_END
G1 Z.8 F9000
G1 X117.556 Y106.155 Z.8
G1 Z.3
G1 E4 F1500
G1 F3600
G1 X124.013 Y112.612 E.38254
G1 X124.013 Y113.087 E.0199
G1 X118.179 Y107.254 E.34561
G1 X118.273 Y107.517 E.01171
G1 X118.372 Y107.922 E.01747
G1 X124.013 Y113.562 E.33417
G1 X124.013 Y114.037 E.0199
G1 X118.506 Y108.53 E.32628
G1 X118.581 Y109.081 E.02327
G1 X124.013 Y114.512 E.32181
G1 X124.013 Y114.987 E.0199
G1 X118.618 Y109.592 E.31964
G1 X118.634 Y110.083 E.02058
G1 X124.013 Y115.462 E.31869
G1 X124.013 Y115.937 E.0199
G1 X118.616 Y110.541 E.31972
G1 X118.574 Y110.973 E.0182
G1 X124.013 Y116.412 E.32225
G1 X124.013 Y116.887 E.0199
G1 X118.516 Y111.391 E.32564
G1 X118.442 Y111.792 E.01708
G1 X124.013 Y117.362 E.33003
G1 X124.013 Y117.837 E.0199
G1 X118.349 Y112.174 E.33556
G1 X118.25 Y112.549 E.01628
G1 X124.013 Y118.312 E.34144
G1 X124.013 Y118.787 E.0199
G1 X118.125 Y112.899 E.34885
G1 X118 Y113.249 E.01557
G1 X123.776 Y119.026 E.34223
G1 X123.538 Y119.263 E.01407
G1 X117.852 Y113.577 E.33691
G1 X117.698 Y113.898 E.01492
G1 X123.301 Y119.501 E.33195
G1 X123.063 Y119.738 E.01407
G1 X117.537 Y114.212 E.32743
G1 X117.356 Y114.506 E.01447
G1 X122.826 Y119.976 E.32406
G1 X122.588 Y120.213 E.01407
G1 X117.175 Y114.8 E.3207
G1 X116.977 Y115.077 E.01427
G1 X122.351 Y120.451 E.31835
G1 X122.113 Y120.688 E.01407
G1 X116.771 Y115.346 E.3165
G1 X116.564 Y115.614 E.01419
G1 X121.876 Y120.926 E.3147
G1 X121.638 Y121.163 E.01407
G1 X116.333 Y115.858 E.31431
G1 X116.102 Y116.102 E.01408
G1 X121.401 Y121.401 E.31392
G1 X121.163 Y121.638 E.01407
G1 X115.864 Y116.339 E.31398
G1 X115.614 Y116.564 E.01409
G1 X120.926 Y121.876 E.3147
G1 X120.688 Y122.113 E.01407
G1 X115.346 Y116.771 E.31651
G1 X115.078 Y116.978 E.01419
G1 X120.451 Y122.351 E.31832
G1 X120.213 Y122.588 E.01407
G1 X114.8 Y117.175 E.32074
G1 X114.506 Y117.356 E.01446
G1 X119.976 Y122.826 E.32405
G1 X119.738 Y123.063 E.01407
G1 X114.213 Y117.538 E.32737
G1 X113.897 Y117.698 E.0148
G1 X119.501 Y123.301 E.33197
G1 X119.263 Y123.538 E.01407
G1 X113.577 Y117.852 E.33688
G1 X113.249 Y117.999 E.01507
G1 X119.026 Y123.776 E.34227
G1 X118.789 Y124.013 E.01403
G1 X112.9 Y118.125 E.34888
G1 X112.551 Y118.251 E.01555
G1 X118.312 Y124.013 E.34137
G1 X117.837 Y124.013 E.0199
G1 X112.174 Y118.349 E.33556
G1 X111.793 Y118.443 E.01643
G1 X117.362 Y124.013 E.32997
G1 X116.887 Y124.013 E.0199
G1 X111.391 Y118.516 E.32566
G1 X110.974 Y118.575 E.01763
G1 X116.412 Y124.013 E.3222
G1 X115.937 Y124.013 E.0199
G1 X110.538 Y118.613 E.31992
G1 X110.079 Y118.629 E.01923
G1 X115.462 Y124.013 E.31895
G1 X114.987 Y124.013 E.0199
G1 X109.594 Y118.619 E.31956
G1 X109.084 Y118.584 E.02141
G1 X114.512 Y124.013 E.32162
G1 X114.037 Y124.013 E.0199
G1 X108.524 Y118.5 E.32664
G1 X108.085 Y118.423 E.01865
G1 X107.929 Y118.379 E.00682
G1 X113.562 Y124.013 E.33377
G1 X113.087 Y124.013 E.0199
G1 X107.267 Y118.192 E.34485
G1 X106.485 Y117.886 E.03515
G1 X112.612 Y124.013 E.36299
G1 X112.137 Y124.013 E.0199
G1 X105.475 Y117.351 E.39468
G1 X104.855 Y116.939 E.03122
G1 X104.164 Y116.369 E.03749
G1 X103.537 Y115.731 E.03749
G1 X102.985 Y115.04 E.03706
G1 X102.65 Y114.525 E.02574
G1 X95.987 Y107.863 E.39472
G1 X95.987 Y108.338 E.0199
G1 X111.662 Y124.013 E.92869
G1 X111.187 Y124.013 E.0199
G1 X95.987 Y108.813 E.90054
G1 X95.987 Y109.288 E.0199
G1 X110.712 Y124.013 E.8724
G1 X110.237 Y124.013 E.0199
G1 X95.987 Y109.763 E.84425
G1 X95.987 Y110.238 E.0199
G1 X109.762 Y124.013 E.81611
G1 X109.287 Y124.013 E.0199
G1 X95.987 Y110.713 E.78797
G1 X95.987 Y111.188 E.0199
G1 X108.812 Y124.013 E.75982
G1 X108.337 Y124.013 E.0199
G1 X95.987 Y111.663 E.73168
G1 X95.987 Y112.138 E.0199
G1 X107.862 Y124.013 E.70353
G1 X107.387 Y124.013 E.0199
G1 X95.987 Y112.613 E.67539
G1 X95.987 Y113.088 E.0199
G1 X106.912 Y124.013 E.64725
G1 X106.437 Y124.013 E.0199
G1 X95.987 Y113.563 E.6191
G1 X95.987 Y114.038 E.0199
G1 X105.962 Y124.013 E.59096
G1 X105.487 Y124.013 E.0199
G1 X95.987 Y114.513 E.56281
G1 X95.987 Y114.988 E.0199
G1 X105.012 Y124.013 E.53467
G1 X104.537 Y124.013 E.0199
G1 X95.987 Y115.463 E.50652
G1 X95.987 Y115.938 E.0199
G1 X104.062 Y124.013 E.47838
G1 X103.587 Y124.013 E.0199
G1 X95.987 Y116.413 E.45024
G1 X95.987 Y116.888 E.0199
G1 X103.112 Y124.013 E.42209
G1 X102.637 Y124.013 E.0199
G1 X95.987 Y117.363 E.39395
G1 X95.987 Y117.839 E.0199
