; HEADER_BLOCK_START
; generated by OrcaSlicer 2.1.1 on 2024-09-01 at 14:20:08
; total layer number: 150
; filament_density: 1.27
; filament_diameter: 1.75
; max_z_height: 30.00
; HEADER_BLOCK_END

; THUMBNAIL_BLOCK_START

;
; THUMBNAIL_BLOCK_END

; THUMBNAIL_BLOCK_START

;
; THUMBNAIL_BLOCK_END

; external perimeters extrusion width = 0.40mm
; perimeters extrusion width = 0.45mm
; infill extrusion width = 0.45mm
; solid infill extrusion width = 0.40mm
; top infill extrusion width = 0.40mm
; first layer extrusion width = 0.50mm

; EXECUTABLE_BLOCK_START
M73 P0 R48
;TYPE:Custom
G90 ; use absolute coordinates
M83 ; extruder relative mode
M204 S10000 T1000
M104 S250 ; set extruder temp
M140 S100 ; set bed temp
G28 ; home all
G1 Y1.0 Z0.3 F1000 ; move print head up
M190 S100 ; wait for bed temp
M109 S250 ; wait for extruder temp
G92 E0.0
; initial load
G1 X205.0 E19 F1000
G1 Y1.6
M73 P0 R47
G1 X5.0 E19 F1000
G92 E0.0
; intro line
G1 Y2.0 Z0.2 F1000
G1 X65.0 E9.0 F1000
G1 X105.0 E12.5 F1000
G92 E0.0
G90
G21
M83 ; use relative distances for extrusion
; filament start gcode
M106 S0
;LAYER_CHANGE
;Z:0.2
;HEIGHT:0.2
;BEFORE_LAYER_CHANGE
;0.2
G92 E0

G1 E-.9 F2700
;AFTER_LAYER_CHANGE
;0.2
;_SET_FAN_SPEED_CHANGING_LAYER
M204 S2000
; printing object Voron_Design_Cube_v7.stl id:0 copy 0
M73 P1 R47
G1 X123.736 Y111.108 F9000
G1 Z.4
G1 Z.2
G1 E.9 F2100
;TYPE:Inner wall
;WIDTH:0.499999
G1 F3000
G1 X118.608 Y116.236 E.27561
G1 X101.392 Y116.236 E.65433
G1 X96.264 Y111.108 E.27561
G1 X96.264 Y93.892 E.65433
G1 X101.392 Y88.764 E.27561
G1 X118.608 Y88.764 E.65433
G1 X123.736 Y93.892 E.27561
G1 X123.736 Y111.068 E.65281
G1 X124.193 Y111.297 F9000
G1 F3000
G1 X118.797 Y116.693 E.29
G1 X101.203 Y116.693 E.66872
G1 X95.807 Y111.297 E.29
G1 X95.807 Y93.703 E.66872
G1 X101.203 Y88.307 E.29
G1 X118.797 Y88.307 E.66872
G1 X124.193 Y93.703 E.29
G1 X124.193 Y111.257 E.6672
G1 X124.65 Y111.487 F9000
;TYPE:Outer wall
G1 F3000
G1 X118.987 Y117.15 E.30439
G1 X101.013 Y117.15 E.68311
G1 X95.35 Y111.487 E.30439
G1 X95.35 Y93.513 E.68311
G1 X101.013 Y87.85 E.30439
G1 X118.987 Y87.85 E.68311
G1 X124.65 Y93.513 E.30439
G1 X124.65 Y111.447 E.68159
G1 E-.9 F2700
G1 X120.3 Y105.175 Z.6 F9000
G1 X112.52 Y93.957 Z.6
G1 Z.2
G1 E.9 F2100
;TYPE:Inner wall
G1 F3000
G1 X113.263 Y94.206 E.02977
G1 X114.102 Y94.587 E.03502
G1 X114.897 Y95.053 E.03502
G1 X115.639 Y95.598 E.03502
G1 X116.322 Y96.217 E.03502
G1 X116.937 Y96.903 E.03502
G1 X117.541 Y97.749 E.0395
G1 X117.938 Y98.447 E.03053
G1 X118.233 Y99.091 E.02692
G1 X118.473 Y99.732 E.02601
G1 X118.711 Y100.612 E.03462
G1 X118.859 Y101.521 E.03502
G1 X118.913 Y102.441 E.03502
G1 X118.871 Y103.361 E.03502
G1 X118.735 Y104.273 E.03502
G1 X118.505 Y105.165 E.03501
G1 X118.264 Y105.835 E.02706
G1 X117.987 Y106.457 E.02588
G1 X117.541 Y107.251 E.03461
G1 X117.01 Y108.004 E.03502
G1 X116.405 Y108.698 E.03502
G1 X115.73 Y109.326 E.03502
G1 X115.028 Y109.857 E.03345
G1 X114.206 Y110.358 E.03658
G1 X113.566 Y110.667 E.02702
G1 X112.93 Y110.918 E.02597
G1 X112.057 Y111.172 E.03457
G1 X111.151 Y111.338 E.03502
G1 X110.232 Y111.41 E.03502
G1 X109.311 Y111.386 E.03502
G1 X108.398 Y111.267 E.03502
G1 X107.501 Y111.055 E.03501
G1 X106.828 Y110.829 E.02698
G1 X106.197 Y110.561 E.02606
G1 X105.397 Y110.132 E.03452
G1 X104.862 Y109.773 E.02447
G1 X103.927 Y109.024 E.04553
G1 X103.286 Y108.362 E.03502
G1 X102.717 Y107.637 E.03502
G1 X102.226 Y106.858 E.03502
G1 X101.817 Y106.032 E.03502
G1 X101.497 Y105.168 E.03502
G1 X101.267 Y104.276 E.03502
G1 X101.13 Y103.365 E.03501
G1 X101.089 Y102.658 E.02691
G1 X101.119 Y101.752 E.03445
G1 X101.244 Y100.84 E.03502
G1 X101.462 Y99.945 E.03501
G1 X101.69 Y99.278 E.02678
G1 X101.965 Y98.643 E.0263
G1 X102.399 Y97.846 E.03448
G1 X102.992 Y96.993 E.0395
G1 X103.517 Y96.384 E.03053
G1 X104.183 Y95.748 E.03502
G1 X104.911 Y95.183 E.03502
G1 X105.694 Y94.697 E.03502
G1 X106.522 Y94.294 E.03502
G1 X107.388 Y93.979 E.03502
G1 X108.282 Y93.755 E.03502
G1 X109.193 Y93.624 E.03501
G1 X109.899 Y93.589 E.02685
G1 X110.587 Y93.606 E.02615
G1 X111.49 Y93.713 E.03455
G1 X112.389 Y93.913 E.03502
G1 X112.482 Y93.945 E.00373
G1 X112.379 Y94.39 F9000
G1 F3000
G1 X113.115 Y94.638 E.02952
G1 X113.91 Y95.002 E.03322
G1 X114.663 Y95.446 E.03322
G1 X115.366 Y95.965 E.03322
G1 X116.012 Y96.554 E.03322
G1 X116.594 Y97.206 E.03322
G1 X116.94 Y97.684 E.02244
G1 X117.541 Y98.673 E.04397
G1 X117.817 Y99.279 E.02529
G1 X118.044 Y99.89 E.0248
G1 X118.269 Y100.729 E.03299
G1 X118.407 Y101.592 E.03322
G1 X118.456 Y102.465 E.03322
G1 X118.415 Y103.338 E.03322
G1 X118.283 Y104.202 E.03322
G1 X118.063 Y105.048 E.03322
G1 X117.835 Y105.677 E.02543
G1 X117.57 Y106.269 E.02466
G1 X117.144 Y107.025 E.03298
G1 X116.638 Y107.738 E.03322
G1 X116.062 Y108.396 E.03322
G1 X115.421 Y108.99 E.03322
G1 X114.755 Y109.49 E.03165
G1 X113.973 Y109.965 E.03478
G1 X113.37 Y110.254 E.02541
G1 X112.765 Y110.492 E.02472
G1 X111.932 Y110.733 E.03295
G1 X111.072 Y110.888 E.03322
G1 X110.2 Y110.954 E.03322
G1 X109.326 Y110.929 E.03322
G1 X108.459 Y110.815 E.03322
G1 X107.609 Y110.611 E.03322
G1 X106.977 Y110.397 E.02538
G1 X106.377 Y110.141 E.02477
G1 X105.615 Y109.73 E.03292
G1 X105.121 Y109.396 E.02267
G1 X104.224 Y108.675 E.04373
G1 X103.617 Y108.046 E.03322
G1 X103.078 Y107.357 E.03322
G1 X102.614 Y106.617 E.03322
G1 X102.228 Y105.832 E.03322
G1 X101.926 Y105.012 E.03322
G1 X101.71 Y104.165 E.03322
G1 X101.582 Y103.301 E.03322
G1 X101.545 Y102.635 E.02534
G1 X101.576 Y101.77 E.03288
G1 X101.696 Y100.904 E.03322
G1 X101.905 Y100.056 E.03322
G1 X102.122 Y99.429 E.02521
G1 X102.384 Y98.826 E.02497
G1 X102.799 Y98.067 E.0329
G1 X103.339 Y97.291 E.03591
G1 X103.863 Y96.683 E.03053
G1 X104.496 Y96.08 E.03322
G1 X105.189 Y95.546 E.03322
G1 X105.932 Y95.087 E.03322
G1 X106.719 Y94.706 E.03322
G1 X107.541 Y94.409 E.03322
G1 X108.39 Y94.199 E.03322
G1 X109.255 Y94.077 E.03322
G1 X109.919 Y94.045 E.02525
G1 X110.573 Y94.063 E.02488
G1 X111.434 Y94.166 E.03294
G1 X112.287 Y94.359 E.03322
G1 X112.341 Y94.377 E.00218
G1 X112.236 Y94.822 F9000
;TYPE:Outer wall
G1 F3000
G1 X112.967 Y95.071 E.02935
G1 X113.718 Y95.417 E.03143
G1 X114.429 Y95.839 E.03143
G1 X115.093 Y96.331 E.03143
G1 X115.703 Y96.89 E.03143
G1 X116.252 Y97.509 E.03143
G1 X116.569 Y97.95 E.02064
G1 X117.144 Y98.899 E.04217
G1 X117.4 Y99.466 E.02365
G1 X117.615 Y100.048 E.02358
G1 X117.827 Y100.845 E.03135
G1 X117.956 Y101.662 E.03143
G1 X118 Y102.488 E.03143
G1 X117.958 Y103.314 E.03143
G1 X117.832 Y104.131 E.03143
G1 X117.621 Y104.931 E.03143
G1 X117.406 Y105.519 E.02379
G1 X117.153 Y106.082 E.02345
G1 X116.746 Y106.799 E.03135
G1 X116.266 Y107.473 E.03143
G1 X115.72 Y108.093 E.03143
G1 X115.112 Y108.654 E.03143
G1 X114.482 Y109.124 E.02986
G1 X113.739 Y109.572 E.03299
G1 X113.174 Y109.841 E.02379
G1 X112.599 Y110.066 E.02346
G1 X111.806 Y110.293 E.03134
G1 X110.992 Y110.438 E.03143
G1 X110.167 Y110.498 E.03143
G1 X109.341 Y110.472 E.03143
G1 X108.521 Y110.362 E.03143
G1 X107.718 Y110.167 E.03143
G1 X107.126 Y109.964 E.02378
G1 X106.558 Y109.721 E.02348
G1 X105.833 Y109.328 E.03133
G1 X105.379 Y109.019 E.02088
G1 X104.52 Y108.327 E.04194
G1 X103.947 Y107.73 E.03143
G1 X103.44 Y107.077 E.03143
G1 X103.002 Y106.376 E.03143
G1 X102.64 Y105.632 E.03143
G1 X102.356 Y104.856 E.03143
G1 X102.153 Y104.054 E.03143
G1 X102.035 Y103.236 E.03142
G1 X102.002 Y102.611 E.02377
G1 X102.033 Y101.788 E.03131
G1 X102.149 Y100.969 E.03143
G1 X102.349 Y100.167 E.03142
G1 X102.553 Y99.58 E.02363
G1 X102.802 Y99.01 E.02364
G1 X103.199 Y98.288 E.03132
G1 X103.671 Y97.608 E.03143
G1 X104.209 Y96.981 E.03143
G1 X104.81 Y96.413 E.03143
G1 X105.466 Y95.909 E.03143
G1 X106.171 Y95.477 E.03143
G1 X106.916 Y95.119 E.03143
G1 X107.695 Y94.84 E.03143
G1 X108.498 Y94.643 E.03143
G1 X109.317 Y94.53 E.03142
G1 X109.939 Y94.502 E.02364
G1 X110.56 Y94.52 E.02361
G1 X111.378 Y94.62 E.03133
G1 X112.184 Y94.804 E.03143
G1 X112.198 Y94.809 E.00056
G1 E-.9 F2700
G1 X117.663 Y89.481 Z.6 F9000
G1 X118.257 Y88.901 Z.6
G1 Z.2
G1 E.9 F2100
;TYPE:Bottom surface
;WIDTH:0.504252
G1 F3600
G1 X123.393 Y94.037 E.2786
G1 X123.393 Y94.689 E.02503
G1 X117.811 Y89.107 E.30284
G1 X117.158 Y89.107 E.02503
G1 X123.393 Y95.342 E.33823
G1 X123.393 Y95.994 E.02503
G1 X116.506 Y89.107 E.37363
G1 X115.853 Y89.107 E.02503
G1 X123.393 Y96.647 E.40902
G1 X123.393 Y97.299 E.02503
G1 X115.201 Y89.107 E.44441
G1 X114.549 Y89.107 E.02503
G1 X123.393 Y97.951 E.47981
G1 X123.393 Y98.604 E.02503
G1 X113.896 Y89.107 E.5152
G1 X113.244 Y89.107 E.02503
G1 X123.393 Y99.256 E.55059
G1 X123.393 Y99.909 E.02503
G1 X112.591 Y89.107 E.58599
G1 X111.939 Y89.107 E.02503
G1 X123.393 Y100.561 E.62138
G1 X123.393 Y101.214 E.02503
G1 X111.286 Y89.107 E.65677
G1 X110.634 Y89.107 E.02503
G1 X123.393 Y101.866 E.69217
G1 X123.393 Y102.518 E.02503
G1 X109.982 Y89.107 E.72756
G1 X109.329 Y89.107 E.02503
G1 X114.858 Y94.636 E.29996
G1 X115.196 Y94.84 E.01512
G1 X115.958 Y95.417 E.03669
G1 X116.6 Y96.009 E.03346
G1 X117.197 Y96.68 E.03448
G1 X117.759 Y97.454 E.03669
G1 X117.873 Y97.651 E.00872
G1 X123.393 Y103.171 E.29945
G1 X123.393 Y103.823 E.02503
G1 X118.561 Y98.992 E.26211
G1 X118.835 Y99.743 E.03067
G1 X118.896 Y99.978 E.00932
G1 X123.393 Y104.476 E.24398
G1 X123.393 Y105.128 E.02503
G1 X119.097 Y100.832 E.23306
G1 X119.211 Y101.598 E.02971
G1 X123.393 Y105.781 E.22689
G1 X123.393 Y106.433 E.02503
G1 X119.247 Y102.286 E.22494
G1 X119.257 Y102.5 E.0082
G1 X119.236 Y102.928 E.01645
G1 X123.393 Y107.085 E.22552
G1 X123.393 Y107.738 E.02503
G1 X119.191 Y103.535 E.22797
G1 X119.106 Y104.103 E.02202
G1 X123.393 Y108.39 E.23256
G1 X123.393 Y109.043 E.02503
G1 X118.994 Y104.644 E.23864
G1 X118.86 Y105.162 E.02054
G1 X123.393 Y109.695 E.24591
G1 X123.393 Y110.347 E.02503
G1 X118.693 Y105.647 E.25497
G1 X118.514 Y106.12 E.0194
G1 X123.376 Y110.983 E.26379
G1 X123.05 Y111.309 E.0177
G1 X118.308 Y106.567 E.25725
G1 X118.08 Y106.992 E.01848
G1 X122.724 Y111.635 E.25192
G1 X122.398 Y111.962 E.0177
G1 X117.841 Y107.405 E.2472
G1 X117.578 Y107.795 E.01803
G1 X122.071 Y112.288 E.24374
G1 X121.745 Y112.614 E.0177
G1 X117.304 Y108.173 E.24094
G1 X117.009 Y108.531 E.01778
G1 X121.419 Y112.94 E.23922
G1 X121.093 Y113.267 E.0177
G1 X116.702 Y108.876 E.23818
G1 X116.374 Y109.2 E.0177
G1 X120.766 Y113.593 E.23831
G1 X120.44 Y113.919 E.0177
G1 X116.034 Y109.513 E.23903
G1 X115.67 Y109.801 E.01782
G1 X120.114 Y114.245 E.2411
G1 X119.788 Y114.571 E.0177
G1 X115.298 Y110.082 E.24355
G1 X114.902 Y110.338 E.01811
G1 X119.462 Y114.898 E.24737
G1 X119.135 Y115.224 E.0177
G1 X114.495 Y110.584 E.25173
G1 X114.064 Y110.805 E.01859
G1 X118.809 Y115.55 E.25742
G1 X118.483 Y115.876 E.0177
G1 X113.623 Y111.016 E.26367
G1 X113.15 Y111.196 E.0194
G1 X117.847 Y115.893 E.25482
G1 X117.195 Y115.893 E.02503
G1 X112.657 Y111.355 E.24618
G1 X112.146 Y111.497 E.02034
G1 X116.543 Y115.893 E.2385
G1 X115.89 Y115.893 E.02503
G1 X111.601 Y111.604 E.23269
G1 X111.04 Y111.696 E.02178
G1 X115.238 Y115.893 E.2277
G1 X114.585 Y115.893 E.02503
G1 X110.429 Y111.737 E.22547
G1 X110.153 Y111.755 E.01061
G1 X109.784 Y111.744 E.01418
G1 X113.933 Y115.893 E.22509
G1 X113.28 Y115.893 E.02503
G1 X109.09 Y111.702 E.22736
G1 X108.34 Y111.605 E.02899
G1 X112.628 Y115.893 E.23262
G1 X111.976 Y115.893 E.02503
G1 X107.486 Y111.404 E.24353
G1 X106.488 Y111.058 E.04053
G1 X111.529 Y116.099 E.27345
G1 E-.9 F2700
G1 X110.676 Y108.514 Z.6 F9000
G1 X108.471 Y88.901 Z.6
G1 Z.2
G1 E.9 F2100
G1 F3600
G1 X113.503 Y93.934 E.273
G1 X112.515 Y93.597 E.04006
G1 X108.024 Y89.107 E.2436
G1 X107.372 Y89.107 E.02503
G1 X111.661 Y93.396 E.23266
G1 X110.91 Y93.297 E.02906
G1 X106.719 Y89.107 E.2273
G1 X106.067 Y89.107 E.02503
G1 X110.217 Y93.257 E.22511
G1 X109.888 Y93.246 E.01261
G1 X109.57 Y93.262 E.01223
G1 X105.415 Y89.107 E.22542
G1 X104.762 Y89.107 E.02503
G1 X108.966 Y93.31 E.22803
G1 X108.396 Y93.393 E.02209
G1 X104.11 Y89.107 E.2325
G1 X103.457 Y89.107 E.02503
G1 X107.858 Y93.508 E.23874
G1 X107.337 Y93.639 E.02061
G1 X102.805 Y89.107 E.24586
G1 X102.153 Y89.107 E.02503
G1 X106.854 Y93.809 E.25507
G1 X106.377 Y93.984 E.01951
G1 X101.517 Y89.124 E.26363
G1 X101.191 Y89.45 E.0177
G1 X105.938 Y94.197 E.25754
G1 X105.501 Y94.413 E.01869
G1 X100.865 Y89.776 E.25153
G1 X100.538 Y90.102 E.0177
G1 X105.098 Y94.662 E.24736
G1 X104.699 Y94.915 E.01814
G1 X100.212 Y90.429 E.24338
G1 X99.886 Y90.755 E.0177
G1 X104.331 Y95.2 E.24115
G1 X103.964 Y95.485 E.01784
G1 X99.56 Y91.081 E.23892
G1 X99.234 Y91.407 E.0177
G1 X103.627 Y95.801 E.23835
G1 X103.295 Y96.122 E.0177
G1 X98.907 Y91.734 E.23805
G1 X98.581 Y92.06 E.0177
G1 X102.992 Y96.471 E.23929
G1 X102.693 Y96.824 E.01776
G1 X98.255 Y92.386 E.24078
G1 X97.929 Y92.712 E.0177
G1 X102.423 Y97.207 E.24381
G1 X102.156 Y97.592 E.01799
G1 X97.602 Y93.038 E.24702
G1 X97.276 Y93.365 E.0177
G1 X101.921 Y98.01 E.25199
G1 X101.69 Y98.43 E.01843
G1 X96.95 Y93.691 E.25712
G1 X96.624 Y94.017 E.0177
G1 X101.488 Y98.881 E.26387
G1 X101.306 Y99.352 E.01935
G1 X96.607 Y94.653 E.25492
G1 X96.607 Y95.305 E.02503
G1 X101.138 Y99.836 E.24579
G1 X101.009 Y100.359 E.02068
G1 X96.607 Y95.957 E.23879
G1 X96.607 Y96.61 E.02503
G1 X100.891 Y100.893 E.23238
G1 X100.813 Y101.468 E.02224
G1 X96.607 Y97.262 E.22816
G1 X96.607 Y97.915 E.02503
G1 X100.764 Y102.072 E.22552
G1 X100.75 Y102.711 E.02451
G1 X96.607 Y98.567 E.22478
G1 X96.607 Y99.22 E.02503
G1 X100.789 Y103.402 E.22689
G1 X100.905 Y104.17 E.02978
M73 P2 R47
G1 X96.607 Y99.872 E.23315
G1 X96.607 Y100.524 E.02503
G1 X101.106 Y105.023 E.24406
G1 X101.173 Y105.281 E.01021
G1 X101.447 Y106.017 E.03012
G1 X96.607 Y101.177 E.26257
G1 X96.607 Y101.829 E.02503
G1 X102.131 Y107.354 E.29969
G1 X102.408 Y107.795 E.01999
G1 X102.942 Y108.487 E.03351
G1 X103.619 Y109.205 E.03788
G1 X104.321 Y109.809 E.03552
G1 X105.167 Y110.389 E.03935
G1 X110.671 Y115.893 E.29857
G1 X110.018 Y115.893 E.02503
G1 X96.607 Y102.482 E.72756
G1 X96.607 Y103.134 E.02503
G1 X109.366 Y115.893 E.69216
G1 X108.714 Y115.893 E.02503
G1 X96.607 Y103.786 E.65677
G1 X96.607 Y104.439 E.02503
G1 X108.061 Y115.893 E.62138
G1 X107.409 Y115.893 E.02503
G1 X96.607 Y105.091 E.58598
G1 X96.607 Y105.744 E.02503
M73 P2 R46
G1 X106.756 Y115.893 E.55059
G1 X106.104 Y115.893 E.02503
G1 X96.607 Y106.396 E.5152
G1 X96.607 Y107.049 E.02503
G1 X105.451 Y115.893 E.4798
G1 X104.799 Y115.893 E.02503
G1 X96.607 Y107.701 E.44441
G1 X96.607 Y108.353 E.02503
G1 X104.147 Y115.893 E.40902
G1 X103.494 Y115.893 E.02503
G1 X96.607 Y109.006 E.37362
G1 X96.607 Y109.658 E.02503
G1 X102.842 Y115.893 E.33823
G1 X102.189 Y115.893 E.02503
G1 X96.607 Y110.311 E.30284
G1 X96.607 Y110.963 E.02503
G1 X101.743 Y116.099 E.2786
; stop printing object Voron_Design_Cube_v7.stl id:0 copy 0
;LAYER_CHANGE
;Z:0.4
;HEIGHT:0.2
;BEFORE_LAYER_CHANGE
;0.4
G92 E0

G1 E-.9 F2700
;AFTER_LAYER_CHANGE
;0.4
;_SET_FAN_SPEED_CHANGING_LAYER
; printing object Voron_Design_Cube_v7.stl id:0 copy 0
G1 X109.21 Y114.52 Z.6 F9000
G1 X124.011 Y111.39 Z.6
G1 Z.4
G1 E.9 F2100
;TYPE:Inner wall
;WIDTH:0.449999
G1 F6000
G1 X118.89 Y116.511 E.24512
G1 X101.11 Y116.511 E.60185
G1 X95.989 Y111.39 E.24512
G1 X95.989 Y93.61 E.60185
G1 X101.11 Y88.489 E.24512
G1 X118.89 Y88.489 E.60185
G1 X124.011 Y93.61 E.24512
G1 X124.011 Y111.35 E.6005
G1 X124.418 Y111.559 F9000
G1 F6000
G1 X119.059 Y116.918 E.25653
G1 X100.941 Y116.918 E.61326
G1 X95.582 Y111.559 E.25653
G1 X95.582 Y93.441 E.61326
G1 X100.941 Y88.082 E.25653
G1 X119.059 Y88.082 E.61326
G1 X124.418 Y93.441 E.25653
G1 X124.418 Y111.519 E.61191
G1 X124.794 Y111.723 F9000
;TYPE:Outer wall
;WIDTH:0.399999
G1 F2772.636
G1 X124.215 Y112.302 E.02431
G1 X119.796 Y116.721 E.18555
G1 X119.217 Y117.3 E.02431
G1 X118.398 Y117.3 E.02432
G1 F5399.98
G1 X101.602 Y117.3 E.49869
G1 F2772.628
G1 X100.783 Y117.3 E.02432
G1 X100.204 Y116.721 E.02431
G1 X95.779 Y112.296 E.1858
G1 X95.2 Y111.717 E.02431
G1 X95.2 Y110.898 E.02432
G1 F5399.956
G1 X95.2 Y94.102 E.49869
G1 F2772.619
G1 X95.2 Y93.283 E.02432
G1 X95.779 Y92.704 E.02431
G1 X100.204 Y88.279 E.1858
G1 X100.783 Y87.7 E.02431
G1 X101.602 Y87.7 E.02432
G1 F5399.957
G1 X118.398 Y87.7 E.49869
G1 F2772.628
