; HEADER_BLOCK_START
; generated by OrcaSlicer 2.2.0 on 2025-01-27 at 21:37:42
; total layer number: 41
; filament_density: 1.27
; filament_diameter: 1.75
; max_z_height: 6.30
; HEADER_BLOCK_END

; THUMBNAIL_BLOCK_START

;
; THUMBNAIL_BLOCK_END

; external perimeters extrusion width = 0.40mm
; perimeters extrusion width = 0.40mm
; infill extrusion width = 0.40mm
; solid infill extrusion width = 0.40mm
; top infill extrusion width = 0.40mm
; first layer extrusion width = 0.40mm

; EXECUTABLE_BLOCK_START
M73 P0 R21
;TYPE:Custom
G90 ; use absolute coordinates
M83 ; extruder relative mode
M140 S80 ; set final bed temp
M104 S150 ; set temporary nozzle temp to prevent oozing during homing
G4 S10 ; allow partial nozzle warmup
M104 S235 ; set final nozzle temp
M190 S80 ; wait for bed temp to stabilize
M109 S235 ; wait for nozzle temp to stabilize
G28 ; home all axis
G1 Z15 F240
G1 X-2 Y10 F3000
G1 Z0.28 F240
G92 E0
G1 Y140 E10 F1500 ; prime the nozzle
G1 X-1.7 F5000
G92 E0
G1 Y10 E10 F1200 ; prime the nozzle
G92 E0
G90
G21
M83 ; use relative distances for extrusion
; filament start gcode
M106 P3 S180
;Prevent PLA from jamming

M106 S0
;LAYER_CHANGE
;Z:0.3
;HEIGHT:0.3
;BEFORE_LAYER_CHANGE
;0.3
G92 E0

G1 E-4 F1500
M73 P1 R21
;_SET_FAN_SPEED_CHANGING_LAYER
M204 S1500
M73 P1 R21
G1 Z.8 F9000
G1 X92.339 Y81.918
G1 Z.8
G1 Z.3
G1 E4 F1500
;TYPE:Skirt
;WIDTH:0.4
G1 F3000
G1 X92.285 Y81.523 E.01669
G1 X92.252 Y80.778 E.03123
G1 X92.354 Y79.97 E.03411
G1 X92.509 Y79.426 E.02368
G1 X92.884 Y78.63 E.03681
G1 X93.203 Y78.164 E.02365
G1 X93.761 Y77.57 E.03412
G1 X94.207 Y77.222 E.02366
G1 X94.977 Y76.798 E.03679
G1 X95.746 Y76.548 E.03386
G1 X96.31 Y76.456 E.02394
G1 X123.69 Y76.456 E1.1461
G1 X124.483 Y76.607 E.03381
G1 X125.308 Y76.932 E.0371
G1 X125.997 Y77.369 E.03416
G1 X126.637 Y77.971 E.03676
G1 X127.116 Y78.63 E.03413
G1 X127.491 Y79.426 E.03682
G1 X127.693 Y80.216 E.03416
G1 X127.748 Y81.093 E.03677
G1 X120.542 Y134.291 E2.24723
G1 X120.313 Y135.502 E.05159
G1 X119.649 Y137.389 E.08374
G1 X119.269 Y138.135 E.03504
G1 X118.551 Y139.246 E.05535
G1 X117.218 Y140.736 E.08372
G1 X115.628 Y141.951 E.08374
G1 X113.839 Y142.845 E.08373
G1 X112.719 Y143.209 E.0493
G1 X111.41 Y143.469 E.05586
G1 X109.411 Y143.547 E.08376
G1 X107.433 Y143.248 E.08371
G1 X106.015 Y142.788 E.06244
G1 X104.811 Y142.21 E.05587
G1 X103.287 Y141.174 E.07717
G1 X102.307 Y140.268 E.05587
G1 X101.449 Y139.246 E.05587
G1 X100.649 Y137.986 E.06244
G1 X100.09 Y136.774 E.05587
G1 X99.687 Y135.502 E.05587
G1 X99.458 Y134.291 E.05159
G1 X92.344 Y81.958 E2.21083
G1 X92.677 Y81.913 F9000
G1 F3000
G1 X92.618 Y81.478 E.01836
G1 X92.586 Y80.799 E.02845
G1 X92.683 Y80.032 E.03235
G1 X93.167 Y78.81 E.05504
G1 X93.991 Y77.814 E.05409
G1 X95.1 Y77.11 E.055
G1 X96.353 Y76.789 E.05412
G1 X123.647 Y76.789 E1.14258
G1 X124.401 Y76.932 E.03209
G1 X125.146 Y77.226 E.03354
G1 X125.799 Y77.641 E.03239
G1 X126.378 Y78.185 E.03324
G1 X126.833 Y78.81 E.03237
G1 X127.171 Y79.53 E.03329
G1 X127.364 Y80.279 E.0324
G1 X127.414 Y81.072 E.03325
G1 X120.209 Y134.246 E2.24621
G1 X119.985 Y135.429 E.0504
M73 P2 R21
M73 P2 R21
G1 X119.341 Y137.256 E.08109
G1 X118.286 Y139.04 E.08676
G1 X116.996 Y140.484 E.08108
G1 X115.457 Y141.662 E.0811
G1 X113.725 Y142.53 E.08108
G1 X112.625 Y142.887 E.04842
G1 X111.358 Y143.138 E.05409
G1 X109.421 Y143.211 E.08111
G1 X107.507 Y142.921 E.08107
G1 X106.148 Y142.479 E.0598
G1 X104.982 Y141.921 E.0541
G1 X103.492 Y140.909 E.07541
G1 X102.544 Y140.03 E.05411
G1 X101.714 Y139.04 E.05411
G1 X100.948 Y137.834 E.05979
G1 X100.406 Y136.661 E.05411
G1 X100.015 Y135.429 E.0541
G1 X99.791 Y134.246 E.0504
G1 X92.682 Y81.952 E2.20915
; printing object wide-short-metric.stl id:868 copy 0
G1 E-3.5 F1500
;WIPE_START
G1 F3000
G1 X92.618 Y81.478 E-.23932
G1 X92.594 Y80.957 E-.26068
;WIPE_END
G1 Z.8 F9000
G1 X105.825 Y130.675 Z.8
G1 Z.3
G1 E4 F1500
;TYPE:Inner wall
G1 F3000
G1 X105.838 Y130.647 E.00127
G1 X106.153 Y130.151 E.02461
G1 X106.346 Y129.902 E.01319
G1 X106.743 Y129.48 E.02426
G1 X106.98 Y129.271 E.0132
G1 X107.455 Y128.926 E.02461
G1 X107.97 Y128.642 E.02461
G1 X108.26 Y128.517 E.0132
G1 X108.811 Y128.338 E.02426
G1 X109.118 Y128.269 E.01319
G1 X109.702 Y128.196 E.02461
G1 X110.29 Y128.196 E.0246
G1 X110.595 Y128.224 E.01285
G1 X110.898 Y128.272 E.01284
G1 X111.459 Y128.417 E.02426
G1 X111.756 Y128.523 E.01319
G1 X112.288 Y128.774 E.02462
G1 X112.784 Y129.089 E.02461
G1 X113.027 Y129.277 E.01284
G1 X113.257 Y129.48 E.01284
G1 X113.654 Y129.902 E.02426
G1 X113.847 Y130.151 E.01319
G1 X114.162 Y130.647 E.02461
G1 X114.416 Y131.187 E.02496
G1 X114.594 Y131.734 E.02409
G1 X114.666 Y132.053 E.01369
G1 X114.739 Y132.629 E.0243
G1 X114.749 Y132.944 E.01319
G1 X114.712 Y133.522 E.02426
G1 X114.663 Y133.834 E.0132
G1 X114.519 Y134.395 E.02425
G1 X114.412 Y134.691 E.01319
G1 X114.162 Y135.224 E.02461
G1 X113.847 Y135.72 E.02461
G1 X113.654 Y135.969 E.01319
G1 X113.256 Y136.392 E.0243
G1 X113.01 Y136.608 E.01369
G1 X112.545 Y136.945 E.02409
G1 X112.03 Y137.229 E.0246
G1 X111.74 Y137.354 E.0132
G1 X111.189 Y137.533 E.02426
G1 X110.881 Y137.602 E.0132
G1 X110.298 Y137.675 E.02461
G1 X109.71 Y137.675 E.02461
G1 X109.102 Y137.599 E.02568
G1 X108.541 Y137.454 E.02425
G1 X108.244 Y137.348 E.01319
G1 X107.712 Y137.097 E.02462
G1 X107.216 Y136.782 E.02461
G1 X106.743 Y136.391 E.02567
G1 X106.346 Y135.968 E.0243
G1 X106.146 Y135.709 E.01369
G1 X105.838 Y135.223 E.02408
G1 X105.584 Y134.684 E.02496
G1 X105.4 Y134.117 E.02497
G1 X105.29 Y133.539 E.02462
G1 X105.261 Y133.234 E.01284
G1 X105.251 Y132.927 E.01284
G1 X105.288 Y132.34 E.02461
G1 X105.398 Y131.763 E.02462
G1 X105.484 Y131.468 E.01283
G1 X105.588 Y131.18 E.01284
G1 X105.808 Y130.711 E.02167
G1 X106.129 Y130.818 F9000
;TYPE:Outer wall
G1 F3000
G1 X106.133 Y130.809 E.00039
G1 X106.428 Y130.344 E.02306
G1 X106.602 Y130.12 E.01187
G1 X106.977 Y129.721 E.02293
G1 X107.19 Y129.533 E.01187
G1 X107.635 Y129.21 E.02306
G1 X108.118 Y128.944 E.02306
G1 X108.378 Y128.831 E.01187
G1 X108.9 Y128.662 E.02293
G1 X109.176 Y128.6 E.01187
G1 X109.723 Y128.531 E.02307
G1 X110.274 Y128.531 E.02306
G1 X110.553 Y128.558 E.01174
G1 X110.83 Y128.601 E.01174
G1 X111.361 Y128.738 E.02293
G1 X111.627 Y128.834 E.01187
G1 X112.126 Y129.068 E.02307
G1 X112.591 Y129.364 E.02306
G1 X112.813 Y129.535 E.01174
G1 X113.023 Y129.721 E.01174
G1 X113.398 Y130.12 E.02293
G1 X113.572 Y130.344 E.01187
G1 X113.867 Y130.809 E.02306
G1 X114.103 Y131.311 E.0232
G1 X114.27 Y131.823 E.02256
G1 X114.335 Y132.111 E.01236
G1 X114.404 Y132.655 E.02296
G1 X114.413 Y132.939 E.01187
G1 X114.378 Y133.485 E.02293
G1 X114.334 Y133.766 E.01188
G1 X114.198 Y134.296 E.02292
G1 X114.102 Y134.563 E.01187
G1 X113.867 Y135.062 E.02307
G1 X113.572 Y135.527 E.02306
G1 X113.398 Y135.751 E.01187
G1 X113.023 Y136.15 E.02295
G1 X112.801 Y136.345 E.01236
G1 X112.365 Y136.662 E.02256
G1 X111.882 Y136.927 E.02306
G1 X111.622 Y137.04 E.01187
G1 X111.1 Y137.209 E.02293
G1 X110.824 Y137.271 E.01188
G1 X110.277 Y137.34 E.02306
G1 X109.726 Y137.34 E.02306
G1 X109.447 Y137.313 E.01174
G1 X109.17 Y137.269 E.01174
G1 X108.639 Y137.133 E.02293
G1 X108.373 Y137.037 E.01187
G1 X107.874 Y136.803 E.02307
G1 X107.409 Y136.507 E.02306
G1 X107.187 Y136.336 E.01174
G1 X106.977 Y136.15 E.01174
G1 X106.602 Y135.75 E.02295
G1 X106.421 Y135.517 E.01236
G1 X106.133 Y135.061 E.02256
G1 X105.897 Y134.56 E.0232
G1 X105.726 Y134.033 E.0232
G1 X105.622 Y133.492 E.02307
G1 X105.596 Y133.213 E.01174
G1 X105.587 Y132.932 E.01173
G1 X105.622 Y132.382 E.02307
G1 X105.725 Y131.841 E.02307
G1 X105.803 Y131.572 E.01173
G1 X105.898 Y131.308 E.01174
G1 X106.112 Y130.854 E.021
G1 E-3.5 F1500
;WIPE_START
G1 F3000
G1 X106.133 Y130.809 E-.02465
G1 X106.428 Y130.344 E-.27547
G1 X106.602 Y130.12 E-.14177
G1 X106.681 Y130.036 E-.0581
;WIPE_END
G1 Z.8 F9000
G1 X116.017 Y128.523 Z.8
G1 Z.3
G1 E4 F1500
;TYPE:Inner wall
G1 F3000
G1 X116.014 Y128.541 E.00076
G1 X116.522 Y129.357 E.04025
G1 X116.731 Y129.768 E.01931
G1 X116.917 Y130.197 E.01956
G1 X117.075 Y130.637 E.01957
G1 X117.205 Y131.085 E.01956
G1 X117.307 Y131.542 E.01956
G1 X117.38 Y132.003 E.01956
G1 X117.424 Y132.468 E.01956
G1 X117.439 Y132.936 E.01956
G1 X117.424 Y133.403 E.01956
G1 X117.38 Y133.868 E.01956
G1 X117.307 Y134.329 E.01956
G1 X117.205 Y134.786 E.01956
G1 X117.075 Y135.234 E.01956
G1 X116.917 Y135.674 E.01956
G1 X116.731 Y136.102 E.01954
G1 X116.513 Y136.529 E.02007
G1 X116.281 Y136.922 E.01907
G1 X116.018 Y137.308 E.01956
G1 X115.732 Y137.677 E.01956
G1 X115.423 Y138.028 E.01956
G1 X115.092 Y138.358 E.01956
G1 X114.742 Y138.667 E.01956
G1 X114.373 Y138.954 E.01956
G1 X113.986 Y139.216 E.01956
G1 X113.584 Y139.454 E.01957
G1 X113.167 Y139.667 E.01956
G1 X112.739 Y139.852 E.01956
G1 X112.299 Y140.01 E.01956
G1 X111.85 Y140.141 E.01956
G1 X111.394 Y140.243 E.01956
G1 X110.932 Y140.316 E.01956
G1 X110.467 Y140.36 E.01956
G1 X110 Y140.375 E.01956
G1 X109.533 Y140.36 E.01956
G1 X109.068 Y140.316 E.01956
G1 X108.606 Y140.243 E.01956
G1 X108.15 Y140.141 E.01956
G1 X107.701 Y140.01 E.01956
G1 X107.262 Y139.852 E.01956
G1 X106.833 Y139.667 E.01956
G1 X106.416 Y139.454 E.01956
G1 X106.014 Y139.216 E.01956
G1 X105.627 Y138.954 E.01956
G1 X105.258 Y138.667 E.01956
G1 X104.908 Y138.358 E.01956
G1 X104.577 Y138.028 E.01956
G1 X104.268 Y137.677 E.01956
G1 X103.982 Y137.308 E.01956
G1 X103.719 Y136.921 E.01956
G1 X103.481 Y136.519 E.01956
G1 X103.269 Y136.103 E.01956
G1 X103.083 Y135.674 E.01956
G1 X102.925 Y135.234 E.01957
G1 X102.795 Y134.786 E.01956
G1 X102.693 Y134.329 E.01957
G1 X102.62 Y133.868 E.01956
G1 X102.576 Y133.403 E.01956
G1 X102.561 Y132.936 E.01956
G1 X102.576 Y132.468 E.01956
G1 X102.619 Y132.015 E.01908
G1 X102.693 Y131.541 E.02007
G1 X102.795 Y131.085 E.01954
G1 X102.925 Y130.637 E.01956
G1 X103.083 Y130.197 E.01957
G1 X103.269 Y129.768 E.01956
G1 X103.478 Y129.357 E.01931
G1 X103.986 Y128.541 E.04025
G1 X95.448 Y81.104 E2.01764
G1 X95.437 Y80.936 E.00705
G1 X95.478 Y80.609 E.01378
G1 X95.599 Y80.303 E.01377
G1 X95.688 Y80.164 E.0069
G1 X95.913 Y79.924 E.01379
G1 X96.046 Y79.827 E.0069
G1 X96.34 Y79.689 E.01357
G1 X96.668 Y79.625 E.01398
G1 X123.332 Y79.625 E1.1162
G1 X123.491 Y79.645 E.0067
G1 X123.657 Y79.687 E.00715
G1 X123.954 Y79.827 E.01374
G1 X124.087 Y79.924 E.0069
G1 X124.312 Y80.164 E.01379
G1 X124.471 Y80.452 E.01378
G1 X124.522 Y80.609 E.0069
G1 X124.563 Y80.936 E.01378
G1 X124.552 Y81.104 E.00705
G1 X116.024 Y128.483 E2.01521
G1 X116.383 Y128.385 F9000
;TYPE:Outer wall
G1 F3000
G1 X116.367 Y128.473 E.00376
G1 X116.814 Y129.192 E.03544
G1 X117.035 Y129.625 E.02035
G1 X117.229 Y130.073 E.02044
G1 X117.394 Y130.533 E.02045
G1 X117.531 Y131.002 E.02044
G1 X117.637 Y131.479 E.02045
G1 X117.714 Y131.961 E.02045
G1 X117.759 Y132.447 E.02045
G1 X117.775 Y132.936 E.02045
G1 X117.759 Y133.424 E.02044
G1 X117.714 Y133.91 E.02045
G1 X117.637 Y134.392 E.02044
G1 X117.531 Y134.869 E.02045
G1 X117.394 Y135.338 E.02044
G1 X117.229 Y135.798 E.02045
G1 X117.035 Y136.246 E.02043
G1 X116.807 Y136.691 E.02095
G1 X116.564 Y137.101 E.01995
G1 X116.29 Y137.505 E.02045
G1 X115.991 Y137.891 E.02045
G1 X115.668 Y138.258 E.02044
G1 X115.322 Y138.603 E.02045
G1 X114.956 Y138.926 E.02045
G1 X114.57 Y139.225 E.02044
G1 X114.166 Y139.5 E.02044
G1 X113.746 Y139.749 E.02045
G1 X113.31 Y139.97 E.02045
G1 X112.862 Y140.164 E.02044
G1 X112.403 Y140.33 E.02045
G1 X111.934 Y140.466 E.02045
G1 X111.457 Y140.573 E.02045
G1 X110.974 Y140.649 E.02045
G1 X110.488 Y140.695 E.02045
G1 X110 Y140.71 E.02044
G1 X109.512 Y140.695 E.02044
G1 X109.026 Y140.649 E.02045
G1 X108.543 Y140.573 E.02045
G1 X108.066 Y140.466 E.02045
G1 X107.597 Y140.33 E.02044
G1 X107.138 Y140.164 E.02044
G1 X106.69 Y139.97 E.02045
G1 X106.254 Y139.749 E.02045
G1 X105.834 Y139.5 E.02045
G1 X105.43 Y139.225 E.02045
G1 X105.044 Y138.926 E.02044
G1 X104.678 Y138.603 E.02045
G1 X104.332 Y138.258 E.02045
G1 X104.009 Y137.891 E.02045
G1 X103.71 Y137.505 E.02044
G1 X103.435 Y137.101 E.02045
G1 X103.187 Y136.681 E.02044
G1 X102.965 Y136.246 E.02045
G1 X102.771 Y135.798 E.02044
G1 X102.606 Y135.338 E.02045
G1 X102.469 Y134.869 E.02044
G1 X102.363 Y134.392 E.02045
G1 X102.286 Y133.91 E.02044
G1 X102.241 Y133.424 E.02045
G1 X102.225 Y132.936 E.02044
G1 X102.241 Y132.447 E.02045
G1 X102.285 Y131.973 E.01995
G1 X102.363 Y131.478 E.02095
G1 X102.469 Y131.002 E.02044
G1 X102.606 Y130.533 E.02044
G1 X102.771 Y130.073 E.02045
G1 X102.965 Y129.625 E.02044
G1 X103.186 Y129.192 E.02035
G1 X103.633 Y128.473 E.03544
G1 X95.114 Y81.144 E2.01305
G1 X95.101 Y80.936 E.00874
G1 X95.114 Y80.729 E.00867
G1 X95.152 Y80.525 E.00867
G1 X95.216 Y80.328 E.00867
G1 X95.305 Y80.141 E.00867
G1 X95.416 Y79.966 E.00867
G1 X95.548 Y79.807 E.00867
G1 X95.699 Y79.665 E.00867
G1 X95.866 Y79.543 E.00866
G1 X96.048 Y79.443 E.00867
G1 X96.235 Y79.369 E.00844
G1 X96.441 Y79.315 E.00892
G1 X96.646 Y79.289 E.00865
G1 X123.354 Y79.289 E1.11797
G1 X123.554 Y79.315 E.00844
G1 X123.76 Y79.367 E.00892
G1 X123.952 Y79.443 E.00865
G1 X124.134 Y79.543 E.00867
G1 X124.301 Y79.665 E.00867
G1 X124.452 Y79.807 E.00867
G1 X124.584 Y79.966 E.00867
G1 X124.695 Y80.141 E.00867
G1 X124.784 Y80.328 E.00867
G1 X124.848 Y80.525 E.00867
G1 X124.886 Y80.729 E.00867
G1 X124.899 Y80.936 E.00867
G1 X124.886 Y81.144 E.00874
G1 X116.39 Y128.345 E2.00761
G1 E-3.5 F1500
;WIPE_START
G1 F3000
G1 X116.367 Y128.473 E-.06494
G1 X116.814 Y129.192 E-.42334
G1 X116.825 Y129.213 E-.01172
;WIPE_END
G1 Z.8 F9000
G1 X124.448 Y81.116
G1 Z.8
G1 Z.3
G1 E4 F1500
;TYPE:Bottom surface
;WIDTH:0.400045
G1 F3000
G1 X123.209 Y79.877 E.07336
G1 X122.734 Y79.877 E.01987
G1 X124.245 Y81.388 E.08948
G1 X124.173 Y81.79 E.01711
G1 X122.259 Y79.877 E.1133
G1 X121.785 Y79.877 E.01987
G1 X124.101 Y82.193 E.13712
G1 X124.028 Y82.595 E.01711
G1 X121.31 Y79.877 E.16094
G1 X120.835 Y79.877 E.01987
G1 X123.956 Y82.997 E.18476
G1 X123.883 Y83.4 E.01711
G1 X120.361 Y79.877 E.20857
G1 X119.886 Y79.877 E.01987
G1 X123.811 Y83.802 E.23239
G1 X123.739 Y84.204 E.01711
M73 P3 R21
M73 P3 R21
G1 X119.411 Y79.877 E.25621
G1 X118.937 Y79.877 E.01987
G1 X123.666 Y84.606 E.28003
G1 X123.594 Y85.009 E.01711
G1 X118.462 Y79.877 E.30385
G1 X117.987 Y79.877 E.01987
G1 X123.521 Y85.411 E.32767
G1 X123.449 Y85.813 E.01711
G1 X117.512 Y79.877 E.35148
G1 X117.038 Y79.877 E.01987
G1 X123.377 Y86.216 E.3753
G1 X123.304 Y86.618 E.01711
G1 X116.563 Y79.877 E.39912
G1 X116.088 Y79.877 E.01987
G1 X123.232 Y87.02 E.42294
G1 X123.159 Y87.422 E.01711
G1 X115.614 Y79.877 E.44676
G1 X115.139 Y79.877 E.01987
G1 X123.087 Y87.825 E.47058
G1 X123.014 Y88.227 E.01711
G1 X114.664 Y79.877 E.49439
G1 X114.19 Y79.877 E.01987
G1 X122.942 Y88.629 E.51821
G1 X122.87 Y89.032 E.01711
G1 X113.715 Y79.877 E.54203
G1 X113.24 Y79.877 E.01987
G1 X122.797 Y89.434 E.56585
G1 X122.725 Y89.836 E.01711
G1 X112.765 Y79.877 E.58967
G1 X112.291 Y79.877 E.01987
G1 X122.652 Y90.238 E.61349
G1 X122.58 Y90.641 E.01711
G1 X111.816 Y79.877 E.63731
M73 P3 R20
M73 P3 R20
G1 X111.341 Y79.877 E.01987
G1 X122.508 Y91.043 E.66112
G1 X122.435 Y91.445 E.01711
G1 X110.867 Y79.877 E.68494
G1 X110.392 Y79.877 E.01987
G1 X122.363 Y91.848 E.70876
G1 X122.29 Y92.25 E.01711
G1 X109.917 Y79.877 E.73258
G1 X109.443 Y79.877 E.01987
G1 X122.218 Y92.652 E.7564
G1 X122.146 Y93.054 E.01711
G1 X108.968 Y79.877 E.78022
G1 X108.493 Y79.877 E.01987
G1 X122.073 Y93.457 E.80403
G1 X122.001 Y93.859 E.01711
G1 X108.018 Y79.877 E.82785
G1 X107.544 Y79.877 E.01987
G1 X121.928 Y94.261 E.85167
G1 X121.856 Y94.664 E.01711
G1 X107.069 Y79.877 E.87549
G1 X106.594 Y79.877 E.01987
G1 X121.783 Y95.066 E.89931
G1 X121.711 Y95.468 E.01711
G1 X106.12 Y79.877 E.92313
G1 X105.645 Y79.877 E.01987
G1 X121.639 Y95.871 E.94695
G1 X121.566 Y96.273 E.01711
G1 X105.17 Y79.877 E.97076
G1 X104.695 Y79.877 E.01987
G1 X121.494 Y96.675 E.99458
G1 X121.421 Y97.077 E.01711
G1 X104.221 Y79.877 E1.0184
G1 X103.746 Y79.877 E.01987
G1 X121.349 Y97.48 E1.04222
G1 X121.277 Y97.882 E.01711
G1 X103.271 Y79.877 E1.06604
G1 X102.797 Y79.877 E.01987
G1 X121.204 Y98.284 E1.08986
G1 X121.132 Y98.687 E.01711
M73 P4 R20
M73 P4 R20
G1 X102.322 Y79.877 E1.11367
